( TEST DATE=26-03-07  TIME=02:35 )
( Toolpath created using cncpost by: Daniel Claxton )

N0000 G70
N0001 G00 G40 G80 G90
N0002 T1
N0003 G00 Z0.4999 S1800 M03
N0004 G00 X-12.0181 Y-0.3448
N0005 G01 Z-0.5027 E5
N0006 G01 X-12.0156 Y-0.1117 Z-0.5083 F30
N0007 G01 X-12.0110 Y0.1236 Z-0.5232
N0008 G01 X-12.0091 Y0.3554 Z-0.5452
N0009 G01 X-12.0081 Y0.5858 Z-0.5704
N0010 G01 X-12.0078 Y0.8151 Z-0.5976
N0011 G01 X-12.0082 Y1.0427 Z-0.6242
N0012 G01 X-12.0093 Y1.2687 Z-0.6466
N0013 G01 X-12.0101 Y1.4947 Z-0.6620
N0014 G01 X-12.0104 Y1.7206 Z-0.6698
N0015 G01 X-12.0098 Y1.9409 Z-0.6658
N0016 G01 X-12.0041 Y2.1399 Z-0.6325
N0017 G01 X-11.9932 Y2.3116 Z-0.5439
N0018 G01 X-11.9381 Y2.3212 Z-0.5393
N0019 G01 X-11.8541 Y2.3358 Z-0.5323
N0020 G01 X-11.7543 Y2.3530 Z-0.5241
N0021 G01 X-11.6427 Y2.3721 Z-0.5150
N0022 G01 X-11.5214 Y2.3926 Z-0.5052
N0023 G01 X-11.3919 Y2.4143 Z-0.4948
N0024 G01 X-11.2551 Y2.4369 Z-0.4840
N0025 G01 X-11.1118 Y2.4603 Z-0.4728
N0026 G01 X-10.9627 Y2.4843 Z-0.4613
N0027 G01 X-10.8081 Y2.5089 Z-0.4496
N0028 G01 X-10.6486 Y2.5338 Z-0.4376
N0029 G01 X-10.4845 Y2.5592 Z-0.4255
N0030 G01 X-10.3160 Y2.5847 Z-0.4133
N0031 G01 X-10.1436 Y2.6105 Z-0.4010
N0032 G01 X-9.9673 Y2.6364 Z-0.3886
N0033 G01 X-9.7874 Y2.6623 Z-0.3762
N0034 G01 X-9.6041 Y2.6883 Z-0.3638
N0035 G01 X-9.4175 Y2.7142 Z-0.3514
N0036 G01 X-9.2279 Y2.7400 Z-0.3391
N0037 G01 X-9.0354 Y2.7656 Z-0.3268
N0038 G01 X-8.8401 Y2.7911 Z-0.3146
N0039 G01 X-8.6422 Y2.8164 Z-0.3025
N0040 G01 X-8.4417 Y2.8414 Z-0.2906
N0041 G01 X-8.2389 Y2.8661 Z-0.2788
N0042 G01 X-8.0337 Y2.8904 Z-0.2671
N0043 G01 X-7.8263 Y2.9145 Z-0.2556
N0044 G01 X-7.6169 Y2.9381 Z-0.2443
N0045 G01 X-7.4054 Y2.9612 Z-0.2333
N0046 G01 X-7.1920 Y2.9840 Z-0.2224
N0047 G01 X-6.9768 Y3.0063 Z-0.2117
N0048 G01 X-6.7598 Y3.0280 Z-0.2013
N0049 G01 X-6.5411 Y3.0493 Z-0.1912
N0050 G01 X-6.3208 Y3.0699 Z-0.1813
N0051 G01 X-6.0990 Y3.0900 Z-0.1717
N0052 G01 X-5.8758 Y3.1096 Z-0.1623
N0053 G01 X-5.6511 Y3.1284 Z-0.1533
N0054 G01 X-5.4252 Y3.1467 Z-0.1446
N0055 G01 X-5.1980 Y3.1644 Z-0.1361
N0056 G01 X-4.9696 Y3.1813 Z-0.1280
N0057 G01 X-4.7400 Y3.1976 Z-0.1203
N0058 G01 X-4.5094 Y3.2131 Z-0.1128
N0059 G01 X-4.2778 Y3.2280 Z-0.1057
N0060 G01 X-4.0453 Y3.2421 Z-0.0989
N0061 G01 X-3.8119 Y3.2555 Z-0.0925
N0062 G01 X-3.5776 Y3.2681 Z-0.0865
N0063 G01 X-3.3425 Y3.2800 Z-0.0808
N0064 G01 X-3.1068 Y3.2911 Z-0.0755
N0065 G01 X-2.8703 Y3.3014 Z-0.0706
N0066 G01 X-2.6333 Y3.3110 Z-0.0660
N0067 G01 X-2.3956 Y3.3196 Z-0.0619
N0068 G01 X-2.1575 Y3.3276 Z-0.0581
N0069 G01 X-1.9189 Y3.3347 Z-0.0547
N0070 G01 X-1.6799 Y3.3409 Z-0.0517
N0071 G01 X-1.4406 Y3.3465 Z-0.0490
N0072 G01 X-1.2010 Y3.3510 Z-0.0469
N0073 G01 X-0.9611 Y3.3549 Z-0.0450
N0074 G01 X-0.7210 Y3.3579 Z-0.0436
N0075 G01 X-0.4808 Y3.3597 Z-0.0427
N0076 G01 X-0.2404 Y3.3610 Z-0.0421
N0077 G01 X0.0000 Y3.3616 Z-0.0418
N0078 G01 X0.2404 Y3.3610 Z-0.0421
N0079 G01 X0.4808 Y3.3597 Z-0.0427
N0080 G01 X0.7210 Y3.3579 Z-0.0436
N0081 G01 X0.9611 Y3.3549 Z-0.0450
N0082 G01 X1.2010 Y3.3510 Z-0.0469
N0083 G01 X1.4406 Y3.3465 Z-0.0490
N0084 G01 X1.6799 Y3.3409 Z-0.0517
N0085 G01 X1.9189 Y3.3347 Z-0.0547
N0086 G01 X2.1575 Y3.3276 Z-0.0581
N0087 G01 X2.3956 Y3.3196 Z-0.0619
N0088 G01 X2.6333 Y3.3110 Z-0.0660
N0089 G01 X2.8703 Y3.3014 Z-0.0706
N0090 G01 X3.1068 Y3.2911 Z-0.0755
N0091 G01 X3.3425 Y3.2800 Z-0.0808
N0092 G01 X3.5776 Y3.2681 Z-0.0865
N0093 G01 X3.8119 Y3.2555 Z-0.0925
N0094 G01 X4.0453 Y3.2421 Z-0.0989
N0095 G01 X4.2778 Y3.2280 Z-0.1057
N0096 G01 X4.5094 Y3.2131 Z-0.1128
N0097 G01 X4.7400 Y3.1976 Z-0.1203
N0098 G01 X4.9696 Y3.1813 Z-0.1280
N0099 G01 X5.1980 Y3.1644 Z-0.1361
N0100 G01 X5.4252 Y3.1467 Z-0.1446
N0101 G01 X5.6511 Y3.1284 Z-0.1533
N0102 G01 X5.8758 Y3.1096 Z-0.1623
N0103 G01 X6.0990 Y3.0900 Z-0.1717
N0104 G01 X6.3208 Y3.0699 Z-0.1813
N0105 G01 X6.5411 Y3.0493 Z-0.1912
N0106 G01 X6.7598 Y3.0280 Z-0.2013
N0107 G01 X6.9768 Y3.0063 Z-0.2117
N0108 G01 X7.1920 Y2.9840 Z-0.2224
N0109 G01 X7.4054 Y2.9612 Z-0.2333
N0110 G01 X7.6169 Y2.9381 Z-0.2443
N0111 G01 X7.8263 Y2.9145 Z-0.2556
N0112 G01 X8.0337 Y2.8904 Z-0.2671
N0113 G01 X8.2389 Y2.8661 Z-0.2788
N0114 G01 X8.4417 Y2.8414 Z-0.2906
N0115 G01 X8.6422 Y2.8164 Z-0.3025
N0116 G01 X8.8401 Y2.7911 Z-0.3146
N0117 G01 X9.0354 Y2.7656 Z-0.3268
N0118 G01 X9.2279 Y2.7400 Z-0.3391
N0119 G01 X9.4175 Y2.7142 Z-0.3514
N0120 G01 X9.6041 Y2.6883 Z-0.3638
N0121 G01 X9.7874 Y2.6623 Z-0.3762
N0122 G01 X9.9673 Y2.6364 Z-0.3886
N0123 G01 X10.1436 Y2.6105 Z-0.4010
N0124 G01 X10.3160 Y2.5847 Z-0.4133
N0125 G01 X10.4845 Y2.5592 Z-0.4255
N0126 G01 X10.6486 Y2.5338 Z-0.4376
N0127 G01 X10.8081 Y2.5089 Z-0.4496
N0128 G01 X10.9627 Y2.4843 Z-0.4613
N0129 G01 X11.1118 Y2.4603 Z-0.4728
N0130 G01 X11.2551 Y2.4369 Z-0.4840
N0131 G01 X11.3919 Y2.4143 Z-0.4948
N0132 G01 X11.5214 Y2.3926 Z-0.5052
N0133 G01 X11.6427 Y2.3721 Z-0.5150
N0134 G01 X11.7543 Y2.3530 Z-0.5241
N0135 G01 X11.8541 Y2.3358 Z-0.5323
N0136 G01 X11.9381 Y2.3212 Z-0.5393
N0137 G01 X11.9932 Y2.3116 Z-0.5439
N0138 G01 X12.0041 Y2.1399 Z-0.6325
N0139 G01 X12.0098 Y1.9409 Z-0.6658
N0140 G01 X12.0104 Y1.7206 Z-0.6698
N0141 G01 X12.0101 Y1.4947 Z-0.6620
N0142 G01 X12.0093 Y1.2687 Z-0.6466
N0143 G01 X12.0082 Y1.0427 Z-0.6242
N0144 G01 X12.0078 Y0.8151 Z-0.5976
N0145 G01 X12.0081 Y0.5858 Z-0.5704
N0146 G01 X12.0091 Y0.3554 Z-0.5452
N0147 G01 X12.0110 Y0.1236 Z-0.5232
N0148 G01 X12.0156 Y-0.1117 Z-0.5083
N0149 G01 X12.0181 Y-0.3448 Z-0.5027
N0150 G01 X11.9680 Y-0.3710 Z-0.4985
N0151 G01 X11.8914 Y-0.4109 Z-0.4922
N0152 G01 X11.8003 Y-0.4580 Z-0.4847
N0153 G01 X11.6983 Y-0.5103 Z-0.4763
N0154 G01 X11.5874 Y-0.5666 Z-0.4673
N0155 G01 X11.4688 Y-0.6262 Z-0.4578
N0156 G01 X11.3434 Y-0.6886 Z-0.4479
N0157 G01 X11.2119 Y-0.7532 Z-0.4375
N0158 G01 X11.0749 Y-0.8199 Z-0.4269
N0159 G01 X10.9327 Y-0.8881 Z-0.4160
N0160 G01 X10.7857 Y-0.9577 Z-0.4049
N0161 G01 X10.6343 Y-1.0284 Z-0.3936
N0162 G01 X10.4787 Y-1.1001 Z-0.3822
N0163 G01 X10.3191 Y-1.1725 Z-0.3706
N0164 G01 X10.1557 Y-1.2454 Z-0.3590
N0165 G01 X9.9888 Y-1.3188 Z-0.3473
N0166 G01 X9.8184 Y-1.3924 Z-0.3355
N0167 G01 X9.6448 Y-1.4661 Z-0.3238
N0168 G01 X9.4680 Y-1.5397 Z-0.3120
N0169 G01 X9.2883 Y-1.6133 Z-0.3003
N0170 G01 X9.1057 Y-1.6866 Z-0.2886
N0171 G01 X8.9203 Y-1.7594 Z-0.2770
N0172 G01 X8.7322 Y-1.8318 Z-0.2654
N0173 G01 X8.5416 Y-1.9036 Z-0.2540
N0174 G01 X8.3485 Y-1.9748 Z-0.2426
N0175 G01 X8.1530 Y-2.0451 Z-0.2314
N0176 G01 X7.9553 Y-2.1146 Z-0.2203
N0177 G01 X7.7553 Y-2.1831 Z-0.2094
N0178 G01 X7.5532 Y-2.2505 Z-0.1986
N0179 G01 X7.3491 Y-2.3169 Z-0.1880
N0180 G01 X7.1429 Y-2.3821 Z-0.1776
N0181 G01 X6.9349 Y-2.4459 Z-0.1674
N0182 G01 X6.7250 Y-2.5084 Z-0.1574
N0183 G01 X6.5133 Y-2.5696 Z-0.1477
N0184 G01 X6.2999 Y-2.6292 Z-0.1382
N0185 G01 X6.0849 Y-2.6873 Z-0.1289
N0186 G01 X5.8683 Y-2.7438 Z-0.1199
N0187 G01 X5.6502 Y-2.7985 Z-0.1112
N0188 G01 X5.4307 Y-2.8516 Z-0.1027
N0189 G01 X5.2097 Y-2.9029 Z-0.0945
N0190 G01 X4.9874 Y-2.9523 Z-0.0866
N0191 G01 X4.7639 Y-2.9998 Z-0.0790
N0192 G01 X4.5391 Y-3.0455 Z-0.0717
N0193 G01 X4.3132 Y-3.0890 Z-0.0648
N0194 G01 X4.0862 Y-3.1307 Z-0.0582
N0195 G01 X3.8582 Y-3.1702 Z-0.0519
N0196 G01 X3.6292 Y-3.2075 Z-0.0459
N0197 G01 X3.3994 Y-3.2428 Z-0.0403
N0198 G01 X3.1686 Y-3.2758 Z-0.0350
N0199 G01 X2.9371 Y-3.3066 Z-0.0301
N0200 G01 X2.7048 Y-3.3353 Z-0.0255
N0201 G01 X2.4719 Y-3.3615 Z-0.0213
N0202 G01 X2.2383 Y-3.3855 Z-0.0175
N0203 G01 X2.0042 Y-3.4073 Z-0.0140
N0204 G01 X1.7696 Y-3.4264 Z-0.0110
N0205 G01 X1.5345 Y-3.4436 Z-0.0082
N0206 G01 X1.2991 Y-3.4580 Z-0.0059
N0207 G01 X1.0634 Y-3.4701 Z-0.0040
N0208 G01 X0.8273 Y-3.4804 Z-0.0024
N0209 G01 X0.5910 Y-3.4870 Z-0.0013
N0210 G01 X0.3547 Y-3.4914 Z-0.0006
N0211 G01 X0.1183 Y-3.4943 Z-0.0001
N0212 G01 X-0.1183 
N0213 G01 X-0.3547 Y-3.4914 Z-0.0006
N0214 G01 X-0.5910 Y-3.4870 Z-0.0013
N0215 G01 X-0.8273 Y-3.4804 Z-0.0024
N0216 G01 X-1.0634 Y-3.4701 Z-0.0040
N0217 G01 X-1.2991 Y-3.4580 Z-0.0059
N0218 G01 X-1.5345 Y-3.4436 Z-0.0082
N0219 G01 X-1.7696 Y-3.4264 Z-0.0110
N0220 G01 X-2.0042 Y-3.4073 Z-0.0140
N0221 G01 X-2.2383 Y-3.3855 Z-0.0175
N0222 G01 X-2.4719 Y-3.3615 Z-0.0213
N0223 G01 X-2.7048 Y-3.3353 Z-0.0255
N0224 G01 X-2.9371 Y-3.3066 Z-0.0301
N0225 G01 X-3.1686 Y-3.2758 Z-0.0350
N0226 G01 X-3.3994 Y-3.2428 Z-0.0403
N0227 G01 X-3.6292 Y-3.2075 Z-0.0459
N0228 G01 X-3.8582 Y-3.1702 Z-0.0519
N0229 G01 X-4.0862 Y-3.1307 Z-0.0582
N0230 G01 X-4.3132 Y-3.0890 Z-0.0648
N0231 G01 X-4.5391 Y-3.0455 Z-0.0717
N0232 G01 X-4.7639 Y-2.9998 Z-0.0790
N0233 G01 X-4.9874 Y-2.9523 Z-0.0866
N0234 G01 X-5.2097 Y-2.9029 Z-0.0945
N0235 G01 X-5.4307 Y-2.8516 Z-0.1027
N0236 G01 X-5.6502 Y-2.7985 Z-0.1112
N0237 G01 X-5.8683 Y-2.7438 Z-0.1199
N0238 G01 X-6.0849 Y-2.6873 Z-0.1289
N0239 G01 X-6.2999 Y-2.6292 Z-0.1382
N0240 G01 X-6.5133 Y-2.5696 Z-0.1477
N0241 G01 X-6.7250 Y-2.5084 Z-0.1574
N0242 G01 X-6.9349 Y-2.4459 Z-0.1674
N0243 G01 X-7.1429 Y-2.3821 Z-0.1776
N0244 G01 X-7.3491 Y-2.3169 Z-0.1880
N0245 G01 X-7.5532 Y-2.2505 Z-0.1986
N0246 G01 X-7.7553 Y-2.1831 Z-0.2094
N0247 G01 X-7.9553 Y-2.1146 Z-0.2203
N0248 G01 X-8.1530 Y-2.0451 Z-0.2314
N0249 G01 X-8.3485 Y-1.9748 Z-0.2426
N0250 G01 X-8.5416 Y-1.9036 Z-0.2540
N0251 G01 X-8.7322 Y-1.8318 Z-0.2654
N0252 G01 X-8.9203 Y-1.7594 Z-0.2770
N0253 G01 X-9.1057 Y-1.6866 Z-0.2886
N0254 G01 X-9.2883 Y-1.6133 Z-0.3003
N0255 G01 X-9.4680 Y-1.5397 Z-0.3120
N0256 G01 X-9.6448 Y-1.4661 Z-0.3238
N0257 G01 X-9.8184 Y-1.3924 Z-0.3355
N0258 G01 X-9.9888 Y-1.3188 Z-0.3473
N0259 G01 X-10.1557 Y-1.2454 Z-0.3590
N0260 G01 X-10.3191 Y-1.1725 Z-0.3706
N0261 G01 X-10.4787 Y-1.1001 Z-0.3822
N0262 G01 X-10.6343 Y-1.0284 Z-0.3936
N0263 G01 X-10.7857 Y-0.9577 Z-0.4049
N0264 G01 X-10.9327 Y-0.8881 Z-0.4160
N0265 G01 X-11.0749 Y-0.8199 Z-0.4269
N0266 G01 X-11.2119 Y-0.7532 Z-0.4375
N0267 G01 X-11.3434 Y-0.6886 Z-0.4479
N0268 G01 X-11.4688 Y-0.6262 Z-0.4578
N0269 G01 X-11.5874 Y-0.5666 Z-0.4673
N0270 G01 X-11.6983 Y-0.5103 Z-0.4763
N0271 G01 X-11.8003 Y-0.4580 Z-0.4847
N0272 G01 X-11.8914 Y-0.4109 Z-0.4922
N0273 G01 X-11.9680 Y-0.3710 Z-0.4985
N0274 G01 X-12.0181 Y-0.3448 Z-0.5027
N0275 G01 X-11.7168 Y-0.1634 Z-0.4883
N0276 G01 X-11.7121 Y0.0520 Z-0.5043
N0277 G01 X-11.7095 Y0.2805 Z-0.5266
N0278 G01 X-11.7084 Y0.5058 Z-0.5515
N0279 G01 X-11.7078 Y0.7307 Z-0.5781
N0280 G01 X-11.7080 Y0.9550 Z-0.6046
N0281 G01 X-11.7088 Y1.1782 Z-0.6277
N0282 G01 X-11.7098 Y1.4005 Z-0.6448
N0283 G01 X-11.7103 Y1.6229 Z-0.6551
N0284 G01 X-11.7104 Y1.8437 Z-0.6575
N0285 G01 X-11.7075 Y2.0567 Z-0.6427
N0286 G01 X-11.5585 Y2.0821 Z-0.6339
N0287 G01 X-11.4042 Y2.1081 Z-0.6248
N0288 G01 X-11.2441 Y2.1346 Z-0.6152
N0289 G01 X-11.0793 Y2.1616 Z-0.6054
N0290 G01 X-10.9106 Y2.1888 Z-0.5952
N0291 G01 X-10.7384 Y2.2161 Z-0.5849
N0292 G01 X-10.5632 Y2.2435 Z-0.5743
N0293 G01 X-10.3853 Y2.2708 Z-0.5637
N0294 G01 X-10.2049 Y2.2981 Z-0.5529
N0295 G01 X-10.0223 Y2.3251 Z-0.5421
N0296 G01 X-9.8376 Y2.3520 Z-0.5312
N0297 G01 X-9.6510 Y2.3787 Z-0.5203
N0298 G01 X-9.4626 Y2.4051 Z-0.5095
N0299 G01 X-9.2726 Y2.4312 Z-0.4986
N0300 G01 X-9.0810 Y2.4570 Z-0.4878
N0301 G01 X-8.8880 Y2.4824 Z-0.4771
N0302 G01 X-8.6936 Y2.5074 Z-0.4665
N0303 G01 X-8.4979 Y2.5321 Z-0.4560
N0304 G01 X-8.3010 Y2.5564 Z-0.4456
N0305 G01 X-8.1029 Y2.5802 Z-0.4353
N0306 G01 X-7.9038 Y2.6036 Z-0.4252
N0307 G01 X-7.7036 Y2.6265 Z-0.4152
N0308 G01 X-7.5024 Y2.6489 Z-0.4055
N0309 G01 X-7.3003 Y2.6708 Z-0.3958
N0310 G01 X-7.0973 Y2.6923 Z-0.3864
N0311 G01 X-6.8935 Y2.7132 Z-0.3772
N0312 G01 X-6.6888 Y2.7335 Z-0.3682
N0313 G01 X-6.4834 Y2.7534 Z-0.3594
N0314 G01 X-6.2772 Y2.7727 Z-0.3509
N0315 G01 X-6.0704 Y2.7914 Z-0.3425
N0316 G01 X-5.8629 Y2.8096 Z-0.3344
N0317 G01 X-5.6548 Y2.8271 Z-0.3266
N0318 G01 X-5.4460 Y2.8441 Z-0.3190
N0319 G01 X-5.2367 Y2.8605 Z-0.3116
N0320 G01 X-5.0269 Y2.8763 Z-0.3045
N0321 G01 X-4.8165 Y2.8915 Z-0.2977
N0322 G01 X-4.6057 Y2.9061 Z-0.2912
N0323 G01 X-4.3944 Y2.9200 Z-0.2849
N0324 G01 X-4.1827 Y2.9333 Z-0.2789
N0325 G01 X-3.9706 Y2.9460 Z-0.2731
N0326 G01 X-3.7581 Y2.9580 Z-0.2677
N0327 G01 X-3.5452 Y2.9694 Z-0.2626
N0328 G01 X-3.3320 Y2.9802 Z-0.2577
N0329 G01 X-3.1185 Y2.9903 Z-0.2531
N0330 G01 X-2.9046 Y2.9997 Z-0.2488
N0331 G01 X-2.6905 Y3.0085 Z-0.2448
N0332 G01 X-2.4762 Y3.0166 Z-0.2412
N0333 G01 X-2.2616 Y3.0241 Z-0.2378
N0334 G01 X-2.0469 Y3.0309 Z-0.2347
N0335 G01 X-1.8319 Y3.0369 Z-0.2319
N0336 G01 X-1.6167 Y3.0424 Z-0.2295
N0337 G01 X-1.4015 Y3.0472 Z-0.2273
N0338 G01 X-1.1861 Y3.0512 Z-0.2255
N0339 G01 X-0.9705 Y3.0547 Z-0.2238
N0340 G01 X-0.7551 Y3.0575 Z-0.2226
N0341 G01 X-0.5395 Y3.0593 Z-0.2218
N0342 G01 X-0.3236 Y3.0606 Z-0.2212
N0343 G01 X-0.1078 Y3.0614 Z-0.2207
N0344 G01 X0.1078 
N0345 G01 X0.3236 Y3.0606 Z-0.2212
N0346 G01 X0.5395 Y3.0593 Z-0.2218
N0347 G01 X0.7551 Y3.0575 Z-0.2226
N0348 G01 X0.9705 Y3.0547 Z-0.2238
N0349 G01 X1.1861 Y3.0512 Z-0.2255
N0350 G01 X1.4015 Y3.0472 Z-0.2273
N0351 G01 X1.6167 Y3.0424 Z-0.2295
N0352 G01 X1.8319 Y3.0369 Z-0.2319
N0353 G01 X2.0469 Y3.0309 Z-0.2347
N0354 G01 X2.2616 Y3.0241 Z-0.2378
N0355 G01 X2.4762 Y3.0166 Z-0.2412
N0356 G01 X2.6905 Y3.0085 Z-0.2448
N0357 G01 X2.9046 Y2.9997 Z-0.2488
N0358 G01 X3.1185 Y2.9903 Z-0.2531
N0359 G01 X3.3320 Y2.9802 Z-0.2577
N0360 G01 X3.5452 Y2.9694 Z-0.2626
N0361 G01 X3.7581 Y2.9580 Z-0.2677
N0362 G01 X3.9706 Y2.9460 Z-0.2731
N0363 G01 X4.1827 Y2.9333 Z-0.2789
N0364 G01 X4.3944 Y2.9200 Z-0.2849
N0365 G01 X4.6057 Y2.9061 Z-0.2912
N0366 G01 X4.8165 Y2.8915 Z-0.2977
N0367 G01 X5.0269 Y2.8763 Z-0.3045
N0368 G01 X5.2367 Y2.8605 Z-0.3116
N0369 G01 X5.4460 Y2.8441 Z-0.3190
N0370 G01 X5.6548 Y2.8271 Z-0.3266
N0371 G01 X5.8629 Y2.8096 Z-0.3344
N0372 G01 X6.0704 Y2.7914 Z-0.3425
N0373 G01 X6.2772 Y2.7727 Z-0.3509
N0374 G01 X6.4834 Y2.7534 Z-0.3594
N0375 G01 X6.6888 Y2.7335 Z-0.3682
N0376 G01 X6.8935 Y2.7132 Z-0.3772
N0377 G01 X7.0973 Y2.6923 Z-0.3864
N0378 G01 X7.3003 Y2.6708 Z-0.3958
N0379 G01 X7.5024 Y2.6489 Z-0.4055
N0380 G01 X7.7036 Y2.6265 Z-0.4152
N0381 G01 X7.9038 Y2.6036 Z-0.4252
N0382 G01 X8.1029 Y2.5802 Z-0.4353
N0383 G01 X8.3010 Y2.5564 Z-0.4456
N0384 G01 X8.4979 Y2.5321 Z-0.4560
N0385 G01 X8.6936 Y2.5074 Z-0.4665
N0386 G01 X8.8880 Y2.4824 Z-0.4771
N0387 G01 X9.0810 Y2.4570 Z-0.4878
N0388 G01 X9.2726 Y2.4312 Z-0.4986
N0389 G01 X9.4626 Y2.4051 Z-0.5095
N0390 G01 X9.6510 Y2.3787 Z-0.5203
N0391 G01 X9.8376 Y2.3520 Z-0.5312
N0392 G01 X10.0223 Y2.3251 Z-0.5421
N0393 G01 X10.2049 Y2.2981 Z-0.5529
N0394 G01 X10.3853 Y2.2708 Z-0.5637
N0395 G01 X10.5632 Y2.2435 Z-0.5743
N0396 G01 X10.7384 Y2.2161 Z-0.5849
N0397 G01 X10.9106 Y2.1888 Z-0.5952
N0398 G01 X11.0793 Y2.1616 Z-0.6054
N0399 G01 X11.2441 Y2.1346 Z-0.6152
N0400 G01 X11.4042 Y2.1081 Z-0.6248
N0401 G01 X11.5585 Y2.0821 Z-0.6339
N0402 G01 X11.7075 Y2.0567 Z-0.6427
N0403 G01 X11.7104 Y1.8437 Z-0.6575
N0404 G01 X11.7103 Y1.6229 Z-0.6551
N0405 G01 X11.7098 Y1.4005 Z-0.6448
N0406 G01 X11.7088 Y1.1782 Z-0.6277
N0407 G01 X11.7080 Y0.9550 Z-0.6046
N0408 G01 X11.7078 Y0.7307 Z-0.5781
N0409 G01 X11.7084 Y0.5058 Z-0.5515
N0410 G01 X11.7095 Y0.2805 Z-0.5266
N0411 G01 X11.7121 Y0.0520 Z-0.5043
N0412 G01 X11.7168 Y-0.1634 Z-0.4883
N0413 G01 X11.5932 Y-0.2270 Z-0.4780
N0414 G01 X11.4542 Y-0.2977 Z-0.4666
N0415 G01 X11.3091 Y-0.3706 Z-0.4548
N0416 G01 X11.1590 Y-0.4450 Z-0.4428
N0417 G01 X11.0046 Y-0.5205 Z-0.4306
N0418 G01 X10.8466 Y-0.5968 Z-0.4184
N0419 G01 X10.6853 Y-0.6734 Z-0.4061
N0420 G01 X10.5211 Y-0.7502 Z-0.3937
N0421 G01 X10.3540 Y-0.8272 Z-0.3814
N0422 G01 X10.1846 Y-0.9041 Z-0.3691
N0423 G01 X10.0127 Y-0.9806 Z-0.3569
N0424 G01 X9.8387 Y-1.0569 Z-0.3447
N0425 G01 X9.6626 Y-1.1327 Z-0.3326
N0426 G01 X9.4845 Y-1.2080 Z-0.3206
N0427 G01 X9.3046 Y-1.2826 Z-0.3087
N0428 G01 X9.1229 Y-1.3565 Z-0.2969
N0429 G01 X8.9395 Y-1.4297 Z-0.2853
N0430 G01 X8.7545 Y-1.5019 Z-0.2738
N0431 G01 X8.5679 Y-1.5733 Z-0.2624
N0432 G01 X8.3798 Y-1.6437 Z-0.2513
N0433 G01 X8.1904 Y-1.7130 Z-0.2403
N0434 G01 X7.9995 Y-1.7812 Z-0.2294
N0435 G01 X7.8073 Y-1.8483 Z-0.2188
N0436 G01 X7.6138 Y-1.9142 Z-0.2083
N0437 G01 X7.4191 Y-1.9788 Z-0.1981
N0438 G01 X7.2232 Y-2.0422 Z-0.1881
N0439 G01 X7.0262 Y-2.1042 Z-0.1782
N0440 G01 X6.8280 Y-2.1648 Z-0.1687
N0441 G01 X6.6287 Y-2.2240 Z-0.1593
N0442 G01 X6.4285 Y-2.2818 Z-0.1502
N0443 G01 X6.2273 Y-2.3380 Z-0.1412
N0444 G01 X6.0250 Y-2.3928 Z-0.1326
N0445 G01 X5.8219 Y-2.4460 Z-0.1242
N0446 G01 X5.6179 Y-2.4975 Z-0.1161
N0447 G01 X5.4129 Y-2.5474 Z-0.1081
N0448 G01 X5.2072 Y-2.5957 Z-0.1005
N0449 G01 X5.0008 Y-2.6422 Z-0.0932
N0450 G01 X4.7935 Y-2.6871 Z-0.0861
N0451 G01 X4.5855 Y-2.7302 Z-0.0793
N0452 G01 X4.3769 Y-2.7715 Z-0.0728
N0453 G01 X4.1675 Y-2.8110 Z-0.0665
N0454 G01 X3.9576 Y-2.8488 Z-0.0606
N0455 G01 X3.7471 Y-2.8845 Z-0.0549
N0456 G01 X3.5359 Y-2.9185 Z-0.0495
N0457 G01 X3.3243 Y-2.9507 Z-0.0445
N0458 G01 X3.1122 Y-2.9807 Z-0.0397
N0459 G01 X2.8995 Y-3.0090 Z-0.0353
N0460 G01 X2.6865 Y-3.0354 Z-0.0311
N0461 G01 X2.4731 Y-3.0596 Z-0.0273
N0462 G01 X2.2592 Y-3.0820 Z-0.0237
N0463 G01 X2.0451 Y-3.1025 Z-0.0205
N0464 G01 X1.8307 Y-3.1207 Z-0.0176
N0465 G01 X1.6158 Y-3.1371 Z-0.0150
N0466 G01 X1.4010 Y-3.1516 Z-0.0128
N0467 G01 X1.1858 Y-3.1636 Z-0.0109
N0468 G01 X0.9702 Y-3.1742 Z-0.0092
N0469 G01 X0.7552 Y-3.1826 Z-0.0079
N0470 G01 X0.5397 Y-3.1879 Z-0.0070
N0471 G01 X0.3235 Y-3.1919 Z-0.0064
N0472 G01 X0.1077 Y-3.1944 Z-0.0060
N0473 G01 X-0.1077 
N0474 G01 X-0.3235 Y-3.1919 Z-0.0064
N0475 G01 X-0.5397 Y-3.1879 Z-0.0070
N0476 G01 X-0.7552 Y-3.1826 Z-0.0079
N0477 G01 X-0.9702 Y-3.1742 Z-0.0092
N0478 G01 X-1.1858 Y-3.1636 Z-0.0109
N0479 G01 X-1.4010 Y-3.1516 Z-0.0128
N0480 G01 X-1.6158 Y-3.1371 Z-0.0150
N0481 G01 X-1.8307 Y-3.1207 Z-0.0176
N0482 G01 X-2.0451 Y-3.1025 Z-0.0205
N0483 G01 X-2.2592 Y-3.0820 Z-0.0237
N0484 G01 X-2.4731 Y-3.0596 Z-0.0273
N0485 G01 X-2.6865 Y-3.0354 Z-0.0311
N0486 G01 X-2.8995 Y-3.0090 Z-0.0353
N0487 G01 X-3.1122 Y-2.9807 Z-0.0397
N0488 G01 X-3.3243 Y-2.9507 Z-0.0445
N0489 G01 X-3.5359 Y-2.9185 Z-0.0495
N0490 G01 X-3.7471 Y-2.8845 Z-0.0549
N0491 G01 X-3.9576 Y-2.8488 Z-0.0606
N0492 G01 X-4.1675 Y-2.8110 Z-0.0665
N0493 G01 X-4.3769 Y-2.7715 Z-0.0728
N0494 G01 X-4.5855 Y-2.7302 Z-0.0793
N0495 G01 X-4.7935 Y-2.6871 Z-0.0861
N0496 G01 X-5.0008 Y-2.6422 Z-0.0932
N0497 G01 X-5.2072 Y-2.5957 Z-0.1005
N0498 G01 X-5.4129 Y-2.5474 Z-0.1081
N0499 G01 X-5.6179 Y-2.4975 Z-0.1161
N0500 G01 X-5.8219 Y-2.4460 Z-0.1242
N0501 G01 X-6.0250 Y-2.3928 Z-0.1326
N0502 G01 X-6.2273 Y-2.3380 Z-0.1412
N0503 G01 X-6.4285 Y-2.2818 Z-0.1502
N0504 G01 X-6.6287 Y-2.2240 Z-0.1593
N0505 G01 X-6.8280 Y-2.1648 Z-0.1687
N0506 G01 X-7.0262 Y-2.1042 Z-0.1782
N0507 G01 X-7.2232 Y-2.0422 Z-0.1881
N0508 G01 X-7.4191 Y-1.9788 Z-0.1981
N0509 G01 X-7.6138 Y-1.9142 Z-0.2083
N0510 G01 X-7.8073 Y-1.8483 Z-0.2188
N0511 G01 X-7.9995 Y-1.7812 Z-0.2294
N0512 G01 X-8.1904 Y-1.7130 Z-0.2403
N0513 G01 X-8.3798 Y-1.6437 Z-0.2513
N0514 G01 X-8.5679 Y-1.5733 Z-0.2624
N0515 G01 X-8.7545 Y-1.5019 Z-0.2738
N0516 G01 X-8.9395 Y-1.4297 Z-0.2853
N0517 G01 X-9.1229 Y-1.3565 Z-0.2969
N0518 G01 X-9.3046 Y-1.2826 Z-0.3087
N0519 G01 X-9.4845 Y-1.2080 Z-0.3206
N0520 G01 X-9.6626 Y-1.1327 Z-0.3326
N0521 G01 X-9.8387 Y-1.0569 Z-0.3447
N0522 G01 X-10.0127 Y-0.9806 Z-0.3569
N0523 G01 X-10.1846 Y-0.9041 Z-0.3691
N0524 G01 X-10.3540 Y-0.8272 Z-0.3814
N0525 G01 X-10.5211 Y-0.7502 Z-0.3937
N0526 G01 X-10.6853 Y-0.6734 Z-0.4061
N0527 G01 X-10.8466 Y-0.5968 Z-0.4184
N0528 G01 X-11.0046 Y-0.5205 Z-0.4306
N0529 G01 X-11.1590 Y-0.4450 Z-0.4428
N0530 G01 X-11.3091 Y-0.3706 Z-0.4548
N0531 G01 X-11.4542 Y-0.2977 Z-0.4666
N0532 G01 X-11.5932 Y-0.2270 Z-0.4780
N0533 G01 X-11.7168 Y-0.1634 Z-0.4883
N0534 G01 X-11.4128 Y0.0177 Z-0.4894
N0535 G01 X-11.4099 Y0.2239 Z-0.5104
N0536 G01 X-11.4086 Y0.4484 Z-0.5355
N0537 G01 X-11.4079 Y0.6704 Z-0.5619
N0538 G01 X-11.4078 Y0.8924 Z-0.5881
N0539 G01 X-11.4085 Y1.1138 Z-0.6114
N0540 G01 X-11.4095 Y1.3346 Z-0.6292
N0541 G01 X-11.4102 Y1.5528 Z-0.6408
N0542 G01 X-11.4103 Y1.8028 Z-0.6459
N0543 G01 X-11.2451 Y1.8304 Z-0.6393
N0544 G01 X-11.0646 Y1.8601 Z-0.6319
N0545 G01 X-10.8823 Y1.8895 Z-0.6245
N0546 G01 X-10.6981 Y1.9188 Z-0.6168
N0547 G01 X-10.5121 Y1.9478 Z-0.6091
N0548 G01 X-10.3245 Y1.9766 Z-0.6012
N0549 G01 X-10.1355 Y2.0051 Z-0.5933
N0550 G01 X-9.9453 Y2.0332 Z-0.5853
N0551 G01 X-9.7539 Y2.0610 Z-0.5772
N0552 G01 X-9.5616 Y2.0883 Z-0.5690
N0553 G01 X-9.3682 Y2.1153 Z-0.5609
N0554 G01 X-9.1739 Y2.1418 Z-0.5527
N0555 G01 X-8.9789 Y2.1679 Z-0.5446
N0556 G01 X-8.7830 Y2.1935 Z-0.5365
N0557 G01 X-8.5865 Y2.2186 Z-0.5284
N0558 G01 X-8.3892 Y2.2433 Z-0.5203
N0559 G01 X-8.1913 Y2.2675 Z-0.5123
N0560 G01 X-7.9928 Y2.2911 Z-0.5044
N0561 G01 X-7.7938 Y2.3143 Z-0.4965
N0562 G01 X-7.5942 Y2.3369 Z-0.4888
N0563 G01 X-7.3941 Y2.3589 Z-0.4811
N0564 G01 X-7.1934 Y2.3805 Z-0.4736
N0565 G01 X-6.9924 Y2.4015 Z-0.4662
N0566 G01 X-6.7909 Y2.4220 Z-0.4589
N0567 G01 X-6.5890 Y2.4419 Z-0.4517
N0568 G01 X-6.3867 Y2.4612 Z-0.4448
N0569 G01 X-6.1840 Y2.4799 Z-0.4379
N0570 G01 X-5.9810 Y2.4981 Z-0.4313
N0571 G01 X-5.7776 Y2.5158 Z-0.4248
N0572 G01 X-5.5739 Y2.5328 Z-0.4185
N0573 G01 X-5.3699 Y2.5492 Z-0.4123
N0574 G01 X-5.1656 Y2.5651 Z-0.4064
N0575 G01 X-4.9610 Y2.5803 Z-0.4007
N0576 G01 X-4.7561 Y2.5950 Z-0.3951
N0577 G01 X-4.5511 Y2.6091 Z-0.3898
N0578 G01 X-4.3458 Y2.6225 Z-0.3846
N0579 G01 X-4.1402 Y2.6353 Z-0.3797
N0580 G01 X-3.9344 Y2.6476 Z-0.3750
N0581 G01 X-3.7285 Y2.6592 Z-0.3705
N0582 G01 X-3.5223 Y2.6702 Z-0.3663
N0583 G01 X-3.3160 Y2.6806 Z-0.3622
N0584 G01 X-3.1096 Y2.6903 Z-0.3585
N0585 G01 X-2.9029 Y2.6995 Z-0.3549
N0586 G01 X-2.6961 Y2.7081 Z-0.3515
N0587 G01 X-2.4893 Y2.7159 Z-0.3485
N0588 G01 X-2.2822 Y2.7232 Z-0.3456
N0589 G01 X-2.0751 Y2.7299 Z-0.3430
N0590 G01 X-1.8679 Y2.7359 Z-0.3407
N0591 G01 X-1.6605 Y2.7412 Z-0.3385
N0592 G01 X-1.4531 Y2.7461 Z-0.3366
N0593 G01 X-1.2457 Y2.7501 Z-0.3350
N0594 G01 X-1.0380 Y2.7536 Z-0.3337
N0595 G01 X-0.8306 Y2.7566 Z-0.3325
N0596 G01 X-0.6232 Y2.7587 Z-0.3317
N0597 G01 X-0.4154 Y2.7601 Z-0.3311
N0598 G01 X-0.2075 Y2.7611 Z-0.3307
N0599 G01 X0.0000 Y2.7616 Z-0.3306
N0600 G01 X0.2075 Y2.7611 Z-0.3307
N0601 G01 X0.4154 Y2.7601 Z-0.3311
N0602 G01 X0.6232 Y2.7587 Z-0.3317
N0603 G01 X0.8306 Y2.7566 Z-0.3325
N0604 G01 X1.0380 Y2.7536 Z-0.3337
N0605 G01 X1.2457 Y2.7501 Z-0.3350
N0606 G01 X1.4531 Y2.7461 Z-0.3366
N0607 G01 X1.6605 Y2.7412 Z-0.3385
N0608 G01 X1.8679 Y2.7359 Z-0.3407
N0609 G01 X2.0751 Y2.7299 Z-0.3430
N0610 G01 X2.2822 Y2.7232 Z-0.3456
N0611 G01 X2.4893 Y2.7159 Z-0.3485
N0612 G01 X2.6961 Y2.7081 Z-0.3515
N0613 G01 X2.9029 Y2.6995 Z-0.3549
N0614 G01 X3.1096 Y2.6903 Z-0.3585
N0615 G01 X3.3160 Y2.6806 Z-0.3622
N0616 G01 X3.5223 Y2.6702 Z-0.3663
N0617 G01 X3.7285 Y2.6592 Z-0.3705
N0618 G01 X3.9344 Y2.6476 Z-0.3750
N0619 G01 X4.1402 Y2.6353 Z-0.3797
N0620 G01 X4.3458 Y2.6225 Z-0.3846
N0621 G01 X4.5511 Y2.6091 Z-0.3898
N0622 G01 X4.7561 Y2.5950 Z-0.3951
N0623 G01 X4.9610 Y2.5803 Z-0.4007
N0624 G01 X5.1656 Y2.5651 Z-0.4064
N0625 G01 X5.3699 Y2.5492 Z-0.4123
N0626 G01 X5.5739 Y2.5328 Z-0.4185
N0627 G01 X5.7776 Y2.5158 Z-0.4248
N0628 G01 X5.9810 Y2.4981 Z-0.4313
N0629 G01 X6.1840 Y2.4799 Z-0.4379
N0630 G01 X6.3867 Y2.4612 Z-0.4448
N0631 G01 X6.5890 Y2.4419 Z-0.4517
N0632 G01 X6.7909 Y2.4220 Z-0.4589
N0633 G01 X6.9924 Y2.4015 Z-0.4662
N0634 G01 X7.1934 Y2.3805 Z-0.4736
N0635 G01 X7.3941 Y2.3589 Z-0.4811
N0636 G01 X7.5942 Y2.3369 Z-0.4888
N0637 G01 X7.7938 Y2.3143 Z-0.4965
N0638 G01 X7.9928 Y2.2911 Z-0.5044
N0639 G01 X8.1913 Y2.2675 Z-0.5123
N0640 G01 X8.3892 Y2.2433 Z-0.5203
N0641 G01 X8.5865 Y2.2186 Z-0.5284
N0642 G01 X8.7830 Y2.1935 Z-0.5365
N0643 G01 X8.9789 Y2.1679 Z-0.5446
N0644 G01 X9.1739 Y2.1418 Z-0.5527
N0645 G01 X9.3682 Y2.1153 Z-0.5609
N0646 G01 X9.5616 Y2.0883 Z-0.5690
N0647 G01 X9.7539 Y2.0610 Z-0.5772
N0648 G01 X9.9453 Y2.0332 Z-0.5853
N0649 G01 X10.1355 Y2.0051 Z-0.5933
N0650 G01 X10.3245 Y1.9766 Z-0.6012
N0651 G01 X10.5121 Y1.9478 Z-0.6091
N0652 G01 X10.6981 Y1.9188 Z-0.6168
N0653 G01 X10.8823 Y1.8895 Z-0.6245
N0654 G01 X11.0646 Y1.8601 Z-0.6319
N0655 G01 X11.2451 Y1.8304 Z-0.6393
N0656 G01 X11.4103 Y1.8028 Z-0.6459
N0657 G01 X11.4102 Y1.5528 Z-0.6408
N0658 G01 X11.4095 Y1.3346 Z-0.6292
N0659 G01 X11.4085 Y1.1138 Z-0.6114
N0660 G01 X11.4078 Y0.8924 Z-0.5881
N0661 G01 X11.4079 Y0.6704 Z-0.5619
N0662 G01 X11.4086 Y0.4484 Z-0.5355
N0663 G01 X11.4099 Y0.2239 Z-0.5104
N0664 G01 X11.4128 Y0.0177 Z-0.4894
N0665 G01 X11.2406 Y-0.0695 Z-0.4747
N0666 G01 X11.0788 Y-0.1500 Z-0.4611
N0667 G01 X10.9132 Y-0.2314 Z-0.4475
N0668 G01 X10.7452 Y-0.3127 Z-0.4339
N0669 G01 X10.5751 Y-0.3937 Z-0.4203
N0670 G01 X10.4029 Y-0.4743 Z-0.4069
N0671 G01 X10.2291 Y-0.5545 Z-0.3936
N0672 G01 X10.0537 Y-0.6340 Z-0.3804
N0673 G01 X9.8767 Y-0.7128 Z-0.3674
N0674 G01 X9.6983 Y-0.7908 Z-0.3545
N0675 G01 X9.5186 Y-0.8680 Z-0.3418
N0676 G01 X9.3377 Y-0.9442 Z-0.3292
N0677 G01 X9.1555 Y-1.0195 Z-0.3169
N0678 G01 X8.9721 Y-1.0938 Z-0.3047
N0679 G01 X8.7877 Y-1.1671 Z-0.2928
N0680 G01 X8.6022 Y-1.2391 Z-0.2810
N0681 G01 X8.4156 Y-1.3101 Z-0.2694
N0682 G01 X8.2281 Y-1.3799 Z-0.2581
N0683 G01 X8.0396 Y-1.4484 Z-0.2470
N0684 G01 X7.8502 Y-1.5157 Z-0.2360
N0685 G01 X7.6599 Y-1.5818 Z-0.2254
N0686 G01 X7.4688 Y-1.6464 Z-0.2149
N0687 G01 X7.2767 Y-1.7097 Z-0.2047
N0688 G01 X7.0838 Y-1.7717 Z-0.1947
N0689 G01 X6.8903 Y-1.8322 Z-0.1849
N0690 G01 X6.6959 Y-1.8912 Z-0.1754
N0691 G01 X6.5008 Y-1.9489 Z-0.1662
N0692 G01 X6.3050 Y-2.0050 Z-0.1572
N0693 G01 X6.1085 Y-2.0595 Z-0.1484
N0694 G01 X5.9112 Y-2.1126 Z-0.1399
N0695 G01 X5.7135 Y-2.1641 Z-0.1317
N0696 G01 X5.5150 Y-2.2139 Z-0.1237
N0697 G01 X5.3159 Y-2.2621 Z-0.1160
N0698 G01 X5.1163 Y-2.3088 Z-0.1085
N0699 G01 X4.9161 Y-2.3537 Z-0.1014
N0700 G01 X4.7153 Y-2.3970 Z-0.0944
N0701 G01 X4.5141 Y-2.4386 Z-0.0878
N0702 G01 X4.3124 Y-2.4784 Z-0.0815
N0703 G01 X4.1100 Y-2.5165 Z-0.0754
N0704 G01 X3.9074 Y-2.5530 Z-0.0696
N0705 G01 X3.7044 Y-2.5875 Z-0.0641
N0706 G01 X3.5007 Y-2.6203 Z-0.0589
N0707 G01 X3.2968 Y-2.6515 Z-0.0539
N0708 G01 X3.0927 Y-2.6806 Z-0.0493
N0709 G01 X2.8879 Y-2.7080 Z-0.0449
N0710 G01 X2.6830 Y-2.7337 Z-0.0408
N0711 G01 X2.4779 Y-2.7573 Z-0.0371
N0712 G01 X2.2722 Y-2.7791 Z-0.0336
N0713 G01 X2.0665 Y-2.7993 Z-0.0304
N0714 G01 X1.8607 Y-2.8173 Z-0.0276
N0715 G01 X1.6542 Y-2.8334 Z-0.0250
N0716 G01 X1.4479 Y-2.8481 Z-0.0227
N0717 G01 X1.2416 Y-2.8603 Z-0.0207
N0718 G01 X1.0344 Y-2.8708 Z-0.0191
N0719 G01 X0.8278 Y-2.8799 Z-0.0176
N0720 G01 X0.6217 Y-2.8861 Z-0.0166
N0721 G01 X0.4142 Y-2.8903 Z-0.0160
N0722 G01 X0.2066 Y-2.8935 Z-0.0155
N0723 G01 X0.0000 Y-2.8948 Z-0.0152
N0724 G01 X-0.2066 Y-2.8935 Z-0.0155
N0725 G01 X-0.4142 Y-2.8903 Z-0.0160
N0726 G01 X-0.6217 Y-2.8861 Z-0.0166
N0727 G01 X-0.8278 Y-2.8799 Z-0.0176
N0728 G01 X-1.0344 Y-2.8708 Z-0.0191
N0729 G01 X-1.2416 Y-2.8603 Z-0.0207
N0730 G01 X-1.4479 Y-2.8481 Z-0.0227
N0731 G01 X-1.6542 Y-2.8334 Z-0.0250
N0732 G01 X-1.8607 Y-2.8173 Z-0.0276
N0733 G01 X-2.0665 Y-2.7993 Z-0.0304
N0734 G01 X-2.2722 Y-2.7791 Z-0.0336
N0735 G01 X-2.4779 Y-2.7573 Z-0.0371
N0736 G01 X-2.6830 Y-2.7337 Z-0.0408
N0737 G01 X-2.8879 Y-2.7080 Z-0.0449
N0738 G01 X-3.0927 Y-2.6806 Z-0.0493
N0739 G01 X-3.2968 Y-2.6515 Z-0.0539
N0740 G01 X-3.5007 Y-2.6203 Z-0.0589
N0741 G01 X-3.7044 Y-2.5875 Z-0.0641
N0742 G01 X-3.9074 Y-2.5530 Z-0.0696
N0743 G01 X-4.1100 Y-2.5165 Z-0.0754
N0744 G01 X-4.3124 Y-2.4784 Z-0.0815
N0745 G01 X-4.5141 Y-2.4386 Z-0.0878
N0746 G01 X-4.7153 Y-2.3970 Z-0.0944
N0747 G01 X-4.9161 Y-2.3537 Z-0.1014
N0748 G01 X-5.1163 Y-2.3088 Z-0.1085
N0749 G01 X-5.3159 Y-2.2621 Z-0.1160
N0750 G01 X-5.5150 Y-2.2139 Z-0.1237
N0751 G01 X-5.7135 Y-2.1641 Z-0.1317
N0752 G01 X-5.9112 Y-2.1126 Z-0.1399
N0753 G01 X-6.1085 Y-2.0595 Z-0.1484
N0754 G01 X-6.3050 Y-2.0050 Z-0.1572
N0755 G01 X-6.5008 Y-1.9489 Z-0.1662
N0756 G01 X-6.6959 Y-1.8912 Z-0.1754
N0757 G01 X-6.8903 Y-1.8322 Z-0.1849
N0758 G01 X-7.0838 Y-1.7717 Z-0.1947
N0759 G01 X-7.2767 Y-1.7097 Z-0.2047
N0760 G01 X-7.4688 Y-1.6464 Z-0.2149
N0761 G01 X-7.6599 Y-1.5818 Z-0.2254
N0762 G01 X-7.8502 Y-1.5157 Z-0.2360
N0763 G01 X-8.0396 Y-1.4484 Z-0.2470
N0764 G01 X-8.2281 Y-1.3799 Z-0.2581
N0765 G01 X-8.4156 Y-1.3101 Z-0.2694
N0766 G01 X-8.6022 Y-1.2391 Z-0.2810
N0767 G01 X-8.7877 Y-1.1671 Z-0.2928
N0768 G01 X-8.9721 Y-1.0938 Z-0.3047
N0769 G01 X-9.1555 Y-1.0195 Z-0.3169
N0770 G01 X-9.3377 Y-0.9442 Z-0.3292
N0771 G01 X-9.5186 Y-0.8680 Z-0.3418
N0772 G01 X-9.6983 Y-0.7908 Z-0.3545
N0773 G01 X-9.8767 Y-0.7128 Z-0.3674
N0774 G01 X-10.0537 Y-0.6340 Z-0.3804
N0775 G01 X-10.2291 Y-0.5545 Z-0.3936
N0776 G01 X-10.4029 Y-0.4743 Z-0.4069
N0777 G01 X-10.5751 Y-0.3937 Z-0.4203
N0778 G01 X-10.7452 Y-0.3127 Z-0.4339
N0779 G01 X-10.9132 Y-0.2314 Z-0.4475
N0780 G01 X-11.0788 Y-0.1500 Z-0.4611
N0781 G01 X-11.2406 Y-0.0695 Z-0.4747
N0782 G01 X-11.4128 Y0.0177 Z-0.4894
N0783 G01 X-11.1102 Y0.2008 Z-0.4981
N0784 G01 X-11.1087 Y0.4147 Z-0.5225
N0785 G01 X-11.1080 Y0.6491 Z-0.5505
N0786 G01 X-11.1078 Y0.8821 Z-0.5777
N0787 G01 X-11.1085 Y1.1148 Z-0.6013
N0788 G01 X-11.1096 Y1.3484 Z-0.6190
N0789 G01 X-11.1102 Y1.5486 Z-0.6290
N0790 G01 X-10.9189 Y1.5798 Z-0.6229
N0791 G01 X-10.7286 Y1.6102 Z-0.6168
N0792 G01 X-10.5372 Y1.6403 Z-0.6106
N0793 G01 X-10.3448 Y1.6701 Z-0.6043
N0794 G01 X-10.1516 Y1.6993 Z-0.5980
N0795 G01 X-9.9578 Y1.7282 Z-0.5917
N0796 G01 X-9.7632 Y1.7565 Z-0.5853
N0797 G01 X-9.5681 Y1.7844 Z-0.5789
N0798 G01 X-9.3725 Y1.8118 Z-0.5725
N0799 G01 X-9.1763 Y1.8388 Z-0.5661
N0800 G01 X-8.9796 Y1.8652 Z-0.5597
N0801 G01 X-8.7826 Y1.8911 Z-0.5534
N0802 G01 X-8.5851 Y1.9164 Z-0.5471
N0803 G01 X-8.3872 Y1.9413 Z-0.5408
N0804 G01 X-8.1890 Y1.9656 Z-0.5345
N0805 G01 X-7.9904 Y1.9893 Z-0.5283
N0806 G01 X-7.7915 Y2.0125 Z-0.5222
N0807 G01 X-7.5923 Y2.0352 Z-0.5161
N0808 G01 X-7.3928 Y2.0573 Z-0.5102
N0809 G01 X-7.1931 Y2.0789 Z-0.5042
N0810 G01 X-6.9930 Y2.0999 Z-0.4984
N0811 G01 X-6.7928 Y2.1203 Z-0.4927
N0812 G01 X-6.5922 Y2.1401 Z-0.4870
N0813 G01 X-6.3915 Y2.1594 Z-0.4815
N0814 G01 X-6.1906 Y2.1781 Z-0.4761
N0815 G01 X-5.9894 Y2.1962 Z-0.4708
N0816 G01 X-5.7881 Y2.2138 Z-0.4656
N0817 G01 X-5.5866 Y2.2307 Z-0.4606
N0818 G01 X-5.3848 Y2.2471 Z-0.4557
N0819 G01 X-5.1829 Y2.2629 Z-0.4509
N0820 G01 X-4.9809 Y2.2781 Z-0.4463
N0821 G01 X-4.7787 Y2.2926 Z-0.4419
N0822 G01 X-4.5763 Y2.3067 Z-0.4376
N0823 G01 X-4.3739 Y2.3201 Z-0.4334
N0824 G01 X-4.1713 Y2.3328 Z-0.4294
N0825 G01 X-3.9685 Y2.3451 Z-0.4256
N0826 G01 X-3.7657 Y2.3567 Z-0.4220
N0827 G01 X-3.5627 Y2.3677 Z-0.4185
N0828 G01 X-3.3597 Y2.3781 Z-0.4152
N0829 G01 X-3.1566 Y2.3879 Z-0.4121
N0830 G01 X-2.9533 Y2.3970 Z-0.4092
N0831 G01 X-2.7500 Y2.4056 Z-0.4064
N0832 G01 X-2.5466 Y2.4136 Z-0.4038
N0833 G01 X-2.3431 Y2.4209 Z-0.4015
N0834 G01 X-2.1395 Y2.4277 Z-0.3992
N0835 G01 X-1.9361 Y2.4339 Z-0.3973
N0836 G01 X-1.7323 Y2.4393 Z-0.3955
N0837 G01 X-1.5286 Y2.4443 Z-0.3938
N0838 G01 X-1.3250 Y2.4486 Z-0.3924
N0839 G01 X-1.1211 Y2.4522 Z-0.3913
N0840 G01 X-0.9172 Y2.4554 Z-0.3902
N0841 G01 X-0.7137 Y2.4579 Z-0.3894
N0842 G01 X-0.5099 Y2.4595 Z-0.3889
N0843 G01 X-0.3057 Y2.4607 Z-0.3885
N0844 G01 X-0.1018 Y2.4615 Z-0.3882
N0845 G01 X0.1018 
N0846 G01 X0.3057 Y2.4607 Z-0.3885
N0847 G01 X0.5099 Y2.4595 Z-0.3889
N0848 G01 X0.7137 Y2.4579 Z-0.3894
N0849 G01 X0.9172 Y2.4554 Z-0.3902
N0850 G01 X1.1211 Y2.4522 Z-0.3913
N0851 G01 X1.3250 Y2.4486 Z-0.3924
N0852 G01 X1.5286 Y2.4443 Z-0.3938
N0853 G01 X1.7323 Y2.4393 Z-0.3955
N0854 G01 X1.9361 Y2.4339 Z-0.3973
N0855 G01 X2.1395 Y2.4277 Z-0.3992
N0856 G01 X2.3431 Y2.4209 Z-0.4015
N0857 G01 X2.5466 Y2.4136 Z-0.4038
N0858 G01 X2.7500 Y2.4056 Z-0.4064
N0859 G01 X2.9533 Y2.3970 Z-0.4092
N0860 G01 X3.1566 Y2.3879 Z-0.4121
N0861 G01 X3.3597 Y2.3781 Z-0.4152
N0862 G01 X3.5627 Y2.3677 Z-0.4185
N0863 G01 X3.7657 Y2.3567 Z-0.4220
N0864 G01 X3.9685 Y2.3451 Z-0.4256
N0865 G01 X4.1713 Y2.3328 Z-0.4294
N0866 G01 X4.3739 Y2.3201 Z-0.4334
N0867 G01 X4.5763 Y2.3067 Z-0.4376
N0868 G01 X4.7787 Y2.2926 Z-0.4419
N0869 G01 X4.9809 Y2.2781 Z-0.4463
N0870 G01 X5.1829 Y2.2629 Z-0.4509
N0871 G01 X5.3848 Y2.2471 Z-0.4557
N0872 G01 X5.5866 Y2.2307 Z-0.4606
N0873 G01 X5.7881 Y2.2138 Z-0.4656
N0874 G01 X5.9894 Y2.1962 Z-0.4708
N0875 G01 X6.1906 Y2.1781 Z-0.4761
N0876 G01 X6.3915 Y2.1594 Z-0.4815
N0877 G01 X6.5922 Y2.1401 Z-0.4870
N0878 G01 X6.7928 Y2.1203 Z-0.4927
N0879 G01 X6.9930 Y2.0999 Z-0.4984
N0880 G01 X7.1931 Y2.0789 Z-0.5042
N0881 G01 X7.3928 Y2.0573 Z-0.5102
N0882 G01 X7.5923 Y2.0352 Z-0.5161
N0883 G01 X7.7915 Y2.0125 Z-0.5222
N0884 G01 X7.9904 Y1.9893 Z-0.5283
N0885 G01 X8.1890 Y1.9656 Z-0.5345
N0886 G01 X8.3872 Y1.9413 Z-0.5408
N0887 G01 X8.5851 Y1.9164 Z-0.5471
N0888 G01 X8.7826 Y1.8911 Z-0.5534
N0889 G01 X8.9796 Y1.8652 Z-0.5597
N0890 G01 X9.1763 Y1.8388 Z-0.5661
N0891 G01 X9.3725 Y1.8118 Z-0.5725
N0892 G01 X9.5681 Y1.7844 Z-0.5789
N0893 G01 X9.7632 Y1.7565 Z-0.5853
N0894 G01 X9.9578 Y1.7282 Z-0.5917
N0895 G01 X10.1516 Y1.6993 Z-0.5980
N0896 G01 X10.3448 Y1.6701 Z-0.6043
N0897 G01 X10.5372 Y1.6403 Z-0.6106
N0898 G01 X10.7286 Y1.6102 Z-0.6168
N0899 G01 X10.9189 Y1.5798 Z-0.6229
N0900 G01 X11.1102 Y1.5486 Z-0.6290
N0901 G01 X11.1096 Y1.3484 Z-0.6190
N0902 G01 X11.1085 Y1.1148 Z-0.6013
N0903 G01 X11.1078 Y0.8821 Z-0.5777
N0904 G01 X11.1080 Y0.6491 Z-0.5505
N0905 G01 X11.1087 Y0.4147 Z-0.5225
N0906 G01 X11.1102 Y0.2008 Z-0.4981
N0907 G01 X10.9573 Y0.1246 Z-0.4849
N0908 G01 X10.7828 Y0.0388 Z-0.4701
N0909 G01 X10.6081 Y-0.0457 Z-0.4556
N0910 G01 X10.4322 Y-0.1294 Z-0.4412
N0911 G01 X10.2548 Y-0.2123 Z-0.4270
N0912 G01 X10.0762 Y-0.2945 Z-0.4130
N0913 G01 X9.8966 Y-0.3756 Z-0.3992
N0914 G01 X9.7160 Y-0.4557 Z-0.3856
N0915 G01 X9.5342 Y-0.5349 Z-0.3722
N0916 G01 X9.3516 Y-0.6130 Z-0.3590
N0917 G01 X9.1681 Y-0.6898 Z-0.3460
N0918 G01 X8.9837 Y-0.7656 Z-0.3332
N0919 G01 X8.7984 Y-0.8402 Z-0.3207
N0920 G01 X8.6124 Y-0.9135 Z-0.3084
N0921 G01 X8.4255 Y-0.9855 Z-0.2963
N0922 G01 X8.2378 Y-1.0564 Z-0.2845
N0923 G01 X8.0495 Y-1.1259 Z-0.2729
N0924 G01 X7.8603 Y-1.1939 Z-0.2615
N0925 G01 X7.6704 Y-1.2608 Z-0.2504
N0926 G01 X7.4800 Y-1.3262 Z-0.2396
N0927 G01 X7.2888 Y-1.3901 Z-0.2290
N0928 G01 X7.0969 Y-1.4526 Z-0.2186
N0929 G01 X6.9044 Y-1.5137 Z-0.2085
N0930 G01 X6.7114 Y-1.5732 Z-0.1987
N0931 G01 X6.5176 Y-1.6313 Z-0.1891
N0932 G01 X6.3233 Y-1.6879 Z-0.1798
N0933 G01 X6.1286 Y-1.7428 Z-0.1708
N0934 G01 X5.9331 Y-1.7962 Z-0.1620
N0935 G01 X5.7371 Y-1.8482 Z-0.1535
N0936 G01 X5.5407 Y-1.8984 Z-0.1453
N0937 G01 X5.3437 Y-1.9469 Z-0.1374
N0938 G01 X5.1461 Y-1.9940 Z-0.1297
N0939 G01 X4.9483 Y-2.0393 Z-0.1223
N0940 G01 X4.7499 Y-2.0828 Z-0.1152
N0941 G01 X4.5510 Y-2.1248 Z-0.1083
N0942 G01 X4.3519 Y-2.1651 Z-0.1018
N0943 G01 X4.1522 Y-2.2035 Z-0.0955
N0944 G01 X3.9520 Y-2.2404 Z-0.0895
N0945 G01 X3.7518 Y-2.2754 Z-0.0839
N0946 G01 X3.5510 Y-2.3086 Z-0.0785
N0947 G01 X3.3497 Y-2.3402 Z-0.0734
N0948 G01 X3.1485 Y-2.3699 Z-0.0686
N0949 G01 X2.9467 Y-2.3976 Z-0.0640
N0950 G01 X2.7446 Y-2.4238 Z-0.0598
N0951 G01 X2.5425 Y-2.4481 Z-0.0559
N0952 G01 X2.3400 Y-2.4704 Z-0.0523
N0953 G01 X2.1371 Y-2.4912 Z-0.0489
N0954 G01 X1.9344 Y-2.5100 Z-0.0459
N0955 G01 X1.7313 Y-2.5267 Z-0.0432
N0956 G01 X1.5277 Y-2.5419 Z-0.0407
N0957 G01 X1.3247 Y-2.5551 Z-0.0386
N0958 G01 X1.1209 Y-2.5662 Z-0.0368
N0959 G01 X0.9168 Y-2.5760 Z-0.0352
N0960 G01 X0.7141 Y-2.5836 Z-0.0340
N0961 G01 X0.5104 Y-2.5884 Z-0.0332
N0962 G01 X0.3055 Y-2.5921 Z-0.0326
N0963 G01 X0.1016 Y-2.5944 Z-0.0323
N0964 G01 X-0.1016 
N0965 G01 X-0.3055 Y-2.5921 Z-0.0326
N0966 G01 X-0.5104 Y-2.5884 Z-0.0332
N0967 G01 X-0.7141 Y-2.5836 Z-0.0340
N0968 G01 X-0.9168 Y-2.5760 Z-0.0352
N0969 G01 X-1.1209 Y-2.5662 Z-0.0368
N0970 G01 X-1.3247 Y-2.5551 Z-0.0386
N0971 G01 X-1.5277 Y-2.5419 Z-0.0407
N0972 G01 X-1.7313 Y-2.5267 Z-0.0432
N0973 G01 X-1.9344 Y-2.5100 Z-0.0459
N0974 G01 X-2.1371 Y-2.4912 Z-0.0489
N0975 G01 X-2.3400 Y-2.4704 Z-0.0523
N0976 G01 X-2.5425 Y-2.4481 Z-0.0559
N0977 G01 X-2.7446 Y-2.4238 Z-0.0598
N0978 G01 X-2.9467 Y-2.3976 Z-0.0640
N0979 G01 X-3.1485 Y-2.3699 Z-0.0686
N0980 G01 X-3.3497 Y-2.3402 Z-0.0734
N0981 G01 X-3.5510 Y-2.3086 Z-0.0785
N0982 G01 X-3.7518 Y-2.2754 Z-0.0839
N0983 G01 X-3.9520 Y-2.2404 Z-0.0895
N0984 G01 X-4.1522 Y-2.2035 Z-0.0955
N0985 G01 X-4.3519 Y-2.1651 Z-0.1018
N0986 G01 X-4.5510 Y-2.1248 Z-0.1083
N0987 G01 X-4.7499 Y-2.0828 Z-0.1152
N0988 G01 X-4.9483 Y-2.0393 Z-0.1223
N0989 G01 X-5.1461 Y-1.9940 Z-0.1297
N0990 G01 X-5.3437 Y-1.9469 Z-0.1374
N0991 G01 X-5.5407 Y-1.8984 Z-0.1453
N0992 G01 X-5.7371 Y-1.8482 Z-0.1535
N0993 G01 X-5.9331 Y-1.7962 Z-0.1620
N0994 G01 X-6.1286 Y-1.7428 Z-0.1708
N0995 G01 X-6.3233 Y-1.6879 Z-0.1798
N0996 G01 X-6.5176 Y-1.6313 Z-0.1891
N0997 G01 X-6.7114 Y-1.5732 Z-0.1987
N0998 G01 X-6.9044 Y-1.5137 Z-0.2085
N0999 G01 X-7.0969 Y-1.4526 Z-0.2186
N1000 G01 X-7.2888 Y-1.3901 Z-0.2290
N1001 G01 X-7.4800 Y-1.3262 Z-0.2396
N1002 G01 X-7.6704 Y-1.2608 Z-0.2504
N1003 G01 X-7.8603 Y-1.1939 Z-0.2615
N1004 G01 X-8.0495 Y-1.1259 Z-0.2729
N1005 G01 X-8.2378 Y-1.0564 Z-0.2845
N1006 G01 X-8.4255 Y-0.9855 Z-0.2963
N1007 G01 X-8.6124 Y-0.9135 Z-0.3084
N1008 G01 X-8.7984 Y-0.8402 Z-0.3207
N1009 G01 X-8.9837 Y-0.7656 Z-0.3332
N1010 G01 X-9.1681 Y-0.6898 Z-0.3460
N1011 G01 X-9.3516 Y-0.6130 Z-0.3590
N1012 G01 X-9.5342 Y-0.5349 Z-0.3722
N1013 G01 X-9.7160 Y-0.4557 Z-0.3856
N1014 G01 X-9.8966 Y-0.3756 Z-0.3992
N1015 G01 X-10.0762 Y-0.2945 Z-0.4130
N1016 G01 X-10.2548 Y-0.2123 Z-0.4270
N1017 G01 X-10.4322 Y-0.1294 Z-0.4412
N1018 G01 X-10.6081 Y-0.0457 Z-0.4556
N1019 G01 X-10.7828 Y0.0388 Z-0.4701
N1020 G01 X-10.9573 Y0.1246 Z-0.4849
N1021 G01 X-11.1102 Y0.2008 Z-0.4981
N1022 G01 X-10.8089 Y0.3859 Z-0.5104
N1023 G01 X-10.8081 Y0.5928 Z-0.5352
N1024 G01 X-10.8078 Y0.8172 Z-0.5614
N1025 G01 X-10.8082 Y1.0378 Z-0.5843
N1026 G01 X-10.8093 Y1.2935 Z-0.6047
N1027 G01 X-10.5968 Y1.3274 Z-0.5993
N1028 G01 X-10.4033 Y1.3575 Z-0.5943
N1029 G01 X-10.2078 Y1.3875 Z-0.5892
N1030 G01 X-10.0121 Y1.4169 Z-0.5839
N1031 G01 X-9.8160 Y1.4457 Z-0.5786
N1032 G01 X-9.6195 Y1.4741 Z-0.5733
N1033 G01 X-9.4227 Y1.5020 Z-0.5680
N1034 G01 X-9.2256 Y1.5292 Z-0.5626
N1035 G01 X-9.0282 Y1.5560 Z-0.5573
N1036 G01 X-8.8306 Y1.5822 Z-0.5520
N1037 G01 X-8.6328 Y1.6079 Z-0.5467
N1038 G01 X-8.4346 Y1.6330 Z-0.5414
N1039 G01 X-8.2363 Y1.6576 Z-0.5362
N1040 G01 X-8.0377 Y1.6816 Z-0.5310
N1041 G01 X-7.8390 Y1.7050 Z-0.5259
N1042 G01 X-7.6400 Y1.7279 Z-0.5209
N1043 G01 X-7.4409 Y1.7502 Z-0.5159
N1044 G01 X-7.2416 Y1.7720 Z-0.5110
N1045 G01 X-7.0421 Y1.7931 Z-0.5061
N1046 G01 X-6.8425 Y1.8137 Z-0.5014
N1047 G01 X-6.6427 Y1.8337 Z-0.4967
N1048 G01 X-6.4428 Y1.8532 Z-0.4921
N1049 G01 X-6.2428 Y1.8720 Z-0.4876
N1050 G01 X-6.0426 Y1.8903 Z-0.4832
N1051 G01 X-5.8423 Y1.9080 Z-0.4789
N1052 G01 X-5.6419 Y1.9251 Z-0.4748
N1053 G01 X-5.4413 Y1.9416 Z-0.4707
N1054 G01 X-5.2406 Y1.9575 Z-0.4667
N1055 G01 X-5.0399 Y1.9729 Z-0.4629
N1056 G01 X-4.8391 Y1.9876 Z-0.4592
N1057 G01 X-4.6381 Y2.0017 Z-0.4556
N1058 G01 X-4.4371 Y2.0153 Z-0.4521
N1059 G01 X-4.2360 Y2.0282 Z-0.4488
N1060 G01 X-4.0347 Y2.0406 Z-0.4456
N1061 G01 X-3.8335 Y2.0524 Z-0.4426
N1062 G01 X-3.6321 Y2.0635 Z-0.4396
N1063 G01 X-3.4307 Y2.0741 Z-0.4369
N1064 G01 X-3.2292 Y2.0841 Z-0.4342
N1065 G01 X-3.0277 Y2.0934 Z-0.4317
N1066 G01 X-2.8260 Y2.1022 Z-0.4294
N1067 G01 X-2.6245 Y2.1104 Z-0.4272
N1068 G01 X-2.4228 Y2.1179 Z-0.4252
N1069 G01 X-2.2209 Y2.1249 Z-0.4233
N1070 G01 X-2.0192 Y2.1313 Z-0.4216
N1071 G01 X-1.8175 Y2.1370 Z-0.4201
N1072 G01 X-1.6155 Y2.1422 Z-0.4187
N1073 G01 X-1.4137 Y2.1468 Z-0.4174
N1074 G01 X-1.2118 Y2.1506 Z-0.4164
N1075 G01 X-1.0097 Y2.1540 Z-0.4155
N1076 G01 X-0.8079 Y2.1569 Z-0.4147
N1077 G01 X-0.6063 Y2.1588 Z-0.4142
N1078 G01 X-0.4040 Y2.1601 Z-0.4138
N1079 G01 X-0.2018 Y2.1612 Z-0.4135
N1080 G01 X0.0000 Y2.1616 Z-0.4134
N1081 G01 X0.2018 Y2.1612 Z-0.4135
N1082 G01 X0.4040 Y2.1601 Z-0.4138
N1083 G01 X0.6063 Y2.1588 Z-0.4142
N1084 G01 X0.8079 Y2.1569 Z-0.4147
N1085 G01 X1.0097 Y2.1540 Z-0.4155
N1086 G01 X1.2118 Y2.1506 Z-0.4164
N1087 G01 X1.4137 Y2.1468 Z-0.4174
N1088 G01 X1.6155 Y2.1422 Z-0.4187
N1089 G01 X1.8175 Y2.1370 Z-0.4201
N1090 G01 X2.0192 Y2.1313 Z-0.4216
N1091 G01 X2.2209 Y2.1249 Z-0.4233
N1092 G01 X2.4228 Y2.1179 Z-0.4252
N1093 G01 X2.6245 Y2.1104 Z-0.4272
N1094 G01 X2.8260 Y2.1022 Z-0.4294
N1095 G01 X3.0277 Y2.0934 Z-0.4317
N1096 G01 X3.2292 Y2.0841 Z-0.4342
N1097 G01 X3.4307 Y2.0741 Z-0.4369
N1098 G01 X3.6321 Y2.0635 Z-0.4396
N1099 G01 X3.8335 Y2.0524 Z-0.4426
N1100 G01 X4.0347 Y2.0406 Z-0.4456
N1101 G01 X4.2360 Y2.0282 Z-0.4488
N1102 G01 X4.4371 Y2.0153 Z-0.4521
N1103 G01 X4.6381 Y2.0017 Z-0.4556
N1104 G01 X4.8391 Y1.9876 Z-0.4592
N1105 G01 X5.0399 Y1.9729 Z-0.4629
N1106 G01 X5.2406 Y1.9575 Z-0.4667
N1107 G01 X5.4413 Y1.9416 Z-0.4707
N1108 G01 X5.6419 Y1.9251 Z-0.4748
N1109 G01 X5.8423 Y1.9080 Z-0.4789
N1110 G01 X6.0426 Y1.8903 Z-0.4832
N1111 G01 X6.2428 Y1.8720 Z-0.4876
N1112 G01 X6.4428 Y1.8532 Z-0.4921
N1113 G01 X6.6427 Y1.8337 Z-0.4967
N1114 G01 X6.8425 Y1.8137 Z-0.5014
N1115 G01 X7.0421 Y1.7931 Z-0.5061
N1116 G01 X7.2416 Y1.7720 Z-0.5110
N1117 G01 X7.4409 Y1.7502 Z-0.5159
N1118 G01 X7.6400 Y1.7279 Z-0.5209
N1119 G01 X7.8390 Y1.7050 Z-0.5259
N1120 G01 X8.0377 Y1.6816 Z-0.5310
N1121 G01 X8.2363 Y1.6576 Z-0.5362
N1122 G01 X8.4346 Y1.6330 Z-0.5414
N1123 G01 X8.6328 Y1.6079 Z-0.5467
N1124 G01 X8.8306 Y1.5822 Z-0.5520
N1125 G01 X9.0282 Y1.5560 Z-0.5573
N1126 G01 X9.2256 Y1.5292 Z-0.5626
N1127 G01 X9.4227 Y1.5020 Z-0.5680
N1128 G01 X9.6195 Y1.4741 Z-0.5733
N1129 G01 X9.8160 Y1.4457 Z-0.5786
N1130 G01 X10.0121 Y1.4169 Z-0.5839
N1131 G01 X10.2078 Y1.3875 Z-0.5892
N1132 G01 X10.4033 Y1.3575 Z-0.5943
N1133 G01 X10.5968 Y1.3274 Z-0.5993
N1134 G01 X10.8093 Y1.2935 Z-0.6047
N1135 G01 X10.8082 Y1.0378 Z-0.5843
N1136 G01 X10.8078 Y0.8172 Z-0.5614
N1137 G01 X10.8081 Y0.5928 Z-0.5352
N1138 G01 X10.8089 Y0.3859 Z-0.5104
N1139 G01 X10.6569 Y0.3112 Z-0.4972
N1140 G01 X10.4754 Y0.2233 Z-0.4818
N1141 G01 X10.2949 Y0.1376 Z-0.4668
N1142 G01 X10.1135 Y0.0528 Z-0.4520
N1143 G01 X9.9311 Y-0.0309 Z-0.4374
N1144 G01 X9.7480 Y-0.1134 Z-0.4231
N1145 G01 X9.5640 Y-0.1948 Z-0.4090
N1146 G01 X9.3792 Y-0.2750 Z-0.3952
N1147 G01 X9.1937 Y-0.3540 Z-0.3816
N1148 G01 X9.0075 Y-0.4316 Z-0.3682
N1149 G01 X8.8204 Y-0.5081 Z-0.3551
N1150 G01 X8.6327 Y-0.5832 Z-0.3423
N1151 G01 X8.4444 Y-0.6569 Z-0.3297
N1152 G01 X8.2552 Y-0.7293 Z-0.3173
N1153 G01 X8.0655 Y-0.8004 Z-0.3052
N1154 G01 X7.8752 Y-0.8699 Z-0.2934
N1155 G01 X7.6842 Y-0.9381 Z-0.2819
N1156 G01 X7.4925 Y-1.0049 Z-0.2706
N1157 G01 X7.3004 Y-1.0701 Z-0.2595
N1158 G01 X7.1076 Y-1.1338 Z-0.2488
N1159 G01 X6.9142 Y-1.1961 Z-0.2383
N1160 G01 X6.7204 Y-1.2567 Z-0.2281
N1161 G01 X6.5259 Y-1.3158 Z-0.2181
N1162 G01 X6.3308 Y-1.3735 Z-0.2085
N1163 G01 X6.1354 Y-1.4294 Z-0.1991
N1164 G01 X5.9394 Y-1.4837 Z-0.1900
N1165 G01 X5.7428 Y-1.5365 Z-0.1812
N1166 G01 X5.5459 Y-1.5876 Z-0.1727
N1167 G01 X5.3484 Y-1.6370 Z-0.1644
N1168 G01 X5.1504 Y-1.6848 Z-0.1565
N1169 G01 X4.9521 Y-1.7308 Z-0.1488
N1170 G01 X4.7534 Y-1.7751 Z-0.1414
N1171 G01 X4.5541 Y-1.8178 Z-0.1343
N1172 G01 X4.3546 Y-1.8587 Z-0.1276
N1173 G01 X4.1547 Y-1.8977 Z-0.1211
N1174 G01 X3.9542 Y-1.9351 Z-0.1149
N1175 G01 X3.7537 Y-1.9707 Z-0.1090
N1176 G01 X3.5528 Y-2.0044 Z-0.1034
N1177 G01 X3.3513 Y-2.0364 Z-0.0981
N1178 G01 X3.1498 Y-2.0666 Z-0.0932
N1179 G01 X2.9480 Y-2.0948 Z-0.0885
N1180 G01 X2.7456 Y-2.1213 Z-0.0841
N1181 G01 X2.5434 Y-2.1460 Z-0.0801
N1182 G01 X2.3409 Y-2.1686 Z-0.0763
N1183 G01 X2.1377 Y-2.1896 Z-0.0728
N1184 G01 X1.9350 Y-2.2088 Z-0.0697
N1185 G01 X1.7318 Y-2.2257 Z-0.0669
N1186 G01 X1.5281 Y-2.2411 Z-0.0644
N1187 G01 X1.3250 Y-2.2546 Z-0.0622
N1188 G01 X1.1213 Y-2.2657 Z-0.0603
N1189 G01 X0.9170 Y-2.2756 Z-0.0587
N1190 G01 X0.7142 Y-2.2835 Z-0.0574
N1191 G01 X0.5106 Y-2.2884 Z-0.0566
N1192 G01 X0.3056 Y-2.2921 Z-0.0560
N1193 G01 X0.1016 Y-2.2944 Z-0.0556
N1194 G01 X-0.1016 
N1195 G01 X-0.3056 Y-2.2921 Z-0.0560
N1196 G01 X-0.5106 Y-2.2884 Z-0.0566
N1197 G01 X-0.7142 Y-2.2835 Z-0.0574
N1198 G01 X-0.9170 Y-2.2756 Z-0.0587
N1199 G01 X-1.1213 Y-2.2657 Z-0.0603
N1200 G01 X-1.3250 Y-2.2546 Z-0.0622
N1201 G01 X-1.5281 Y-2.2411 Z-0.0644
N1202 G01 X-1.7318 Y-2.2257 Z-0.0669
N1203 G01 X-1.9350 Y-2.2088 Z-0.0697
N1204 G01 X-2.1377 Y-2.1896 Z-0.0728
N1205 G01 X-2.3409 Y-2.1686 Z-0.0763
N1206 G01 X-2.5434 Y-2.1460 Z-0.0801
N1207 G01 X-2.7456 Y-2.1213 Z-0.0841
N1208 G01 X-2.9480 Y-2.0948 Z-0.0885
N1209 G01 X-3.1498 Y-2.0666 Z-0.0932
N1210 G01 X-3.3513 Y-2.0364 Z-0.0981
N1211 G01 X-3.5528 Y-2.0044 Z-0.1034
N1212 G01 X-3.7537 Y-1.9707 Z-0.1090
N1213 G01 X-3.9542 Y-1.9351 Z-0.1149
N1214 G01 X-4.1547 Y-1.8977 Z-0.1211
N1215 G01 X-4.3546 Y-1.8587 Z-0.1276
N1216 G01 X-4.5541 Y-1.8178 Z-0.1343
N1217 G01 X-4.7534 Y-1.7751 Z-0.1414
N1218 G01 X-4.9521 Y-1.7308 Z-0.1488
N1219 G01 X-5.1504 Y-1.6848 Z-0.1565
N1220 G01 X-5.3484 Y-1.6370 Z-0.1644
N1221 G01 X-5.5459 Y-1.5876 Z-0.1727
N1222 G01 X-5.7428 Y-1.5365 Z-0.1812
N1223 G01 X-5.9394 Y-1.4837 Z-0.1900
N1224 G01 X-6.1354 Y-1.4294 Z-0.1991
N1225 G01 X-6.3308 Y-1.3735 Z-0.2085
N1226 G01 X-6.5259 Y-1.3158 Z-0.2181
N1227 G01 X-6.7204 Y-1.2567 Z-0.2281
N1228 G01 X-6.9142 Y-1.1961 Z-0.2383
N1229 G01 X-7.1076 Y-1.1338 Z-0.2488
N1230 G01 X-7.3004 Y-1.0701 Z-0.2595
N1231 G01 X-7.4925 Y-1.0049 Z-0.2706
N1232 G01 X-7.6842 Y-0.9381 Z-0.2819
N1233 G01 X-7.8752 Y-0.8699 Z-0.2934
N1234 G01 X-8.0655 Y-0.8004 Z-0.3052
N1235 G01 X-8.2552 Y-0.7293 Z-0.3173
N1236 G01 X-8.4444 Y-0.6569 Z-0.3297
N1237 G01 X-8.6327 Y-0.5832 Z-0.3423
N1238 G01 X-8.8204 Y-0.5081 Z-0.3551
N1239 G01 X-9.0075 Y-0.4316 Z-0.3682
N1240 G01 X-9.1937 Y-0.3540 Z-0.3816
N1241 G01 X-9.3792 Y-0.2750 Z-0.3952
N1242 G01 X-9.5640 Y-0.1948 Z-0.4090
N1243 G01 X-9.7480 Y-0.1134 Z-0.4231
N1244 G01 X-9.9311 Y-0.0309 Z-0.4374
N1245 G01 X-10.1135 Y0.0528 Z-0.4520
N1246 G01 X-10.2949 Y0.1376 Z-0.4668
N1247 G01 X-10.4754 Y0.2233 Z-0.4818
N1248 G01 X-10.6569 Y0.3112 Z-0.4972
N1249 G01 X-10.8089 Y0.3859 Z-0.5104
N1250 G01 X-10.5082 Y0.5725 Z-0.5244
N1251 G01 X-10.5083 Y1.0375 Z-0.5746
N1252 G01 X-10.2815 Y1.0728 Z-0.5704
N1253 G01 X-10.0866 Y1.1024 Z-0.5666
N1254 G01 X-9.8893 Y1.1318 Z-0.5626
N1255 G01 X-9.6922 Y1.1606 Z-0.5585
N1256 G01 X-9.4949 Y1.1888 Z-0.5542
N1257 G01 X-9.2975 Y1.2165 Z-0.5499
N1258 G01 X-9.0998 Y1.2436 Z-0.5455
N1259 G01 X-8.9019 Y1.2702 Z-0.5411
N1260 G01 X-8.7039 Y1.2962 Z-0.5367
N1261 G01 X-8.5057 Y1.3217 Z-0.5322
N1262 G01 X-8.3073 Y1.3466 Z-0.5278
N1263 G01 X-8.1088 Y1.3709 Z-0.5234
N1264 G01 X-7.9102 Y1.3946 Z-0.5190
N1265 G01 X-7.7114 Y1.4178 Z-0.5146
N1266 G01 X-7.5125 Y1.4404 Z-0.5103
N1267 G01 X-7.3135 Y1.4624 Z-0.5060
N1268 G01 X-7.1144 Y1.4838 Z-0.5018
N1269 G01 X-6.9152 Y1.5047 Z-0.4977
N1270 G01 X-6.7158 Y1.5250 Z-0.4936
N1271 G01 X-6.5164 Y1.5447 Z-0.4896
N1272 G01 X-6.3168 Y1.5638 Z-0.4857
N1273 G01 X-6.1172 Y1.5823 Z-0.4819
N1274 G01 X-5.9174 Y1.6002 Z-0.4782
N1275 G01 X-5.7177 Y1.6176 Z-0.4745
N1276 G01 X-5.5178 Y1.6343 Z-0.4710
N1277 G01 X-5.3178 Y1.6505 Z-0.4675
N1278 G01 X-5.1177 Y1.6661 Z-0.4642
N1279 G01 X-4.9176 Y1.6811 Z-0.4609
N1280 G01 X-4.7174 Y1.6955 Z-0.4578
N1281 G01 X-4.5171 Y1.7093 Z-0.4548
N1282 G01 X-4.3168 Y1.7225 Z-0.4519
N1283 G01 X-4.1164 Y1.7351 Z-0.4491
N1284 G01 X-3.9160 Y1.7471 Z-0.4464
N1285 G01 X-3.7155 Y1.7585 Z-0.4438
N1286 G01 X-3.5149 Y1.7693 Z-0.4414
N1287 G01 X-3.3143 Y1.7796 Z-0.4391
N1288 G01 X-3.1137 Y1.7892 Z-0.4369
N1289 G01 X-2.9130 Y1.7982 Z-0.4348
N1290 G01 X-2.7122 Y1.8067 Z-0.4329
N1291 G01 X-2.5116 Y1.8145 Z-0.4311
N1292 G01 X-2.3107 Y1.8217 Z-0.4295
N1293 G01 X-2.1098 Y1.8284 Z-0.4279
N1294 G01 X-1.9091 Y1.8344 Z-0.4265
N1295 G01 X-1.7081 Y1.8398 Z-0.4253
N1296 G01 X-1.5072 Y1.8447 Z-0.4241
N1297 G01 X-1.3064 Y1.8489 Z-0.4232
N1298 G01 X-1.1053 Y1.8524 Z-0.4223
N1299 G01 X-0.9043 Y1.8556 Z-0.4216
N1300 G01 X-0.7037 Y1.8580 Z-0.4210
N1301 G01 X-0.5027 Y1.8595 Z-0.4207
N1302 G01 X-0.3014 Y1.8607 Z-0.4204
N1303 G01 X-0.1004 Y1.8615 Z-0.4202
N1304 G01 X0.1004 
N1305 G01 X0.3014 Y1.8607 Z-0.4204
N1306 G01 X0.5027 Y1.8595 Z-0.4207
N1307 G01 X0.7037 Y1.8580 Z-0.4210
N1308 G01 X0.9043 Y1.8556 Z-0.4216
N1309 G01 X1.1053 Y1.8524 Z-0.4223
N1310 G01 X1.3064 Y1.8489 Z-0.4232
N1311 G01 X1.5072 Y1.8447 Z-0.4241
N1312 G01 X1.7081 Y1.8398 Z-0.4253
N1313 G01 X1.9091 Y1.8344 Z-0.4265
N1314 G01 X2.1098 Y1.8284 Z-0.4279
N1315 G01 X2.3107 Y1.8217 Z-0.4295
N1316 G01 X2.5116 Y1.8145 Z-0.4311
N1317 G01 X2.7122 Y1.8067 Z-0.4329
N1318 G01 X2.9130 Y1.7982 Z-0.4348
N1319 G01 X3.1137 Y1.7892 Z-0.4369
N1320 G01 X3.3143 Y1.7796 Z-0.4391
N1321 G01 X3.5149 Y1.7693 Z-0.4414
N1322 G01 X3.7155 Y1.7585 Z-0.4438
N1323 G01 X3.9160 Y1.7471 Z-0.4464
N1324 G01 X4.1164 Y1.7351 Z-0.4491
N1325 G01 X4.3168 Y1.7225 Z-0.4519
N1326 G01 X4.5171 Y1.7093 Z-0.4548
N1327 G01 X4.7174 Y1.6955 Z-0.4578
N1328 G01 X4.9176 Y1.6811 Z-0.4609
N1329 G01 X5.1177 Y1.6661 Z-0.4642
N1330 G01 X5.3178 Y1.6505 Z-0.4675
N1331 G01 X5.5178 Y1.6343 Z-0.4710
N1332 G01 X5.7177 Y1.6176 Z-0.4745
N1333 G01 X5.9174 Y1.6002 Z-0.4782
N1334 G01 X6.1172 Y1.5823 Z-0.4819
N1335 G01 X6.3168 Y1.5638 Z-0.4857
N1336 G01 X6.5164 Y1.5447 Z-0.4896
N1337 G01 X6.7158 Y1.5250 Z-0.4936
N1338 G01 X6.9152 Y1.5047 Z-0.4977
N1339 G01 X7.1144 Y1.4838 Z-0.5018
N1340 G01 X7.3135 Y1.4624 Z-0.5060
N1341 G01 X7.5125 Y1.4404 Z-0.5103
N1342 G01 X7.7114 Y1.4178 Z-0.5146
N1343 G01 X7.9102 Y1.3946 Z-0.5190
N1344 G01 X8.1088 Y1.3709 Z-0.5234
N1345 G01 X8.3073 Y1.3466 Z-0.5278
N1346 G01 X8.5057 Y1.3217 Z-0.5322
N1347 G01 X8.7039 Y1.2962 Z-0.5367
N1348 G01 X8.9019 Y1.2702 Z-0.5411
N1349 G01 X9.0998 Y1.2436 Z-0.5455
N1350 G01 X9.2975 Y1.2165 Z-0.5499
N1351 G01 X9.4949 Y1.1888 Z-0.5542
N1352 G01 X9.6922 Y1.1606 Z-0.5585
N1353 G01 X9.8893 Y1.1318 Z-0.5626
N1354 G01 X10.0866 Y1.1024 Z-0.5666
N1355 G01 X10.2815 Y1.0728 Z-0.5704
N1356 G01 X10.5083 Y1.0375 Z-0.5746
N1357 G01 X10.5082 Y0.5725 Z-0.5244
N1358 G01 X10.3553 Y0.4985 Z-0.5114
N1359 G01 X10.1713 Y0.4110 Z-0.4959
N1360 G01 X9.9888 Y0.3257 Z-0.4809
N1361 G01 X9.8056 Y0.2416 Z-0.4661
N1362 G01 X9.6217 Y0.1587 Z-0.4515
N1363 G01 X9.4371 Y0.0771 Z-0.4371
N1364 G01 X9.2517 Y-0.0033 Z-0.4230
N1365 G01 X9.0658 Y-0.0824 Z-0.4092
N1366 G01 X8.8791 Y-0.1600 Z-0.3956
N1367 G01 X8.6918 Y-0.2365 Z-0.3823
N1368 G01 X8.5039 Y-0.3115 Z-0.3693
N1369 G01 X8.3155 Y-0.3851 Z-0.3565
N1370 G01 X8.1263 Y-0.4574 Z-0.3440
N1371 G01 X7.9366 Y-0.5282 Z-0.3318
N1372 G01 X7.7463 Y-0.5975 Z-0.3198
N1373 G01 X7.5554 Y-0.6654 Z-0.3082
N1374 G01 X7.3639 Y-0.7318 Z-0.2968
N1375 G01 X7.1721 Y-0.7967 Z-0.2856
N1376 G01 X6.9795 Y-0.8600 Z-0.2748
N1377 G01 X6.7864 Y-0.9219 Z-0.2642
N1378 G01 X6.5929 Y-0.9821 Z-0.2540
N1379 G01 X6.3988 Y-1.0407 Z-0.2440
N1380 G01 X6.2041 Y-1.0978 Z-0.2343
N1381 G01 X6.0092 Y-1.1533 Z-0.2248
N1382 G01 X5.8136 Y-1.2070 Z-0.2157
N1383 G01 X5.6175 Y-1.2593 Z-0.2069
N1384 G01 X5.4212 Y-1.3097 Z-0.1983
N1385 G01 X5.2243 Y-1.3585 Z-0.1901
N1386 G01 X5.0269 Y-1.4057 Z-0.1821
N1387 G01 X4.8293 Y-1.4511 Z-0.1745
N1388 G01 X4.6311 Y-1.4946 Z-0.1671
N1389 G01 X4.4325 Y-1.5366 Z-0.1600
N1390 G01 X4.2338 Y-1.5768 Z-0.1533
N1391 G01 X4.0345 Y-1.6151 Z-0.1468
N1392 G01 X3.8348 Y-1.6518 Z-0.1407
N1393 G01 X3.6352 Y-1.6866 Z-0.1349
N1394 G01 X3.4349 Y-1.7195 Z-0.1293
N1395 G01 X3.2343 Y-1.7508 Z-0.1241
N1396 G01 X3.0337 Y-1.7801 Z-0.1192
N1397 G01 X2.8326 Y-1.8075 Z-0.1146
N1398 G01 X2.6312 Y-1.8333 Z-0.1103
N1399 G01 X2.4299 Y-1.8571 Z-0.1063
N1400 G01 X2.2280 Y-1.8789 Z-0.1027
N1401 G01 X2.0260 Y-1.8991 Z-0.0993
N1402 G01 X1.8242 Y-1.9172 Z-0.0963
N1403 G01 X1.6217 Y-1.9333 Z-0.0936
N1404 G01 X1.4192 Y-1.9480 Z-0.0911
N1405 G01 X1.2171 Y-1.9603 Z-0.0891
N1406 G01 X1.0139 Y-1.9707 Z-0.0873
N1407 G01 X0.8113 Y-1.9799 Z-0.0858
N1408 G01 X0.6096 Y-1.9862 Z-0.0848
N1409 G01 X0.4061 Y-1.9903 Z-0.0841
N1410 G01 X0.2023 Y-1.9935 Z-0.0835
N1411 G01 X0.0000 Y-1.9948 Z-0.0833
N1412 G01 X-0.2023 Y-1.9935 Z-0.0835
N1413 G01 X-0.4061 Y-1.9903 Z-0.0841
N1414 G01 X-0.6096 Y-1.9862 Z-0.0848
N1415 G01 X-0.8113 Y-1.9799 Z-0.0858
N1416 G01 X-1.0139 Y-1.9707 Z-0.0873
N1417 G01 X-1.2171 Y-1.9603 Z-0.0891
N1418 G01 X-1.4192 Y-1.9480 Z-0.0911
N1419 G01 X-1.6217 Y-1.9333 Z-0.0936
N1420 G01 X-1.8242 Y-1.9172 Z-0.0963
N1421 G01 X-2.0260 Y-1.8991 Z-0.0993
N1422 G01 X-2.2280 Y-1.8789 Z-0.1027
N1423 G01 X-2.4299 Y-1.8571 Z-0.1063
N1424 G01 X-2.6312 Y-1.8333 Z-0.1103
N1425 G01 X-2.8326 Y-1.8075 Z-0.1146
N1426 G01 X-3.0337 Y-1.7801 Z-0.1192
N1427 G01 X-3.2343 Y-1.7508 Z-0.1241
N1428 G01 X-3.4349 Y-1.7195 Z-0.1293
N1429 G01 X-3.6352 Y-1.6866 Z-0.1349
N1430 G01 X-3.8348 Y-1.6518 Z-0.1407
N1431 G01 X-4.0345 Y-1.6151 Z-0.1468
N1432 G01 X-4.2338 Y-1.5768 Z-0.1533
N1433 G01 X-4.4325 Y-1.5366 Z-0.1600
N1434 G01 X-4.6311 Y-1.4946 Z-0.1671
N1435 G01 X-4.8293 Y-1.4511 Z-0.1745
N1436 G01 X-5.0269 Y-1.4057 Z-0.1821
N1437 G01 X-5.2243 Y-1.3585 Z-0.1901
N1438 G01 X-5.4212 Y-1.3097 Z-0.1983
N1439 G01 X-5.6175 Y-1.2593 Z-0.2069
N1440 G01 X-5.8136 Y-1.2070 Z-0.2157
N1441 G01 X-6.0092 Y-1.1533 Z-0.2248
N1442 G01 X-6.2041 Y-1.0978 Z-0.2343
N1443 G01 X-6.3988 Y-1.0407 Z-0.2440
N1444 G01 X-6.5929 Y-0.9821 Z-0.2540
N1445 G01 X-6.7864 Y-0.9219 Z-0.2642
N1446 G01 X-6.9795 Y-0.8600 Z-0.2748
N1447 G01 X-7.1721 Y-0.7967 Z-0.2856
N1448 G01 X-7.3639 Y-0.7318 Z-0.2968
N1449 G01 X-7.5554 Y-0.6654 Z-0.3082
N1450 G01 X-7.7463 Y-0.5975 Z-0.3198
N1451 G01 X-7.9366 Y-0.5282 Z-0.3318
N1452 G01 X-8.1263 Y-0.4574 Z-0.3440
N1453 G01 X-8.3155 Y-0.3851 Z-0.3565
N1454 G01 X-8.5039 Y-0.3115 Z-0.3693
N1455 G01 X-8.6918 Y-0.2365 Z-0.3823
N1456 G01 X-8.8791 Y-0.1600 Z-0.3956
N1457 G01 X-9.0658 Y-0.0824 Z-0.4092
N1458 G01 X-9.2517 Y-0.0033 Z-0.4230
N1459 G01 X-9.4371 Y0.0771 Z-0.4371
N1460 G01 X-9.6217 Y0.1587 Z-0.4515
N1461 G01 X-9.8056 Y0.2416 Z-0.4661
N1462 G01 X-9.9888 Y0.3257 Z-0.4809
N1463 G01 X-10.1713 Y0.4110 Z-0.4959
N1464 G01 X-10.3553 Y0.4985 Z-0.5114
N1465 G01 X-10.5082 Y0.5725 Z-0.5244
N1466 G01 X-10.2393 Y0.7757 Z-0.5403
N1467 G01 X-10.0636 Y0.8025 Z-0.5381
N1468 G01 X-9.8625 Y0.8325 Z-0.5355
N1469 G01 X-9.6634 Y0.8616 Z-0.5326
N1470 G01 X-9.4640 Y0.8902 Z-0.5297
N1471 G01 X-9.2645 Y0.9182 Z-0.5265
N1472 G01 X-9.0649 Y0.9456 Z-0.5233
N1473 G01 X-8.8651 Y0.9725 Z-0.5199
N1474 G01 X-8.6652 Y0.9987 Z-0.5164
N1475 G01 X-8.4651 Y1.0244 Z-0.5129
N1476 G01 X-8.2650 Y1.0495 Z-0.5093
N1477 G01 X-8.0648 Y1.0740 Z-0.5057
N1478 G01 X-7.8644 Y1.0979 Z-0.5020
N1479 G01 X-7.6639 Y1.1213 Z-0.4984
N1480 G01 X-7.4634 Y1.1440 Z-0.4947
N1481 G01 X-7.2627 Y1.1662 Z-0.4911
N1482 G01 X-7.0619 Y1.1877 Z-0.4875
N1483 G01 X-6.8611 Y1.2087 Z-0.4840
N1484 G01 X-6.6602 Y1.2290 Z-0.4804
N1485 G01 X-6.4592 Y1.2488 Z-0.4770
N1486 G01 X-6.2581 Y1.2680 Z-0.4736
N1487 G01 X-6.0570 Y1.2865 Z-0.4702
N1488 G01 X-5.8557 Y1.3045 Z-0.4670
N1489 G01 X-5.6545 Y1.3219 Z-0.4638
N1490 G01 X-5.4531 Y1.3386 Z-0.4607
N1491 G01 X-5.2516 Y1.3548 Z-0.4576
N1492 G01 X-5.0502 Y1.3704 Z-0.4547
N1493 G01 X-4.8487 Y1.3853 Z-0.4518
N1494 G01 X-4.6470 Y1.3997 Z-0.4491
N1495 G01 X-4.4454 Y1.4134 Z-0.4464
N1496 G01 X-4.2437 Y1.4265 Z-0.4439
N1497 G01 X-4.0419 Y1.4391 Z-0.4414
N1498 G01 X-3.8401 Y1.4510 Z-0.4391
N1499 G01 X-3.6383 Y1.4623 Z-0.4368
N1500 G01 X-3.4363 Y1.4730 Z-0.4347
N1501 G01 X-3.2344 Y1.4832 Z-0.4327
N1502 G01 X-3.0325 Y1.4926 Z-0.4308
N1503 G01 X-2.8304 Y1.5015 Z-0.4290
N1504 G01 X-2.6284 Y1.5098 Z-0.4273
N1505 G01 X-2.4264 Y1.5174 Z-0.4258
N1506 G01 X-2.2242 Y1.5245 Z-0.4243
N1507 G01 X-2.0221 Y1.5310 Z-0.4230
N1508 G01 X-1.8200 Y1.5367 Z-0.4218
N1509 G01 X-1.6177 Y1.5419 Z-0.4207
N1510 G01 X-1.4156 Y1.5466 Z-0.4198
N1511 G01 X-1.2135 Y1.5505 Z-0.4190
N1512 G01 X-1.0110 Y1.5539 Z-0.4183
N1513 G01 X-0.8090 Y1.5568 Z-0.4177
N1514 G01 X-0.6071 Y1.5588 Z-0.4173
N1515 G01 X-0.4046 Y1.5601 Z-0.4170
N1516 G01 X-0.2021 Y1.5611 Z-0.4168
N1517 G01 X0.0000 Y1.5616 Z-0.4167
N1518 G01 X0.2021 Y1.5611 Z-0.4168
N1519 G01 X0.4046 Y1.5601 Z-0.4170
N1520 G01 X0.6071 Y1.5588 Z-0.4173
N1521 G01 X0.8090 Y1.5568 Z-0.4177
N1522 G01 X1.0110 Y1.5539 Z-0.4183
N1523 G01 X1.2135 Y1.5505 Z-0.4190
N1524 G01 X1.4156 Y1.5466 Z-0.4198
N1525 G01 X1.6177 Y1.5419 Z-0.4207
N1526 G01 X1.8200 Y1.5367 Z-0.4218
N1527 G01 X2.0221 Y1.5310 Z-0.4230
N1528 G01 X2.2242 Y1.5245 Z-0.4243
N1529 G01 X2.4264 Y1.5174 Z-0.4258
N1530 G01 X2.6284 Y1.5098 Z-0.4273
N1531 G01 X2.8304 Y1.5015 Z-0.4290
N1532 G01 X3.0325 Y1.4926 Z-0.4308
N1533 G01 X3.2344 Y1.4832 Z-0.4327
N1534 G01 X3.4363 Y1.4730 Z-0.4347
N1535 G01 X3.6383 Y1.4623 Z-0.4368
N1536 G01 X3.8401 Y1.4510 Z-0.4391
N1537 G01 X4.0419 Y1.4391 Z-0.4414
N1538 G01 X4.2437 Y1.4265 Z-0.4439
N1539 G01 X4.4454 Y1.4134 Z-0.4464
N1540 G01 X4.6470 Y1.3997 Z-0.4491
N1541 G01 X4.8487 Y1.3853 Z-0.4518
N1542 G01 X5.0502 Y1.3704 Z-0.4547
N1543 G01 X5.2516 Y1.3548 Z-0.4576
N1544 G01 X5.4531 Y1.3386 Z-0.4607
N1545 G01 X5.6545 Y1.3219 Z-0.4638
N1546 G01 X5.8557 Y1.3045 Z-0.4670
N1547 G01 X6.0570 Y1.2865 Z-0.4702
N1548 G01 X6.2581 Y1.2680 Z-0.4736
N1549 G01 X6.4592 Y1.2488 Z-0.4770
N1550 G01 X6.6602 Y1.2290 Z-0.4804
N1551 G01 X6.8611 Y1.2087 Z-0.4840
N1552 G01 X7.0619 Y1.1877 Z-0.4875
N1553 G01 X7.2627 Y1.1662 Z-0.4911
N1554 G01 X7.4634 Y1.1440 Z-0.4947
N1555 G01 X7.6639 Y1.1213 Z-0.4984
N1556 G01 X7.8644 Y1.0979 Z-0.5020
N1557 G01 X8.0648 Y1.0740 Z-0.5057
N1558 G01 X8.2650 Y1.0495 Z-0.5093
N1559 G01 X8.4651 Y1.0244 Z-0.5129
N1560 G01 X8.6652 Y0.9987 Z-0.5164
N1561 G01 X8.8651 Y0.9725 Z-0.5199
N1562 G01 X9.0649 Y0.9456 Z-0.5233
N1563 G01 X9.2645 Y0.9182 Z-0.5265
N1564 G01 X9.4640 Y0.8902 Z-0.5297
N1565 G01 X9.6634 Y0.8616 Z-0.5326
N1566 G01 X9.8625 Y0.8325 Z-0.5355
N1567 G01 X10.0636 Y0.8025 Z-0.5381
N1568 G01 X10.2393 Y0.7757 Z-0.5403
N1569 G01 X10.0715 Y0.6956 Z-0.5267
N1570 G01 X9.8872 Y0.6093 Z-0.5119
N1571 G01 X9.7034 Y0.5247 Z-0.4973
N1572 G01 X9.5191 Y0.4414 Z-0.4828
N1573 G01 X9.3339 Y0.3595 Z-0.4685
N1574 G01 X9.1481 Y0.2787 Z-0.4543
N1575 G01 X8.9618 Y0.1994 Z-0.4404
N1576 G01 X8.7749 Y0.1215 Z-0.4267
N1577 G01 X8.5873 Y0.0449 Z-0.4132
N1578 G01 X8.3991 Y-0.0304 Z-0.4000
N1579 G01 X8.2104 Y-0.1041 Z-0.3871
N1580 G01 X8.0210 Y-0.1764 Z-0.3745
N1581 G01 X7.8312 Y-0.2473 Z-0.3621
N1582 G01 X7.6408 Y-0.3166 Z-0.3500
N1583 G01 X7.4497 Y-0.3845 Z-0.3381
N1584 G01 X7.2582 Y-0.4509 Z-0.3266
N1585 G01 X7.0662 Y-0.5157 Z-0.3153
N1586 G01 X6.8735 Y-0.5790 Z-0.3044
N1587 G01 X6.6804 Y-0.6407 Z-0.2937
N1588 G01 X6.4869 Y-0.7008 Z-0.2833
N1589 G01 X6.2927 Y-0.7593 Z-0.2732
N1590 G01 X6.0981 Y-0.8162 Z-0.2634
N1591 G01 X5.9031 Y-0.8714 Z-0.2539
N1592 G01 X5.7075 Y-0.9249 Z-0.2447
N1593 G01 X5.5115 Y-0.9769 Z-0.2358
N1594 G01 X5.3152 Y-1.0270 Z-0.2272
N1595 G01 X5.1183 Y-1.0755 Z-0.2190
N1596 G01 X4.9210 Y-1.1223 Z-0.2110
N1597 G01 X4.7235 Y-1.1673 Z-0.2033
N1598 G01 X4.5254 Y-1.2105 Z-0.1959
N1599 G01 X4.3269 Y-1.2521 Z-0.1888
N1600 G01 X4.1283 Y-1.2918 Z-0.1821
N1601 G01 X3.9291 Y-1.3296 Z-0.1757
N1602 G01 X3.7296 Y-1.3658 Z-0.1695
N1603 G01 X3.5300 Y-1.4001 Z-0.1637
N1604 G01 X3.3298 Y-1.4325 Z-0.1582
N1605 G01 X3.1294 Y-1.4632 Z-0.1530
N1606 G01 X2.9290 Y-1.4918 Z-0.1482
N1607 G01 X2.7279 Y-1.5187 Z-0.1436
N1608 G01 X2.5269 Y-1.5438 Z-0.1394
N1609 G01 X2.3257 Y-1.5668 Z-0.1355
N1610 G01 X2.1239 Y-1.5880 Z-0.1319
N1611 G01 X1.9223 Y-1.6075 Z-0.1286
N1612 G01 X1.7206 Y-1.6247 Z-0.1257
N1613 G01 X1.5181 Y-1.6402 Z-0.1231
N1614 G01 X1.3163 Y-1.6540 Z-0.1208
N1615 G01 X1.1141 Y-1.6653 Z-0.1189
N1616 G01 X0.9110 Y-1.6753 Z-0.1172
N1617 G01 X0.7095 Y-1.6833 Z-0.1158
N1618 G01 X0.5074 Y-1.6883 Z-0.1150
N1619 G01 X0.3036 Y-1.6920 Z-0.1144
N1620 G01 X0.1009 Y-1.6944 Z-0.1140
N1621 G01 X-0.1009 
N1622 G01 X-0.3036 Y-1.6920 Z-0.1144
N1623 G01 X-0.5074 Y-1.6883 Z-0.1150
N1624 G01 X-0.7095 Y-1.6833 Z-0.1158
N1625 G01 X-0.9110 Y-1.6753 Z-0.1172
N1626 G01 X-1.1141 Y-1.6653 Z-0.1189
N1627 G01 X-1.3163 Y-1.6540 Z-0.1208
N1628 G01 X-1.5181 Y-1.6402 Z-0.1231
N1629 G01 X-1.7206 Y-1.6247 Z-0.1257
N1630 G01 X-1.9223 Y-1.6075 Z-0.1286
N1631 G01 X-2.1239 Y-1.5880 Z-0.1319
N1632 G01 X-2.3257 Y-1.5668 Z-0.1355
N1633 G01 X-2.5269 Y-1.5438 Z-0.1394
N1634 G01 X-2.7279 Y-1.5187 Z-0.1436
N1635 G01 X-2.9290 Y-1.4918 Z-0.1482
N1636 G01 X-3.1294 Y-1.4632 Z-0.1530
N1637 G01 X-3.3298 Y-1.4325 Z-0.1582
N1638 G01 X-3.5300 Y-1.4001 Z-0.1637
N1639 G01 X-3.7296 Y-1.3658 Z-0.1695
N1640 G01 X-3.9291 Y-1.3296 Z-0.1757
N1641 G01 X-4.1283 Y-1.2918 Z-0.1821
N1642 G01 X-4.3269 Y-1.2521 Z-0.1888
N1643 G01 X-4.5254 Y-1.2105 Z-0.1959
N1644 G01 X-4.7235 Y-1.1673 Z-0.2033
N1645 G01 X-4.9210 Y-1.1223 Z-0.2110
N1646 G01 X-5.1183 Y-1.0755 Z-0.2190
N1647 G01 X-5.3152 Y-1.0270 Z-0.2272
N1648 G01 X-5.5115 Y-0.9769 Z-0.2358
N1649 G01 X-5.7075 Y-0.9249 Z-0.2447
N1650 G01 X-5.9031 Y-0.8714 Z-0.2539
N1651 G01 X-6.0981 Y-0.8162 Z-0.2634
N1652 G01 X-6.2927 Y-0.7593 Z-0.2732
N1653 G01 X-6.4869 Y-0.7008 Z-0.2833
N1654 G01 X-6.6804 Y-0.6407 Z-0.2937
N1655 G01 X-6.8735 Y-0.5790 Z-0.3044
N1656 G01 X-7.0662 Y-0.5157 Z-0.3153
N1657 G01 X-7.2582 Y-0.4509 Z-0.3266
N1658 G01 X-7.4497 Y-0.3845 Z-0.3381
N1659 G01 X-7.6408 Y-0.3166 Z-0.3500
N1660 G01 X-7.8312 Y-0.2473 Z-0.3621
N1661 G01 X-8.0210 Y-0.1764 Z-0.3745
N1662 G01 X-8.2104 Y-0.1041 Z-0.3871
N1663 G01 X-8.3991 Y-0.0304 Z-0.4000
N1664 G01 X-8.5873 Y0.0449 Z-0.4132
N1665 G01 X-8.7749 Y0.1215 Z-0.4267
N1666 G01 X-8.9618 Y0.1994 Z-0.4404
N1667 G01 X-9.1481 Y0.2787 Z-0.4543
N1668 G01 X-9.3339 Y0.3595 Z-0.4685
N1669 G01 X-9.5191 Y0.4414 Z-0.4828
N1670 G01 X-9.7034 Y0.5247 Z-0.4973
N1671 G01 X-9.8872 Y0.6093 Z-0.5119
N1672 G01 X-10.0715 Y0.6956 Z-0.5267
N1673 G01 X-10.2393 Y0.7757 Z-0.5403
N1674 G01 X-9.1929 Y0.6252 Z-0.4955
N1675 G01 X-8.9819 Y0.6541 Z-0.4932
N1676 G01 X-8.7823 Y0.6808 Z-0.4909
N1677 G01 X-8.5816 Y0.7071 Z-0.4885
N1678 G01 X-8.3809 Y0.7327 Z-0.4860
N1679 G01 X-8.1802 Y0.7577 Z-0.4834
N1680 G01 X-7.9793 Y0.7822 Z-0.4807
N1681 G01 X-7.7784 Y0.8060 Z-0.4779
N1682 G01 X-7.5774 Y0.8292 Z-0.4751
N1683 G01 X-7.3763 Y0.8519 Z-0.4723
N1684 G01 X-7.1751 Y0.8739 Z-0.4694
N1685 G01 X-6.9738 Y0.8954 Z-0.4665
N1686 G01 X-6.7725 Y0.9162 Z-0.4636
N1687 G01 X-6.5711 Y0.9364 Z-0.4608
N1688 G01 X-6.3696 Y0.9561 Z-0.4579
N1689 G01 X-6.1681 Y0.9751 Z-0.4551
N1690 G01 X-5.9665 Y0.9935 Z-0.4523
N1691 G01 X-5.7648 Y1.0113 Z-0.4496
N1692 G01 X-5.5631 Y1.0285 Z-0.4469
N1693 G01 X-5.3613 Y1.0451 Z-0.4442
N1694 G01 X-5.1594 Y1.0611 Z-0.4417
N1695 G01 X-4.9576 Y1.0765 Z-0.4391
N1696 G01 X-4.7556 Y1.0912 Z-0.4367
N1697 G01 X-4.5536 Y1.1054 Z-0.4343
N1698 G01 X-4.3516 Y1.1190 Z-0.4321
N1699 G01 X-4.1495 Y1.1319 Z-0.4298
N1700 G01 X-3.9473 Y1.1442 Z-0.4277
N1701 G01 X-3.7452 Y1.1560 Z-0.4257
N1702 G01 X-3.5429 Y1.1670 Z-0.4238
N1703 G01 X-3.3406 Y1.1775 Z-0.4219
N1704 G01 X-3.1384 Y1.1874 Z-0.4202
N1705 G01 X-2.9360 Y1.1966 Z-0.4185
N1706 G01 X-2.7336 Y1.2053 Z-0.4170
N1707 G01 X-2.5314 Y1.2133 Z-0.4156
N1708 G01 X-2.3289 Y1.2207 Z-0.4142
N1709 G01 X-2.1264 Y1.2275 Z-0.4130
N1710 G01 X-1.9241 Y1.2337 Z-0.4119
N1711 G01 X-1.7215 Y1.2392 Z-0.4109
N1712 G01 X-1.5189 Y1.2442 Z-0.4100
N1713 G01 X-1.3166 Y1.2486 Z-0.4092
N1714 G01 X-1.1140 Y1.2522 Z-0.4085
N1715 G01 X-0.9113 Y1.2554 Z-0.4079
N1716 G01 X-0.7092 Y1.2579 Z-0.4075
N1717 G01 X-0.5067 Y1.2595 Z-0.4072
N1718 G01 X-0.3037 Y1.2607 Z-0.4069
N1719 G01 X-0.1011 Y1.2615 Z-0.4068
N1720 G01 X0.1011 
N1721 G01 X0.3037 Y1.2607 Z-0.4069
N1722 G01 X0.5067 Y1.2595 Z-0.4072
N1723 G01 X0.7092 Y1.2579 Z-0.4075
N1724 G01 X0.9113 Y1.2554 Z-0.4079
N1725 G01 X1.1140 Y1.2522 Z-0.4085
N1726 G01 X1.3166 Y1.2486 Z-0.4092
N1727 G01 X1.5189 Y1.2442 Z-0.4100
N1728 G01 X1.7215 Y1.2392 Z-0.4109
N1729 G01 X1.9241 Y1.2337 Z-0.4119
N1730 G01 X2.1264 Y1.2275 Z-0.4130
N1731 G01 X2.3289 Y1.2207 Z-0.4142
N1732 G01 X2.5314 Y1.2133 Z-0.4156
N1733 G01 X2.7336 Y1.2053 Z-0.4170
N1734 G01 X2.9360 Y1.1966 Z-0.4185
N1735 G01 X3.1384 Y1.1874 Z-0.4202
N1736 G01 X3.3406 Y1.1775 Z-0.4219
N1737 G01 X3.5429 Y1.1670 Z-0.4238
N1738 G01 X3.7452 Y1.1560 Z-0.4257
N1739 G01 X3.9473 Y1.1442 Z-0.4277
N1740 G01 X4.1495 Y1.1319 Z-0.4298
N1741 G01 X4.3516 Y1.1190 Z-0.4321
N1742 G01 X4.5536 Y1.1054 Z-0.4343
N1743 G01 X4.7556 Y1.0912 Z-0.4367
N1744 G01 X4.9576 Y1.0765 Z-0.4391
N1745 G01 X5.1594 Y1.0611 Z-0.4417
N1746 G01 X5.3613 Y1.0451 Z-0.4442
N1747 G01 X5.5631 Y1.0285 Z-0.4469
N1748 G01 X5.7648 Y1.0113 Z-0.4496
N1749 G01 X5.9665 Y0.9935 Z-0.4523
N1750 G01 X6.1681 Y0.9751 Z-0.4551
N1751 G01 X6.3696 Y0.9561 Z-0.4579
N1752 G01 X6.5711 Y0.9364 Z-0.4608
N1753 G01 X6.7725 Y0.9162 Z-0.4636
N1754 G01 X6.9738 Y0.8954 Z-0.4665
N1755 G01 X7.1751 Y0.8739 Z-0.4694
N1756 G01 X7.3763 Y0.8519 Z-0.4723
N1757 G01 X7.5774 Y0.8292 Z-0.4751
N1758 G01 X7.7784 Y0.8060 Z-0.4779
N1759 G01 X7.9793 Y0.7822 Z-0.4807
N1760 G01 X8.1802 Y0.7577 Z-0.4834
N1761 G01 X8.3809 Y0.7327 Z-0.4860
N1762 G01 X8.5816 Y0.7071 Z-0.4885
N1763 G01 X8.7823 Y0.6808 Z-0.4909
N1764 G01 X8.9819 Y0.6541 Z-0.4932
N1765 G01 X9.1929 Y0.6252 Z-0.4955
N1766 G01 X8.9976 Y0.5406 Z-0.4813
N1767 G01 X8.8129 Y0.4622 Z-0.4679
N1768 G01 X8.6265 Y0.3848 Z-0.4546
N1769 G01 X8.4397 Y0.3088 Z-0.4415
N1770 G01 X8.2524 Y0.2342 Z-0.4286
N1771 G01 X8.0645 Y0.1612 Z-0.4159
N1772 G01 X7.8759 Y0.0895 Z-0.4034
N1773 G01 X7.6869 Y0.0193 Z-0.3911
N1774 G01 X7.4974 Y-0.0493 Z-0.3791
N1775 G01 X7.3072 Y-0.1165 Z-0.3674
N1776 G01 X7.1166 Y-0.1822 Z-0.3559
N1777 G01 X6.9256 Y-0.2463 Z-0.3447
N1778 G01 X6.7338 Y-0.3088 Z-0.3338
N1779 G01 X6.5417 Y-0.3698 Z-0.3231
N1780 G01 X6.3491 Y-0.4291 Z-0.3128
N1781 G01 X6.1559 Y-0.4869 Z-0.3027
N1782 G01 X5.9623 Y-0.5430 Z-0.2930
N1783 G01 X5.7683 Y-0.5974 Z-0.2835
N1784 G01 X5.5737 Y-0.6502 Z-0.2744
N1785 G01 X5.3788 Y-0.7014 Z-0.2655
N1786 G01 X5.1835 Y-0.7507 Z-0.2570
N1787 G01 X4.9876 Y-0.7984 Z-0.2487
N1788 G01 X4.7915 Y-0.8444 Z-0.2408
N1789 G01 X4.5950 Y-0.8885 Z-0.2332
N1790 G01 X4.3979 Y-0.9309 Z-0.2259
N1791 G01 X4.2006 Y-0.9716 Z-0.2189
N1792 G01 X4.0031 Y-1.0104 Z-0.2122
N1793 G01 X3.8049 Y-1.0475 Z-0.2058
N1794 G01 X3.6067 Y-1.0828 Z-0.1998
N1795 G01 X3.4081 Y-1.1161 Z-0.1941
N1796 G01 X3.2090 Y-1.1477 Z-0.1887
N1797 G01 X3.0099 Y-1.1775 Z-0.1836
N1798 G01 X2.8105 Y-1.2052 Z-0.1788
N1799 G01 X2.6106 Y-1.2312 Z-0.1744
N1800 G01 X2.4109 Y-1.2554 Z-0.1703
N1801 G01 X2.2107 Y-1.2774 Z-0.1665
N1802 G01 X2.0101 Y-1.2978 Z-0.1630
N1803 G01 X1.8100 Y-1.3162 Z-0.1599
N1804 G01 X1.6091 Y-1.3325 Z-0.1571
N1805 G01 X1.4080 Y-1.3473 Z-0.1546
N1806 G01 X1.2076 Y-1.3599 Z-0.1524
N1807 G01 X1.0060 Y-1.3704 Z-0.1506
N1808 G01 X0.8048 Y-1.3796 Z-0.1491
N1809 G01 X0.6049 Y-1.3861 Z-0.1480
N1810 G01 X0.4030 Y-1.3903 Z-0.1473
N1811 G01 X0.2007 Y-1.3935 Z-0.1467
N1812 G01 X0.0000 Y-1.3948 Z-0.1465
N1813 G01 X-0.2007 Y-1.3935 Z-0.1467
N1814 G01 X-0.4030 Y-1.3903 Z-0.1473
N1815 G01 X-0.6049 Y-1.3861 Z-0.1480
N1816 G01 X-0.8048 Y-1.3796 Z-0.1491
N1817 G01 X-1.0060 Y-1.3704 Z-0.1506
N1818 G01 X-1.2076 Y-1.3599 Z-0.1524
N1819 G01 X-1.4080 Y-1.3473 Z-0.1546
N1820 G01 X-1.6091 Y-1.3325 Z-0.1571
N1821 G01 X-1.8100 Y-1.3162 Z-0.1599
N1822 G01 X-2.0101 Y-1.2978 Z-0.1630
N1823 G01 X-2.2107 Y-1.2774 Z-0.1665
N1824 G01 X-2.4109 Y-1.2554 Z-0.1703
N1825 G01 X-2.6106 Y-1.2312 Z-0.1744
N1826 G01 X-2.8105 Y-1.2052 Z-0.1788
N1827 G01 X-3.0099 Y-1.1775 Z-0.1836
N1828 G01 X-3.2090 Y-1.1477 Z-0.1887
N1829 G01 X-3.4081 Y-1.1161 Z-0.1941
N1830 G01 X-3.6067 Y-1.0828 Z-0.1998
N1831 G01 X-3.8049 Y-1.0475 Z-0.2058
N1832 G01 X-4.0031 Y-1.0104 Z-0.2122
N1833 G01 X-4.2006 Y-0.9716 Z-0.2189
N1834 G01 X-4.3979 Y-0.9309 Z-0.2259
N1835 G01 X-4.5950 Y-0.8885 Z-0.2332
N1836 G01 X-4.7915 Y-0.8444 Z-0.2408
N1837 G01 X-4.9876 Y-0.7984 Z-0.2487
N1838 G01 X-5.1835 Y-0.7507 Z-0.2570
N1839 G01 X-5.3788 Y-0.7014 Z-0.2655
N1840 G01 X-5.5737 Y-0.6502 Z-0.2744
N1841 G01 X-5.7683 Y-0.5974 Z-0.2835
N1842 G01 X-5.9623 Y-0.5430 Z-0.2930
N1843 G01 X-6.1559 Y-0.4869 Z-0.3027
N1844 G01 X-6.3491 Y-0.4291 Z-0.3128
N1845 G01 X-6.5417 Y-0.3698 Z-0.3231
N1846 G01 X-6.7338 Y-0.3088 Z-0.3338
N1847 G01 X-6.9256 Y-0.2463 Z-0.3447
N1848 G01 X-7.1166 Y-0.1822 Z-0.3559
N1849 G01 X-7.3072 Y-0.1165 Z-0.3674
N1850 G01 X-7.4974 Y-0.0493 Z-0.3791
N1851 G01 X-7.6869 Y0.0193 Z-0.3911
N1852 G01 X-7.8759 Y0.0895 Z-0.4034
N1853 G01 X-8.0645 Y0.1612 Z-0.4159
N1854 G01 X-8.2524 Y0.2342 Z-0.4286
N1855 G01 X-8.4397 Y0.3088 Z-0.4415
N1856 G01 X-8.6265 Y0.3848 Z-0.4546
N1857 G01 X-8.8129 Y0.4622 Z-0.4679
N1858 G01 X-8.9976 Y0.5406 Z-0.4813
N1859 G01 X-9.1929 Y0.6252 Z-0.4955
N1860 G01 X-8.0383 Y0.4728 Z-0.4512
N1861 G01 X-7.8668 Y0.4935 Z-0.4496
N1862 G01 X-7.6634 Y0.5174 Z-0.4476
N1863 G01 X-7.4627 Y0.5403 Z-0.4457
N1864 G01 X-7.2620 Y0.5627 Z-0.4436
N1865 G01 X-7.0610 Y0.5844 Z-0.4415
N1866 G01 X-6.8601 Y0.6056 Z-0.4394
N1867 G01 X-6.6591 Y0.6261 Z-0.4373
N1868 G01 X-6.4579 Y0.6461 Z-0.4351
N1869 G01 X-6.2568 Y0.6655 Z-0.4329
N1870 G01 X-6.0556 Y0.6842 Z-0.4307
N1871 G01 X-5.8543 Y0.7023 Z-0.4286
N1872 G01 X-5.6529 Y0.7199 Z-0.4264
N1873 G01 X-5.4516 Y0.7368 Z-0.4243
N1874 G01 X-5.2501 Y0.7531 Z-0.4222
N1875 G01 X-5.0486 Y0.7688 Z-0.4201
N1876 G01 X-4.8471 Y0.7838 Z-0.4181
N1877 G01 X-4.6454 Y0.7983 Z-0.4161
N1878 G01 X-4.4438 Y0.8122 Z-0.4142
N1879 G01 X-4.2421 Y0.8254 Z-0.4123
N1880 G01 X-4.0403 Y0.8381 Z-0.4105
N1881 G01 X-3.8386 Y0.8501 Z-0.4088
N1882 G01 X-3.6368 Y0.8615 Z-0.4071
N1883 G01 X-3.4349 Y0.8723 Z-0.4055
N1884 G01 X-3.2330 Y0.8825 Z-0.4040
N1885 G01 X-3.0312 Y0.8921 Z-0.4025
N1886 G01 X-2.8292 Y0.9010 Z-0.4012
N1887 G01 X-2.6272 Y0.9094 Z-0.3999
N1888 G01 X-2.4253 Y0.9171 Z-0.3987
N1889 G01 X-2.2232 Y0.9242 Z-0.3976
N1890 G01 X-2.0212 Y0.9307 Z-0.3966
N1891 G01 X-1.8192 Y0.9365 Z-0.3957
N1892 G01 X-1.6170 Y0.9418 Z-0.3948
N1893 G01 X-1.4149 Y0.9465 Z-0.3941
N1894 G01 X-1.2129 Y0.9504 Z-0.3935
N1895 G01 X-1.0106 Y0.9538 Z-0.3929
N1896 G01 X-0.8086 Y0.9568 Z-0.3924
N1897 G01 X-0.6068 Y0.9588 Z-0.3921
N1898 G01 X-0.4044 Y0.9601 Z-0.3919
N1899 G01 X-0.2020 Y0.9611 Z-0.3917
N1900 G01 X0.0000 Y0.9616 
N1901 G01 X0.2020 Y0.9611 
N1902 G01 X0.4044 Y0.9601 Z-0.3919
N1903 G01 X0.6068 Y0.9588 Z-0.3921
N1904 G01 X0.8086 Y0.9568 Z-0.3924
N1905 G01 X1.0106 Y0.9538 Z-0.3929
N1906 G01 X1.2129 Y0.9504 Z-0.3935
N1907 G01 X1.4149 Y0.9465 Z-0.3941
N1908 G01 X1.6170 Y0.9418 Z-0.3948
N1909 G01 X1.8192 Y0.9365 Z-0.3957
N1910 G01 X2.0212 Y0.9307 Z-0.3966
N1911 G01 X2.2232 Y0.9242 Z-0.3976
N1912 G01 X2.4253 Y0.9171 Z-0.3987
N1913 G01 X2.6272 Y0.9094 Z-0.3999
N1914 G01 X2.8292 Y0.9010 Z-0.4012
N1915 G01 X3.0312 Y0.8921 Z-0.4025
N1916 G01 X3.2330 Y0.8825 Z-0.4040
N1917 G01 X3.4349 Y0.8723 Z-0.4055
N1918 G01 X3.6368 Y0.8615 Z-0.4071
N1919 G01 X3.8386 Y0.8501 Z-0.4088
N1920 G01 X4.0403 Y0.8381 Z-0.4105
N1921 G01 X4.2421 Y0.8254 Z-0.4123
N1922 G01 X4.4438 Y0.8122 Z-0.4142
N1923 G01 X4.6454 Y0.7983 Z-0.4161
N1924 G01 X4.8471 Y0.7838 Z-0.4181
N1925 G01 X5.0486 Y0.7688 Z-0.4201
N1926 G01 X5.2501 Y0.7531 Z-0.4222
N1927 G01 X5.4516 Y0.7368 Z-0.4243
N1928 G01 X5.6529 Y0.7199 Z-0.4264
N1929 G01 X5.8543 Y0.7023 Z-0.4286
N1930 G01 X6.0556 Y0.6842 Z-0.4307
N1931 G01 X6.2568 Y0.6655 Z-0.4329
N1932 G01 X6.4579 Y0.6461 Z-0.4351
N1933 G01 X6.6591 Y0.6261 Z-0.4373
N1934 G01 X6.8601 Y0.6056 Z-0.4394
N1935 G01 X7.0610 Y0.5844 Z-0.4415
N1936 G01 X7.2620 Y0.5627 Z-0.4436
N1937 G01 X7.4627 Y0.5403 Z-0.4457
N1938 G01 X7.6634 Y0.5174 Z-0.4476
N1939 G01 X7.8668 Y0.4935 Z-0.4496
N1940 G01 X8.0383 Y0.4728 Z-0.4512
N1941 G01 X7.8741 Y0.4096 Z-0.4406
N1942 G01 X7.6805 Y0.3367 Z-0.4283
N1943 G01 X7.4888 Y0.2664 Z-0.4163
N1944 G01 X7.2965 Y0.1976 Z-0.4046
N1945 G01 X7.1036 Y0.1304 Z-0.3930
N1946 G01 X6.9103 Y0.0648 Z-0.3817
N1947 G01 X6.7163 Y0.0008 Z-0.3706
N1948 G01 X6.5218 Y-0.0616 Z-0.3598
N1949 G01 X6.3269 Y-0.1223 Z-0.3493
N1950 G01 X6.1314 Y-0.1813 Z-0.3390
N1951 G01 X5.9354 Y-0.2386 Z-0.3290
N1952 G01 X5.7391 Y-0.2942 Z-0.3194
N1953 G01 X5.5422 Y-0.3481 Z-0.3100
N1954 G01 X5.3448 Y-0.4003 Z-0.3009
N1955 G01 X5.1471 Y-0.4506 Z-0.2922
N1956 G01 X4.9488 Y-0.4992 Z-0.2837
N1957 G01 X4.7502 Y-0.5460 Z-0.2756
N1958 G01 X4.5513 Y-0.5909 Z-0.2678
N1959 G01 X4.3517 Y-0.6340 Z-0.2603
N1960 G01 X4.1520 Y-0.6754 Z-0.2531
N1961 G01 X3.9519 Y-0.7147 Z-0.2463
N1962 G01 X3.7512 Y-0.7523 Z-0.2398
N1963 G01 X3.5505 Y-0.7880 Z-0.2336
N1964 G01 X3.3494 Y-0.8217 Z-0.2278
N1965 G01 X3.1478 Y-0.8536 Z-0.2223
N1966 G01 X2.9463 Y-0.8835 Z-0.2171
N1967 G01 X2.7442 Y-0.9114 Z-0.2123
N1968 G01 X2.5418 Y-0.9375 Z-0.2078
N1969 G01 X2.3396 Y-0.9616 Z-0.2037
N1970 G01 X2.1367 Y-0.9835 Z-0.1999
N1971 G01 X1.9337 Y-1.0038 Z-0.1964
N1972 G01 X1.7310 Y-1.0218 Z-0.1933
N1973 G01 X1.5274 Y-1.0379 Z-0.1905
N1974 G01 X1.3241 Y-1.0523 Z-0.1881
N1975 G01 X1.1209 Y-1.0642 Z-0.1860
N1976 G01 X0.9165 Y-1.0744 Z-0.1842
N1977 G01 X0.7136 Y-1.0828 Z-0.1828
N1978 G01 X0.5106 Y-1.0881 Z-0.1819
N1979 G01 X0.3055 Y-1.0919 Z-0.1812
N1980 G01 X0.1015 Y-1.0944 Z-0.1808
N1981 G01 X-0.1015 
N1982 G01 X-0.3055 Y-1.0919 Z-0.1812
N1983 G01 X-0.5106 Y-1.0881 Z-0.1819
N1984 G01 X-0.7136 Y-1.0828 Z-0.1828
N1985 G01 X-0.9165 Y-1.0744 Z-0.1842
N1986 G01 X-1.1209 Y-1.0642 Z-0.1860
N1987 G01 X-1.3241 Y-1.0523 Z-0.1881
N1988 G01 X-1.5274 Y-1.0379 Z-0.1905
N1989 G01 X-1.7310 Y-1.0218 Z-0.1933
N1990 G01 X-1.9337 Y-1.0038 Z-0.1964
N1991 G01 X-2.1367 Y-0.9835 Z-0.1999
N1992 G01 X-2.3396 Y-0.9616 Z-0.2037
N1993 G01 X-2.5418 Y-0.9375 Z-0.2078
N1994 G01 X-2.7442 Y-0.9114 Z-0.2123
N1995 G01 X-2.9463 Y-0.8835 Z-0.2171
N1996 G01 X-3.1478 Y-0.8536 Z-0.2223
N1997 G01 X-3.3494 Y-0.8217 Z-0.2278
N1998 G01 X-3.5505 Y-0.7880 Z-0.2336
N1999 G01 X-3.7512 Y-0.7523 Z-0.2398
N2000 G01 X-3.9519 Y-0.7147 Z-0.2463
N2001 G01 X-4.1520 Y-0.6754 Z-0.2531
N2002 G01 X-4.3517 Y-0.6340 Z-0.2603
N2003 G01 X-4.5513 Y-0.5909 Z-0.2678
N2004 G01 X-4.7502 Y-0.5460 Z-0.2756
N2005 G01 X-4.9488 Y-0.4992 Z-0.2837
N2006 G01 X-5.1471 Y-0.4506 Z-0.2922
N2007 G01 X-5.3448 Y-0.4003 Z-0.3009
N2008 G01 X-5.5422 Y-0.3481 Z-0.3100
N2009 G01 X-5.7391 Y-0.2942 Z-0.3194
N2010 G01 X-5.9354 Y-0.2386 Z-0.3290
N2011 G01 X-6.1314 Y-0.1813 Z-0.3390
N2012 G01 X-6.3269 Y-0.1223 Z-0.3493
N2013 G01 X-6.5218 Y-0.0616 Z-0.3598
N2014 G01 X-6.7163 Y0.0008 Z-0.3706
N2015 G01 X-6.9103 Y0.0648 Z-0.3817
N2016 G01 X-7.1036 Y0.1304 Z-0.3930
N2017 G01 X-7.2965 Y0.1976 Z-0.4046
N2018 G01 X-7.4888 Y0.2664 Z-0.4163
N2019 G01 X-7.6805 Y0.3367 Z-0.4283
N2020 G01 X-7.8741 Y0.4096 Z-0.4406
N2021 G01 X-8.0383 Y0.4728 Z-0.4512
N2022 G01 X-6.7214 Y0.3183 Z-0.4072
N2023 G01 X-6.4906 Y0.3415 Z-0.4055
N2024 G01 X-6.2901 Y0.3609 Z-0.4039
N2025 G01 X-6.0874 Y0.3800 Z-0.4024
N2026 G01 X-5.8851 Y0.3984 Z-0.4008
N2027 G01 X-5.6826 Y0.4162 Z-0.3992
N2028 G01 X-5.4802 Y0.4334 Z-0.3976
N2029 G01 X-5.2777 Y0.4499 Z-0.3960
N2030 G01 X-5.0751 Y0.4659 Z-0.3944
N2031 G01 X-4.8725 Y0.4812 Z-0.3929
N2032 G01 X-4.6698 Y0.4958 Z-0.3913
N2033 G01 X-4.4671 Y0.5099 Z-0.3898
N2034 G01 X-4.2644 Y0.5234 Z-0.3884
N2035 G01 X-4.0615 Y0.5362 Z-0.3869
N2036 G01 X-3.8587 Y0.5484 Z-0.3855
N2037 G01 X-3.6559 Y0.5600 Z-0.3842
N2038 G01 X-3.4529 Y0.5709 Z-0.3829
N2039 G01 X-3.2500 Y0.5813 Z-0.3816
N2040 G01 X-3.0471 Y0.5910 Z-0.3805
N2041 G01 X-2.8440 Y0.6001 Z-0.3793
N2042 G01 X-2.6410 Y0.6086 Z-0.3783
N2043 G01 X-2.4380 Y0.6164 Z-0.3773
N2044 G01 X-2.2348 Y0.6236 Z-0.3764
N2045 G01 X-2.0317 Y0.6302 Z-0.3756
N2046 G01 X-1.8287 Y0.6362 Z-0.3748
N2047 G01 X-1.6254 Y0.6415 Z-0.3741
N2048 G01 X-1.4223 Y0.6463 Z-0.3735
N2049 G01 X-1.2193 Y0.6503 Z-0.3730
N2050 G01 X-1.0159 Y0.6537 Z-0.3725
N2051 G01 X-0.8128 Y0.6567 Z-0.3721
N2052 G01 X-0.6100 Y0.6587 Z-0.3718
N2053 G01 X-0.4065 Y0.6601 Z-0.3717
N2054 G01 X-0.2030 Y0.6611 Z-0.3715
N2055 G01 X0.0000 Y0.6616 
N2056 G01 X0.2030 Y0.6611 
N2057 G01 X0.4065 Y0.6601 Z-0.3717
N2058 G01 X0.6100 Y0.6587 Z-0.3718
N2059 G01 X0.8128 Y0.6567 Z-0.3721
N2060 G01 X1.0159 Y0.6537 Z-0.3725
N2061 G01 X1.2193 Y0.6503 Z-0.3730
N2062 G01 X1.4223 Y0.6463 Z-0.3735
N2063 G01 X1.6254 Y0.6415 Z-0.3741
N2064 G01 X1.8287 Y0.6362 Z-0.3748
N2065 G01 X2.0317 Y0.6302 Z-0.3756
N2066 G01 X2.2348 Y0.6236 Z-0.3764
N2067 G01 X2.4380 Y0.6164 Z-0.3773
N2068 G01 X2.6410 Y0.6086 Z-0.3783
N2069 G01 X2.8440 Y0.6001 Z-0.3793
N2070 G01 X3.0471 Y0.5910 Z-0.3805
N2071 G01 X3.2500 Y0.5813 Z-0.3816
N2072 G01 X3.4529 Y0.5709 Z-0.3829
N2073 G01 X3.6559 Y0.5600 Z-0.3842
N2074 G01 X3.8587 Y0.5484 Z-0.3855
N2075 G01 X4.0615 Y0.5362 Z-0.3869
N2076 G01 X4.2644 Y0.5234 Z-0.3884
N2077 G01 X4.4671 Y0.5099 Z-0.3898
N2078 G01 X4.6698 Y0.4958 Z-0.3913
N2079 G01 X4.8725 Y0.4812 Z-0.3929
N2080 G01 X5.0751 Y0.4659 Z-0.3944
N2081 G01 X5.2777 Y0.4499 Z-0.3960
N2082 G01 X5.4802 Y0.4334 Z-0.3976
N2083 G01 X5.6826 Y0.4162 Z-0.3992
N2084 G01 X5.8851 Y0.3984 Z-0.4008
N2085 G01 X6.0874 Y0.3800 Z-0.4024
N2086 G01 X6.2901 Y0.3609 Z-0.4039
N2087 G01 X6.4906 Y0.3415 Z-0.4055
N2088 G01 X6.7214 Y0.3183 Z-0.4072
N2089 G01 X6.5061 Y0.2482 Z-0.3955
N2090 G01 X6.3132 Y0.1874 Z-0.3853
N2091 G01 X6.1180 Y0.1278 Z-0.3753
N2092 G01 X5.9224 Y0.0699 Z-0.3654
N2093 G01 X5.7266 Y0.0138 Z-0.3559
N2094 G01 X5.5303 Y-0.0405 Z-0.3466
N2095 G01 X5.3333 Y-0.0932 Z-0.3375
N2096 G01 X5.1362 Y-0.1440 Z-0.3288
N2097 G01 X4.9384 Y-0.1930 Z-0.3204
N2098 G01 X4.7402 Y-0.2403 Z-0.3122
N2099 G01 X4.5418 Y-0.2857 Z-0.3044
N2100 G01 X4.3427 Y-0.3292 Z-0.2968
N2101 G01 X4.1434 Y-0.3710 Z-0.2896
N2102 G01 X3.9438 Y-0.4108 Z-0.2827
N2103 G01 X3.7436 Y-0.4487 Z-0.2762
N2104 G01 X3.5433 Y-0.4848 Z-0.2699
N2105 G01 X3.3427 Y-0.5188 Z-0.2640
N2106 G01 X3.1415 Y-0.5510 Z-0.2585
N2107 G01 X2.9403 Y-0.5813 Z-0.2532
N2108 G01 X2.7388 Y-0.6094 Z-0.2484
N2109 G01 X2.5367 Y-0.6358 Z-0.2438
N2110 G01 X2.3349 Y-0.6601 Z-0.2396
N2111 G01 X2.1326 Y-0.6823 Z-0.2357
N2112 G01 X1.9299 Y-0.7028 Z-0.2322
N2113 G01 X1.7276 Y-0.7211 Z-0.2291
N2114 G01 X1.5244 Y-0.7373 Z-0.2262
N2115 G01 X1.3215 Y-0.7518 Z-0.2237
N2116 G01 X1.1188 Y-0.7638 Z-0.2217
N2117 G01 X0.9148 Y-0.7741 Z-0.2199
N2118 G01 X0.7122 Y-0.7827 Z-0.2184
N2119 G01 X0.5096 Y-0.7881 Z-0.2175
N2120 G01 X0.3050 Y-0.7919 Z-0.2168
N2121 G01 X0.1013 Y-0.7944 Z-0.2164
N2122 G01 X-0.1013 
N2123 G01 X-0.3050 Y-0.7919 Z-0.2168
N2124 G01 X-0.5096 Y-0.7881 Z-0.2175
N2125 G01 X-0.7122 Y-0.7827 Z-0.2184
N2126 G01 X-0.9148 Y-0.7741 Z-0.2199
N2127 G01 X-1.1188 Y-0.7638 Z-0.2217
N2128 G01 X-1.3215 Y-0.7518 Z-0.2237
N2129 G01 X-1.5244 Y-0.7373 Z-0.2262
N2130 G01 X-1.7276 Y-0.7211 Z-0.2291
N2131 G01 X-1.9299 Y-0.7028 Z-0.2322
N2132 G01 X-2.1326 Y-0.6823 Z-0.2357
N2133 G01 X-2.3349 Y-0.6601 Z-0.2396
N2134 G01 X-2.5367 Y-0.6358 Z-0.2438
N2135 G01 X-2.7388 Y-0.6094 Z-0.2484
N2136 G01 X-2.9403 Y-0.5813 Z-0.2532
N2137 G01 X-3.1415 Y-0.5510 Z-0.2585
N2138 G01 X-3.3427 Y-0.5188 Z-0.2640
N2139 G01 X-3.5433 Y-0.4848 Z-0.2699
N2140 G01 X-3.7436 Y-0.4487 Z-0.2762
N2141 G01 X-3.9438 Y-0.4108 Z-0.2827
N2142 G01 X-4.1434 Y-0.3710 Z-0.2896
N2143 G01 X-4.3427 Y-0.3292 Z-0.2968
N2144 G01 X-4.5418 Y-0.2857 Z-0.3044
N2145 G01 X-4.7402 Y-0.2403 Z-0.3122
N2146 G01 X-4.9384 Y-0.1930 Z-0.3204
N2147 G01 X-5.1362 Y-0.1440 Z-0.3288
N2148 G01 X-5.3333 Y-0.0932 Z-0.3375
N2149 G01 X-5.5303 Y-0.0405 Z-0.3466
N2150 G01 X-5.7266 Y0.0138 Z-0.3559
N2151 G01 X-5.9224 Y0.0699 Z-0.3654
N2152 G01 X-6.1180 Y0.1278 Z-0.3753
N2153 G01 X-6.3132 Y0.1874 Z-0.3853
N2154 G01 X-6.5061 Y0.2482 Z-0.3955
N2155 G01 X-6.7214 Y0.3183 Z-0.4072
N2156 G01 X-5.1197 Y0.1614 Z-0.3637
N2157 G01 X-4.9390 Y0.1754 Z-0.3627
N2158 G01 X-4.7315 Y0.1907 Z-0.3615
N2159 G01 X-4.5261 Y0.2052 Z-0.3604
N2160 G01 X-4.3208 Y0.2191 Z-0.3593
N2161 G01 X-4.1153 Y0.2323 Z-0.3582
N2162 G01 X-3.9098 Y0.2449 Z-0.3572
N2163 G01 X-3.7043 Y0.2568 Z-0.3561
N2164 G01 X-3.4987 Y0.2681 Z-0.3551
N2165 G01 X-3.2930 Y0.2788 Z-0.3542
N2166 G01 X-3.0874 Y0.2888 Z-0.3533
N2167 G01 X-2.8817 Y0.2981 Z-0.3524
N2168 G01 X-2.6759 Y0.3069 Z-0.3516
N2169 G01 X-2.4703 Y0.3150 Z-0.3508
N2170 G01 X-2.2644 Y0.3224 Z-0.3501
N2171 G01 X-2.0586 Y0.3292 Z-0.3494
N2172 G01 X-1.8529 Y0.3354 Z-0.3488
N2173 G01 X-1.6470 Y0.3408 Z-0.3483
N2174 G01 X-1.4411 Y0.3458 Z-0.3478
N2175 G01 X-1.2354 Y0.3499 Z-0.3473
N2176 G01 X-1.0293 Y0.3535 Z-0.3470
N2177 G01 X-0.8235 Y0.3565 Z-0.3466
N2178 G01 X-0.6180 Y0.3587 Z-0.3464
N2179 G01 X-0.4119 Y0.3601 Z-0.3463
N2180 G01 X-0.2057 Y0.3611 Z-0.3462
N2181 G01 X0.0000 Y0.3616 Z-0.3461
N2182 G01 X0.2057 Y0.3611 Z-0.3462
N2183 G01 X0.4119 Y0.3601 Z-0.3463
N2184 G01 X0.6180 Y0.3587 Z-0.3464
N2185 G01 X0.8235 Y0.3565 Z-0.3466
N2186 G01 X1.0293 Y0.3535 Z-0.3470
N2187 G01 X1.2354 Y0.3499 Z-0.3473
N2188 G01 X1.4411 Y0.3458 Z-0.3478
N2189 G01 X1.6470 Y0.3408 Z-0.3483
N2190 G01 X1.8529 Y0.3354 Z-0.3488
N2191 G01 X2.0586 Y0.3292 Z-0.3494
N2192 G01 X2.2644 Y0.3224 Z-0.3501
N2193 G01 X2.4703 Y0.3150 Z-0.3508
N2194 G01 X2.6759 Y0.3069 Z-0.3516
N2195 G01 X2.8817 Y0.2981 Z-0.3524
N2196 G01 X3.0874 Y0.2888 Z-0.3533
N2197 G01 X3.2930 Y0.2788 Z-0.3542
N2198 G01 X3.4987 Y0.2681 Z-0.3551
N2199 G01 X3.7043 Y0.2568 Z-0.3561
N2200 G01 X3.9098 Y0.2449 Z-0.3572
N2201 G01 X4.1153 Y0.2323 Z-0.3582
N2202 G01 X4.3208 Y0.2191 Z-0.3593
N2203 G01 X4.5261 Y0.2052 Z-0.3604
N2204 G01 X4.7315 Y0.1907 Z-0.3615
N2205 G01 X4.9390 Y0.1754 Z-0.3627
N2206 G01 X5.1197 Y0.1614 Z-0.3637
N2207 G01 X4.9468 Y0.1179 Z-0.3564
N2208 G01 X4.7461 Y0.0693 Z-0.3483
N2209 G01 X4.5476 Y0.0231 Z-0.3406
N2210 G01 X4.3485 Y-0.0211 Z-0.3332
N2211 G01 X4.1489 Y-0.0636 Z-0.3260
N2212 G01 X3.9491 Y-0.1041 Z-0.3191
N2213 G01 X3.7488 Y-0.1426 Z-0.3126
N2214 G01 X3.5481 Y-0.1793 Z-0.3064
N2215 G01 X3.3474 Y-0.2139 Z-0.3005
N2216 G01 X3.1460 Y-0.2466 Z-0.2949
N2217 G01 X2.9444 Y-0.2775 Z-0.2896
N2218 G01 X2.7428 Y-0.3061 Z-0.2847
N2219 G01 X2.5404 Y-0.3329 Z-0.2802
N2220 G01 X2.3383 Y-0.3577 Z-0.2759
N2221 G01 X2.1358 Y-0.3803 Z-0.2720
N2222 G01 X1.9327 Y-0.4011 Z-0.2685
N2223 G01 X1.7301 Y-0.4198 Z-0.2653
N2224 G01 X1.5268 Y-0.4362 Z-0.2624
N2225 G01 X1.3234 Y-0.4510 Z-0.2599
N2226 G01 X1.1204 Y-0.4633 Z-0.2578
N2227 G01 X0.9162 Y-0.4737 Z-0.2560
N2228 G01 X0.7132 Y-0.4825 Z-0.2545
N2229 G01 X0.5104 Y-0.4880 Z-0.2536
N2230 G01 X0.3055 Y-0.4918 Z-0.2529
N2231 G01 X0.1014 Y-0.4944 Z-0.2524
N2232 G01 X-0.1014 
N2233 G01 X-0.3055 Y-0.4918 Z-0.2529
N2234 G01 X-0.5104 Y-0.4880 Z-0.2536
N2235 G01 X-0.7132 Y-0.4825 Z-0.2545
N2236 G01 X-0.9162 Y-0.4737 Z-0.2560
N2237 G01 X-1.1204 Y-0.4633 Z-0.2578
N2238 G01 X-1.3234 Y-0.4510 Z-0.2599
N2239 G01 X-1.5268 Y-0.4362 Z-0.2624
N2240 G01 X-1.7301 Y-0.4198 Z-0.2653
N2241 G01 X-1.9327 Y-0.4011 Z-0.2685
N2242 G01 X-2.1358 Y-0.3803 Z-0.2720
N2243 G01 X-2.3383 Y-0.3577 Z-0.2759
N2244 G01 X-2.5404 Y-0.3329 Z-0.2802
N2245 G01 X-2.7428 Y-0.3061 Z-0.2847
N2246 G01 X-2.9444 Y-0.2775 Z-0.2896
N2247 G01 X-3.1460 Y-0.2466 Z-0.2949
N2248 G01 X-3.3474 Y-0.2139 Z-0.3005
N2249 G01 X-3.5481 Y-0.1793 Z-0.3064
N2250 G01 X-3.7488 Y-0.1426 Z-0.3126
N2251 G01 X-3.9491 Y-0.1041 Z-0.3191
N2252 G01 X-4.1489 Y-0.0636 Z-0.3260
N2253 G01 X-4.3485 Y-0.0211 Z-0.3332
N2254 G01 X-4.5476 Y0.0231 Z-0.3406
N2255 G01 X-4.7461 Y0.0693 Z-0.3483
N2256 G01 X-4.9468 Y0.1179 Z-0.3564
N2257 G01 X-5.1197 Y0.1614 Z-0.3637
N2258 G01 X-2.7810 Y0.0022 Z-0.3205
N2259 G01 X-2.5972 Y0.0099 Z-0.3200
N2260 G01 X-2.3876 Y0.0178 Z-0.3194
N2261 G01 X-2.1800 Y0.0251 Z-0.3189
N2262 G01 X-1.9726 Y0.0318 Z-0.3184
N2263 G01 X-1.7650 Y0.0377 Z-0.3180
N2264 G01 X-1.5573 Y0.0430 Z-0.3176
N2265 G01 X-1.3498 Y0.0477 Z-0.3172
N2266 G01 X-1.1422 Y0.0515 Z-0.3169
N2267 G01 X-0.9343 Y0.0549 Z-0.3167
N2268 G01 X-0.7270 Y0.0577 Z-0.3165
N2269 G01 X-0.5195 Y0.0594 Z-0.3163
N2270 G01 X-0.3114 Y0.0606 Z-0.3162
N2271 G01 X-0.1037 Y0.0614 
N2272 G01 X0.1037 
N2273 G01 X0.3114 Y0.0606 
N2274 G01 X0.5195 Y0.0594 Z-0.3163
N2275 G01 X0.7270 Y0.0577 Z-0.3165
N2276 G01 X0.9343 Y0.0549 Z-0.3167
N2277 G01 X1.1422 Y0.0515 Z-0.3169
N2278 G01 X1.3498 Y0.0477 Z-0.3172
N2279 G01 X1.5573 Y0.0430 Z-0.3176
N2280 G01 X1.7650 Y0.0377 Z-0.3180
N2281 G01 X1.9726 Y0.0318 Z-0.3184
N2282 G01 X2.1800 Y0.0251 Z-0.3189
N2283 G01 X2.3876 Y0.0178 Z-0.3194
N2284 G01 X2.5972 Y0.0099 Z-0.3200
N2285 G01 X2.7810 Y0.0022 Z-0.3205
N2286 G01 X2.6061 Y-0.0218 Z-0.3165
N2287 G01 X2.3962 Y-0.0487 Z-0.3121
N2288 G01 X2.1888 Y-0.0728 Z-0.3081
N2289 G01 X1.9808 Y-0.0948 Z-0.3044
N2290 G01 X1.7730 Y-0.1148 Z-0.3011
N2291 G01 X1.5650 Y-0.1323 Z-0.2982
N2292 G01 X1.3563 Y-0.1480 Z-0.2955
N2293 G01 X1.1484 Y-0.1613 Z-0.2933
N2294 G01 X0.9392 Y-0.1723 Z-0.2915
N2295 G01 X0.7308 Y-0.1816 Z-0.2899
N2296 G01 X0.5231 Y-0.1877 Z-0.2889
N2297 G01 X0.3132 Y-0.1917 Z-0.2882
N2298 G01 X0.1039 Y-0.1944 Z-0.2878
N2299 G01 X-0.1039 
N2300 G01 X-0.3132 Y-0.1917 Z-0.2882
N2301 G01 X-0.5231 Y-0.1877 Z-0.2889
N2302 G01 X-0.7308 Y-0.1816 Z-0.2899
N2303 G01 X-0.9392 Y-0.1723 Z-0.2915
N2304 G01 X-1.1484 Y-0.1613 Z-0.2933
N2305 G01 X-1.3563 Y-0.1480 Z-0.2955
N2306 G01 X-1.5650 Y-0.1323 Z-0.2982
N2307 G01 X-1.7730 Y-0.1148 Z-0.3011
N2308 G01 X-1.9808 Y-0.0948 Z-0.3044
N2309 G01 X-2.1888 Y-0.0728 Z-0.3081
N2310 G01 X-2.3962 Y-0.0487 Z-0.3121
N2311 G01 X-2.6061 Y-0.0218 Z-0.3165
N2312 G01 X-2.7810 Y0.0022 Z-0.3205
N2313 M30
