( THESIS DATE=26-03-07  TIME=02:08 )
( Toolpath created using cncpost by: Daniel Claxton )

N0000 G70
N0001 G00 G40 G80 G90
N0002 T1
N0003 G00 Z0.4998 S1800 M03
N0004 G00 X-12.0181 Y-0.3448
N0005 G01 Z-0.5027 E5
N0006 G01 X-12.0130 Y0.0064 Z-0.5145 F30
N0007 G01 X-12.0090 Y0.3556 Z-0.5451
N0008 G01 X-12.0080 Y0.7003 Z-0.5839
N0009 G01 X-12.0082 Y1.0427 Z-0.6242
N0010 G01 X-12.0097 Y1.3816 Z-0.6552
N0011 G01 X-12.0104 Y1.7206 Z-0.6698
N0012 G01 X-12.0081 Y2.0444 Z-0.6545
N0013 G01 X-11.9932 Y2.3116 Z-0.5439
N0014 G01 X-11.8969 Y2.3284 Z-0.5359
N0015 G01 X-11.7503 Y2.3537 Z-0.5238
N0016 G01 X-11.5762 Y2.3834 Z-0.5096
N0017 G01 X-11.3817 Y2.4159 Z-0.4940
N0018 G01 X-11.1706 Y2.4507 Z-0.4774
N0019 G01 X-10.9453 Y2.4871 Z-0.4600
N0020 G01 X-10.7077 Y2.5246 Z-0.4420
N0021 G01 X-10.4592 Y2.5630 Z-0.4237
N0022 G01 X-10.2008 Y2.6020 Z-0.4050
N0023 G01 X-9.9334 Y2.6413 Z-0.3863
N0024 G01 X-9.6578 Y2.6807 Z-0.3674
N0025 G01 X-9.3746 Y2.7200 Z-0.3486
N0026 G01 X-9.0844 Y2.7592 Z-0.3299
N0027 G01 X-8.7878 Y2.7978 Z-0.3114
N0028 G01 X-8.4851 Y2.8360 Z-0.2931
N0029 G01 X-8.1768 Y2.8735 Z-0.2752
N0030 G01 X-7.8633 Y2.9102 Z-0.2577
N0031 G01 X-7.5448 Y2.9460 Z-0.2405
N0032 G01 X-7.2218 Y2.9809 Z-0.2239
N0033 G01 X-6.8946 Y3.0146 Z-0.2078
N0034 G01 X-6.5633 Y3.0471 Z-0.1922
N0035 G01 X-6.2284 Y3.0784 Z-0.1772
N0036 G01 X-5.8899 Y3.1083 Z-0.1629
N0037 G01 X-5.5483 Y3.1368 Z-0.1493
N0038 G01 X-5.2037 Y3.1639 Z-0.1363
N0039 G01 X-4.8564 Y3.1894 Z-0.1242
N0040 G01 X-4.5065 Y3.2133 Z-0.1127
N0041 G01 X-4.1543 Y3.2356 Z-0.1021
N0042 G01 X-3.8000 Y3.2562 Z-0.0922
N0043 G01 X-3.4438 Y3.2750 Z-0.0832
N0044 G01 X-3.0858 Y3.2920 Z-0.0751
N0045 G01 X-2.7264 Y3.3073 Z-0.0678
N0046 G01 X-2.3655 Y3.3207 Z-0.0614
N0047 G01 X-2.0036 Y3.3323 Z-0.0558
N0048 G01 X-1.6406 Y3.3419 Z-0.0512
N0049 G01 X-1.2768 Y3.3497 Z-0.0475
N0050 G01 X-0.9125 Y3.3556 Z-0.0447
N0051 G01 X-0.5477 Y3.3592 Z-0.0429
N0052 G01 X-0.1826 Y3.3612 Z-0.0420
N0053 G01 X0.1826 
N0054 G01 X0.5477 Y3.3592 Z-0.0429
N0055 G01 X0.9125 Y3.3556 Z-0.0447
N0056 G01 X1.2768 Y3.3497 Z-0.0475
N0057 G01 X1.6406 Y3.3419 Z-0.0512
N0058 G01 X2.0036 Y3.3323 Z-0.0558
N0059 G01 X2.3655 Y3.3207 Z-0.0614
N0060 G01 X2.7264 Y3.3073 Z-0.0678
N0061 G01 X3.0858 Y3.2920 Z-0.0751
N0062 G01 X3.4438 Y3.2750 Z-0.0832
N0063 G01 X3.8000 Y3.2562 Z-0.0922
N0064 G01 X4.1543 Y3.2356 Z-0.1021
N0065 G01 X4.5065 Y3.2133 Z-0.1127
N0066 G01 X4.8564 Y3.1894 Z-0.1242
N0067 G01 X5.2037 Y3.1639 Z-0.1363
N0068 G01 X5.5483 Y3.1368 Z-0.1493
N0069 G01 X5.8899 Y3.1083 Z-0.1629
N0070 G01 X6.2284 Y3.0784 Z-0.1772
N0071 G01 X6.5633 Y3.0471 Z-0.1922
N0072 G01 X6.8946 Y3.0146 Z-0.2078
N0073 G01 X7.2218 Y2.9809 Z-0.2239
N0074 G01 X7.5448 Y2.9460 Z-0.2405
N0075 G01 X7.8633 Y2.9102 Z-0.2577
N0076 G01 X8.1768 Y2.8735 Z-0.2752
N0077 G01 X8.4851 Y2.8360 Z-0.2931
N0078 G01 X8.7878 Y2.7978 Z-0.3114
N0079 G01 X9.0844 Y2.7592 Z-0.3299
N0080 G01 X9.3746 Y2.7200 Z-0.3486
N0081 G01 X9.6578 Y2.6807 Z-0.3674
N0082 G01 X9.9334 Y2.6413 Z-0.3863
N0083 G01 X10.2008 Y2.6020 Z-0.4050
N0084 G01 X10.4592 Y2.5630 Z-0.4237
N0085 G01 X10.7077 Y2.5246 Z-0.4420
N0086 G01 X10.9453 Y2.4871 Z-0.4600
N0087 G01 X11.1706 Y2.4507 Z-0.4774
N0088 G01 X11.3817 Y2.4159 Z-0.4940
N0089 G01 X11.5762 Y2.3834 Z-0.5096
N0090 G01 X11.7503 Y2.3537 Z-0.5238
N0091 G01 X11.8969 Y2.3284 Z-0.5359
N0092 G01 X11.9932 Y2.3116 Z-0.5439
N0093 G01 X12.0081 Y2.0444 Z-0.6545
N0094 G01 X12.0104 Y1.7206 Z-0.6698
N0095 G01 X12.0097 Y1.3816 Z-0.6552
N0096 G01 X12.0082 Y1.0427 Z-0.6242
N0097 G01 X12.0080 Y0.7003 Z-0.5839
N0098 G01 X12.0090 Y0.3556 Z-0.5451
N0099 G01 X12.0130 Y0.0064 Z-0.5145
N0100 G01 X12.0181 Y-0.3448 Z-0.5027
N0101 G01 X11.9314 Y-0.3901 Z-0.4955
N0102 G01 X11.7991 Y-0.4586 Z-0.4846
N0103 G01 X11.6418 Y-0.5390 Z-0.4717
N0104 G01 X11.4658 Y-0.6277 Z-0.4576
N0105 G01 X11.2744 Y-0.7226 Z-0.4424
N0106 G01 X11.0698 Y-0.8223 Z-0.4265
N0107 G01 X10.8536 Y-0.9257 Z-0.4100
N0108 G01 X10.6269 Y-1.0319 Z-0.3931
N0109 G01 X10.3907 Y-1.1402 Z-0.3758
N0110 G01 X10.1457 Y-1.2499 Z-0.3583
N0111 G01 X9.8927 Y-1.3604 Z-0.3406
N0112 G01 X9.6321 Y-1.4714 Z-0.3229
N0113 G01 X9.3644 Y-1.5823 Z-0.3052
N0114 G01 X9.0901 Y-1.6927 Z-0.2876
N0115 G01 X8.8096 Y-1.8022 Z-0.2701
N0116 G01 X8.5231 Y-1.9105 Z-0.2529
N0117 G01 X8.2310 Y-2.0172 Z-0.2358
N0118 G01 X7.9337 Y-2.1220 Z-0.2191
N0119 G01 X7.6314 Y-2.2247 Z-0.2027
N0120 G01 X7.3243 Y-2.3248 Z-0.1868
N0121 G01 X7.0128 Y-2.4223 Z-0.1712
N0122 G01 X6.6970 Y-2.5166 Z-0.1561
N0123 G01 X6.3772 Y-2.6078 Z-0.1416
N0124 G01 X6.0537 Y-2.6955 Z-0.1276
N0125 G01 X5.7266 Y-2.7796 Z-0.1142
N0126 G01 X5.3961 Y-2.8597 Z-0.1014
N0127 G01 X5.0625 Y-2.9358 Z-0.0892
N0128 G01 X4.7261 Y-3.0077 Z-0.0778
N0129 G01 X4.3868 Y-3.0751 Z-0.0670
N0130 G01 X4.0451 Y-3.1380 Z-0.0570
N0131 G01 X3.7011 Y-3.1960 Z-0.0477
N0132 G01 X3.3549 Y-3.2494 Z-0.0392
N0133 G01 X3.0069 Y-3.2975 Z-0.0315
N0134 G01 X2.6571 Y-3.3409 Z-0.0246
N0135 G01 X2.3059 Y-3.3788 Z-0.0186
N0136 G01 X1.9533 Y-3.4116 Z-0.0133
N0137 G01 X1.5997 Y-3.4390 Z-0.0090
N0138 G01 X1.2451 Y-3.4609 Z-0.0055
N0139 G01 X0.8899 Y-3.4779 Z-0.0027
N0140 G01 X0.5341 Y-3.4881 Z-0.0011
N0141 G01 X0.1781 Y-3.4938 Z-0.0002
N0142 G01 X-0.1781 
N0143 G01 X-0.5341 Y-3.4881 Z-0.0011
N0144 G01 X-0.8899 Y-3.4779 Z-0.0027
N0145 G01 X-1.2451 Y-3.4609 Z-0.0055
N0146 G01 X-1.5997 Y-3.4390 Z-0.0090
N0147 G01 X-1.9533 Y-3.4116 Z-0.0133
N0148 G01 X-2.3059 Y-3.3788 Z-0.0186
N0149 G01 X-2.6571 Y-3.3409 Z-0.0246
N0150 G01 X-3.0069 Y-3.2975 Z-0.0315
N0151 G01 X-3.3549 Y-3.2494 Z-0.0392
N0152 G01 X-3.7011 Y-3.1960 Z-0.0477
N0153 G01 X-4.0451 Y-3.1380 Z-0.0570
N0154 G01 X-4.3868 Y-3.0751 Z-0.0670
N0155 G01 X-4.7261 Y-3.0077 Z-0.0778
N0156 G01 X-5.0625 Y-2.9358 Z-0.0892
N0157 G01 X-5.3961 Y-2.8597 Z-0.1014
N0158 G01 X-5.7266 Y-2.7796 Z-0.1142
N0159 G01 X-6.0537 Y-2.6955 Z-0.1276
N0160 G01 X-6.3772 Y-2.6078 Z-0.1416
N0161 G01 X-6.6970 Y-2.5166 Z-0.1561
N0162 G01 X-7.0128 Y-2.4223 Z-0.1712
N0163 G01 X-7.3243 Y-2.3248 Z-0.1868
N0164 G01 X-7.6314 Y-2.2247 Z-0.2027
N0165 G01 X-7.9337 Y-2.1220 Z-0.2191
N0166 G01 X-8.2310 Y-2.0172 Z-0.2358
N0167 G01 X-8.5231 Y-1.9105 Z-0.2529
N0168 G01 X-8.8096 Y-1.8022 Z-0.2701
N0169 G01 X-9.0901 Y-1.6927 Z-0.2876
N0170 G01 X-9.3644 Y-1.5823 Z-0.3052
N0171 G01 X-9.6321 Y-1.4714 Z-0.3229
N0172 G01 X-9.8927 Y-1.3604 Z-0.3406
N0173 G01 X-10.1457 Y-1.2499 Z-0.3583
N0174 G01 X-10.3907 Y-1.1402 Z-0.3758
N0175 G01 X-10.6269 Y-1.0319 Z-0.3931
N0176 G01 X-10.8536 Y-0.9257 Z-0.4100
N0177 G01 X-11.0698 Y-0.8223 Z-0.4265
N0178 G01 X-11.2744 Y-0.7226 Z-0.4424
N0179 G01 X-11.4658 Y-0.6277 Z-0.4576
N0180 G01 X-11.6418 Y-0.5390 Z-0.4717
N0181 G01 X-11.7991 Y-0.4586 Z-0.4846
N0182 G01 X-11.9314 Y-0.3901 Z-0.4955
N0183 G01 X-12.0181 Y-0.3448 Z-0.5027
N0184 G01 X-11.7168 Y-0.1634 Z-0.4883
N0185 G01 X-11.7101 Y0.2050 Z-0.5189
N0186 G01 X-11.7082 Y0.5809 Z-0.5605
N0187 G01 X-11.7079 Y0.9550 Z-0.6046
N0188 G01 X-11.7095 Y1.3264 Z-0.6398
N0189 G01 X-11.7104 Y1.6970 Z-0.6570
N0190 G01 X-11.7075 Y2.0567 Z-0.6427
N0191 G01 X-11.4792 Y2.0955 Z-0.6292
N0192 G01 X-11.2378 Y2.1357 Z-0.6149
N0193 G01 X-10.9855 Y2.1768 Z-0.5997
N0194 G01 X-10.7249 Y2.2183 Z-0.5841
N0195 G01 X-10.4572 Y2.2598 Z-0.5680
N0196 G01 X-10.1837 Y2.3012 Z-0.5517
N0197 G01 X-9.9050 Y2.3423 Z-0.5352
N0198 G01 X-9.6218 Y2.3828 Z-0.5186
N0199 G01 X-9.3345 Y2.4227 Z-0.5021
N0200 G01 X-9.0435 Y2.4620 Z-0.4857
N0201 G01 X-8.7493 Y2.5003 Z-0.4695
N0202 G01 X-8.4520 Y2.5378 Z-0.4535
N0203 G01 X-8.1519 Y2.5743 Z-0.4378
N0204 G01 X-7.8493 Y2.6099 Z-0.4225
N0205 G01 X-7.5443 Y2.6443 Z-0.4075
N0206 G01 X-7.2371 Y2.6776 Z-0.3929
N0207 G01 X-6.9279 Y2.7097 Z-0.3788
N0208 G01 X-6.6168 Y2.7406 Z-0.3651
N0209 G01 X-6.3041 Y2.7702 Z-0.3520
N0210 G01 X-5.9896 Y2.7985 Z-0.3393
N0211 G01 X-5.6737 Y2.8255 Z-0.3273
N0212 G01 X-5.3564 Y2.8512 Z-0.3158
N0213 G01 X-5.0378 Y2.8755 Z-0.3049
N0214 G01 X-4.7180 Y2.8984 Z-0.2946
N0215 G01 X-4.3972 Y2.9198 Z-0.2850
N0216 G01 X-4.0753 Y2.9398 Z-0.2759
N0217 G01 X-3.7525 Y2.9583 Z-0.2676
N0218 G01 X-3.4289 Y2.9754 Z-0.2599
N0219 G01 X-3.1046 Y2.9909 Z-0.2528
N0220 G01 X-2.7795 Y3.0049 Z-0.2465
N0221 G01 X-2.4539 Y3.0174 Z-0.2408
N0222 G01 X-2.1277 Y3.0284 Z-0.2358
N0223 G01 X-1.8012 Y3.0377 Z-0.2316
N0224 G01 X-1.4742 Y3.0457 Z-0.2280
N0225 G01 X-1.1469 Y3.0519 Z-0.2251
N0226 G01 X-0.8194 Y3.0568 Z-0.2229
N0227 G01 X-0.4918 Y3.0596 Z-0.2216
N0228 G01 X-0.1638 Y3.0613 Z-0.2209
N0229 G01 X0.1638 
N0230 G01 X0.4918 Y3.0596 Z-0.2216
N0231 G01 X0.8194 Y3.0568 Z-0.2229
N0232 G01 X1.1469 Y3.0519 Z-0.2251
N0233 G01 X1.4742 Y3.0457 Z-0.2280
N0234 G01 X1.8012 Y3.0377 Z-0.2316
N0235 G01 X2.1277 Y3.0284 Z-0.2358
N0236 G01 X2.4539 Y3.0174 Z-0.2408
N0237 G01 X2.7795 Y3.0049 Z-0.2465
N0238 G01 X3.1046 Y2.9909 Z-0.2528
N0239 G01 X3.4289 Y2.9754 Z-0.2599
N0240 G01 X3.7525 Y2.9583 Z-0.2676
N0241 G01 X4.0753 Y2.9398 Z-0.2759
N0242 G01 X4.3972 Y2.9198 Z-0.2850
N0243 G01 X4.7180 Y2.8984 Z-0.2946
N0244 G01 X5.0378 Y2.8755 Z-0.3049
N0245 G01 X5.3564 Y2.8512 Z-0.3158
N0246 G01 X5.6737 Y2.8255 Z-0.3273
N0247 G01 X5.9896 Y2.7985 Z-0.3393
N0248 G01 X6.3041 Y2.7702 Z-0.3520
N0249 G01 X6.6168 Y2.7406 Z-0.3651
N0250 G01 X6.9279 Y2.7097 Z-0.3788
N0251 G01 X7.2371 Y2.6776 Z-0.3929
N0252 G01 X7.5443 Y2.6443 Z-0.4075
N0253 G01 X7.8493 Y2.6099 Z-0.4225
N0254 G01 X8.1519 Y2.5743 Z-0.4378
N0255 G01 X8.4520 Y2.5378 Z-0.4535
N0256 G01 X8.7493 Y2.5003 Z-0.4695
N0257 G01 X9.0435 Y2.4620 Z-0.4857
N0258 G01 X9.3345 Y2.4227 Z-0.5021
N0259 G01 X9.6218 Y2.3828 Z-0.5186
N0260 G01 X9.9050 Y2.3423 Z-0.5352
N0261 G01 X10.1837 Y2.3012 Z-0.5517
N0262 G01 X10.4572 Y2.2598 Z-0.5680
N0263 G01 X10.7249 Y2.2183 Z-0.5841
N0264 G01 X10.9855 Y2.1768 Z-0.5997
N0265 G01 X11.2378 Y2.1357 Z-0.6149
N0266 G01 X11.4792 Y2.0955 Z-0.6292
N0267 G01 X11.7075 Y2.0567 Z-0.6427
N0268 G01 X11.7104 Y1.6970 Z-0.6570
N0269 G01 X11.7095 Y1.3264 Z-0.6398
N0270 G01 X11.7079 Y0.9550 Z-0.6046
N0271 G01 X11.7082 Y0.5809 Z-0.5605
N0272 G01 X11.7101 Y0.2050 Z-0.5189
N0273 G01 X11.7168 Y-0.1634 Z-0.4883
N0274 G01 X11.5227 Y-0.2630 Z-0.4722
N0275 G01 X11.3054 Y-0.3725 Z-0.4545
N0276 G01 X11.0765 Y-0.4855 Z-0.4363
N0277 G01 X10.8386 Y-0.6006 Z-0.4178
N0278 G01 X10.5933 Y-0.7166 Z-0.3991
N0279 G01 X10.3414 Y-0.8330 Z-0.3805
N0280 G01 X10.0839 Y-0.9491 Z-0.3619
N0281 G01 X9.8211 Y-1.0645 Z-0.3435
N0282 G01 X9.5537 Y-1.1789 Z-0.3252
N0283 G01 X9.2820 Y-1.2919 Z-0.3072
N0284 G01 X9.0061 Y-1.4033 Z-0.2895
N0285 G01 X8.7266 Y-1.5127 Z-0.2721
N0286 G01 X8.4435 Y-1.6200 Z-0.2550
N0287 G01 X8.1571 Y-1.7250 Z-0.2384
N0288 G01 X7.8675 Y-1.8275 Z-0.2221
N0289 G01 X7.5750 Y-1.9272 Z-0.2063
N0290 G01 X7.2796 Y-2.0241 Z-0.1909
N0291 G01 X6.9817 Y-2.1180 Z-0.1761
N0292 G01 X6.6811 Y-2.2086 Z-0.1617
N0293 G01 X6.3783 Y-2.2960 Z-0.1479
N0294 G01 X6.0731 Y-2.3799 Z-0.1346
N0295 G01 X5.7659 Y-2.4603 Z-0.1219
N0296 G01 X5.4566 Y-2.5369 Z-0.1098
N0297 G01 X5.1454 Y-2.6099 Z-0.0983
N0298 G01 X4.8324 Y-2.6788 Z-0.0874
N0299 G01 X4.5178 Y-2.7439 Z-0.0771
N0300 G01 X4.2016 Y-2.8047 Z-0.0675
N0301 G01 X3.8840 Y-2.8615 Z-0.0586
N0302 G01 X3.5649 Y-2.9139 Z-0.0503
N0303 G01 X3.2448 Y-2.9622 Z-0.0427
N0304 G01 X2.9234 Y-3.0059 Z-0.0358
N0305 G01 X2.6012 Y-3.0454 Z-0.0295
N0306 G01 X2.2779 Y-3.0801 Z-0.0240
N0307 G01 X1.9541 Y-3.1105 Z-0.0192
N0308 G01 X1.6292 Y-3.1361 Z-0.0152
N0309 G01 X1.3043 Y-3.1573 Z-0.0119
N0310 G01 X0.9783 Y-3.1738 Z-0.0092
N0311 G01 X0.6530 Y-3.1855 Z-0.0074
N0312 G01 X0.3262 Y-3.1918 Z-0.0064
N0313 G01 X0.0000 Y-3.1948 Z-0.0059
N0314 G01 X-0.3262 Y-3.1918 Z-0.0064
N0315 G01 X-0.6530 Y-3.1855 Z-0.0074
N0316 G01 X-0.9783 Y-3.1738 Z-0.0092
N0317 G01 X-1.3043 Y-3.1573 Z-0.0119
N0318 G01 X-1.6292 Y-3.1361 Z-0.0152
N0319 G01 X-1.9541 Y-3.1105 Z-0.0192
N0320 G01 X-2.2779 Y-3.0801 Z-0.0240
N0321 G01 X-2.6012 Y-3.0454 Z-0.0295
N0322 G01 X-2.9234 Y-3.0059 Z-0.0358
N0323 G01 X-3.2448 Y-2.9622 Z-0.0427
N0324 G01 X-3.5649 Y-2.9139 Z-0.0503
N0325 G01 X-3.8840 Y-2.8615 Z-0.0586
N0326 G01 X-4.2016 Y-2.8047 Z-0.0675
N0327 G01 X-4.5178 Y-2.7439 Z-0.0771
N0328 G01 X-4.8324 Y-2.6788 Z-0.0874
N0329 G01 X-5.1454 Y-2.6099 Z-0.0983
N0330 G01 X-5.4566 Y-2.5369 Z-0.1098
N0331 G01 X-5.7659 Y-2.4603 Z-0.1219
N0332 G01 X-6.0731 Y-2.3799 Z-0.1346
N0333 G01 X-6.3783 Y-2.2960 Z-0.1479
N0334 G01 X-6.6811 Y-2.2086 Z-0.1617
N0335 G01 X-6.9817 Y-2.1180 Z-0.1761
N0336 G01 X-7.2796 Y-2.0241 Z-0.1909
N0337 G01 X-7.5750 Y-1.9272 Z-0.2063
N0338 G01 X-7.8675 Y-1.8275 Z-0.2221
N0339 G01 X-8.1571 Y-1.7250 Z-0.2384
N0340 G01 X-8.4435 Y-1.6200 Z-0.2550
N0341 G01 X-8.7266 Y-1.5127 Z-0.2721
N0342 G01 X-9.0061 Y-1.4033 Z-0.2895
N0343 G01 X-9.2820 Y-1.2919 Z-0.3072
N0344 G01 X-9.5537 Y-1.1789 Z-0.3252
N0345 G01 X-9.8211 Y-1.0645 Z-0.3435
N0346 G01 X-10.0839 Y-0.9491 Z-0.3619
N0347 G01 X-10.3414 Y-0.8330 Z-0.3805
N0348 G01 X-10.5933 Y-0.7166 Z-0.3991
N0349 G01 X-10.8386 Y-0.6006 Z-0.4178
N0350 G01 X-11.0765 Y-0.4855 Z-0.4363
N0351 G01 X-11.3054 Y-0.3725 Z-0.4545
N0352 G01 X-11.5227 Y-0.2630 Z-0.4722
N0353 G01 X-11.7168 Y-0.1634 Z-0.4883
N0354 G01 X-11.4128 Y0.0177 Z-0.4895
N0355 G01 X-11.4090 Y0.3597 Z-0.5258
N0356 G01 X-11.4079 Y0.7148 Z-0.5672
N0357 G01 X-11.4083 Y1.0696 Z-0.6071
N0358 G01 X-11.4099 Y1.4225 Z-0.6346
N0359 G01 X-11.4103 Y1.8028 Z-0.6459
N0360 G01 X-11.1509 Y1.8459 Z-0.6354
N0361 G01 X-10.8750 Y1.8907 Z-0.6242
N0362 G01 X-10.5942 Y1.9351 Z-0.6125
N0363 G01 X-10.3094 Y1.9789 Z-0.6006
N0364 G01 X-10.0216 Y2.0220 Z-0.5885
N0365 G01 X-9.7309 Y2.0643 Z-0.5762
N0366 G01 X-9.4379 Y2.1056 Z-0.5638
N0367 G01 X-9.1428 Y2.1460 Z-0.5514
N0368 G01 X-8.8458 Y2.1854 Z-0.5391
N0369 G01 X-8.5471 Y2.2236 Z-0.5267
N0370 G01 X-8.2468 Y2.2608 Z-0.5145
N0371 G01 X-7.9451 Y2.2967 Z-0.5025
N0372 G01 X-7.6421 Y2.3315 Z-0.4906
N0373 G01 X-7.3379 Y2.3650 Z-0.4790
N0374 G01 X-7.0327 Y2.3974 Z-0.4676
N0375 G01 X-6.7263 Y2.4284 Z-0.4566
N0376 G01 X-6.4191 Y2.4581 Z-0.4459
N0377 G01 X-6.1110 Y2.4865 Z-0.4355
N0378 G01 X-5.8020 Y2.5137 Z-0.4255
N0379 G01 X-5.4923 Y2.5394 Z-0.4160
N0380 G01 X-5.1819 Y2.5638 Z-0.4069
N0381 G01 X-4.8709 Y2.5868 Z-0.3982
N0382 G01 X-4.5593 Y2.6085 Z-0.3900
N0383 G01 X-4.2471 Y2.6287 Z-0.3823
N0384 G01 X-3.9344 Y2.6476 Z-0.3750
N0385 G01 X-3.6213 Y2.6650 Z-0.3683
N0386 G01 X-3.3078 Y2.6810 Z-0.3621
N0387 G01 X-2.9938 Y2.6955 Z-0.3564
N0388 G01 X-2.6796 Y2.7087 Z-0.3513
N0389 G01 X-2.3650 Y2.7203 Z-0.3467
N0390 G01 X-2.0502 Y2.7307 Z-0.3427
N0391 G01 X-1.7352 Y2.7394 Z-0.3393
N0392 G01 X-1.4200 Y2.7468 Z-0.3364
N0393 G01 X-1.1045 Y2.7525 Z-0.3341
N0394 G01 X-0.7891 Y2.7571 Z-0.3323
N0395 G01 X-0.4736 Y2.7597 Z-0.3313
N0396 G01 X-0.1577 Y2.7613 Z-0.3306
N0397 G01 X0.1577 
N0398 G01 X0.4736 Y2.7597 Z-0.3313
N0399 G01 X0.7891 Y2.7571 Z-0.3323
N0400 G01 X1.1045 Y2.7525 Z-0.3341
N0401 G01 X1.4200 Y2.7468 Z-0.3364
N0402 G01 X1.7352 Y2.7394 Z-0.3393
N0403 G01 X2.0502 Y2.7307 Z-0.3427
N0404 G01 X2.3650 Y2.7203 Z-0.3467
N0405 G01 X2.6796 Y2.7087 Z-0.3513
N0406 G01 X2.9938 Y2.6955 Z-0.3564
N0407 G01 X3.3078 Y2.6810 Z-0.3621
N0408 G01 X3.6213 Y2.6650 Z-0.3683
N0409 G01 X3.9344 Y2.6476 Z-0.3750
N0410 G01 X4.2471 Y2.6287 Z-0.3823
N0411 G01 X4.5593 Y2.6085 Z-0.3900
N0412 G01 X4.8709 Y2.5868 Z-0.3982
N0413 G01 X5.1819 Y2.5638 Z-0.4069
N0414 G01 X5.4923 Y2.5394 Z-0.4160
N0415 G01 X5.8020 Y2.5137 Z-0.4255
N0416 G01 X6.1110 Y2.4865 Z-0.4355
N0417 G01 X6.4191 Y2.4581 Z-0.4459
N0418 G01 X6.7263 Y2.4284 Z-0.4566
N0419 G01 X7.0327 Y2.3974 Z-0.4676
N0420 G01 X7.3379 Y2.3650 Z-0.4790
N0421 G01 X7.6421 Y2.3315 Z-0.4906
N0422 G01 X7.9451 Y2.2967 Z-0.5025
N0423 G01 X8.2468 Y2.2608 Z-0.5145
N0424 G01 X8.5471 Y2.2236 Z-0.5267
N0425 G01 X8.8458 Y2.1854 Z-0.5391
N0426 G01 X9.1428 Y2.1460 Z-0.5514
N0427 G01 X9.4379 Y2.1056 Z-0.5638
N0428 G01 X9.7309 Y2.0643 Z-0.5762
N0429 G01 X10.0216 Y2.0220 Z-0.5885
N0430 G01 X10.3094 Y1.9789 Z-0.6006
N0431 G01 X10.5942 Y1.9351 Z-0.6125
N0432 G01 X10.8750 Y1.8907 Z-0.6242
N0433 G01 X11.1509 Y1.8459 Z-0.6354
N0434 G01 X11.4103 Y1.8028 Z-0.6459
N0435 G01 X11.4099 Y1.4225 Z-0.6346
N0436 G01 X11.4083 Y1.0696 Z-0.6071
N0437 G01 X11.4079 Y0.7148 Z-0.5672
N0438 G01 X11.4090 Y0.3597 Z-0.5258
N0439 G01 X11.4128 Y0.0177 Z-0.4895
N0440 G01 X11.1586 Y-0.1104 Z-0.4678
N0441 G01 X10.9089 Y-0.2335 Z-0.4471
N0442 G01 X10.6538 Y-0.3564 Z-0.4266
N0443 G01 X10.3941 Y-0.4784 Z-0.4062
N0444 G01 X10.1303 Y-0.5994 Z-0.3861
N0445 G01 X9.8631 Y-0.7188 Z-0.3664
N0446 G01 X9.5925 Y-0.8364 Z-0.3470
N0447 G01 X9.3190 Y-0.9520 Z-0.3280
N0448 G01 X9.0427 Y-1.0654 Z-0.3094
N0449 G01 X8.7640 Y-1.1764 Z-0.2912
N0450 G01 X8.4827 Y-1.2848 Z-0.2736
N0451 G01 X8.1991 Y-1.3906 Z-0.2564
N0452 G01 X7.9134 Y-1.4934 Z-0.2397
N0453 G01 X7.6256 Y-1.5935 Z-0.2235
N0454 G01 X7.3359 Y-1.6904 Z-0.2078
N0455 G01 X7.0442 Y-1.7842 Z-0.1927
N0456 G01 X6.7509 Y-1.8747 Z-0.1781
N0457 G01 X6.4556 Y-1.9620 Z-0.1641
N0458 G01 X6.1590 Y-2.0457 Z-0.1506
N0459 G01 X5.8606 Y-2.1259 Z-0.1378
N0460 G01 X5.5609 Y-2.2025 Z-0.1255
N0461 G01 X5.2596 Y-2.2755 Z-0.1138
N0462 G01 X4.9573 Y-2.3446 Z-0.1028
N0463 G01 X4.6534 Y-2.4100 Z-0.0924
N0464 G01 X4.3486 Y-2.4714 Z-0.0826
N0465 G01 X4.0425 Y-2.5289 Z-0.0734
N0466 G01 X3.7356 Y-2.5823 Z-0.0649
N0467 G01 X3.4275 Y-2.6317 Z-0.0570
N0468 G01 X3.1189 Y-2.6770 Z-0.0499
N0469 G01 X2.8091 Y-2.7181 Z-0.0433
N0470 G01 X2.4990 Y-2.7550 Z-0.0375
N0471 G01 X2.1877 Y-2.7876 Z-0.0323
N0472 G01 X1.8765 Y-2.8160 Z-0.0278
N0473 G01 X1.5642 Y-2.8400 Z-0.0239
N0474 G01 X1.2522 Y-2.8597 Z-0.0208
N0475 G01 X0.9389 Y-2.8753 Z-0.0184
N0476 G01 X0.6270 Y-2.8860 Z-0.0167
N0477 G01 X0.3129 Y-2.8920 Z-0.0157
N0478 G01 X0.0000 Y-2.8948 Z-0.0152
N0479 G01 X-0.3129 Y-2.8920 Z-0.0157
N0480 G01 X-0.6270 Y-2.8860 Z-0.0167
N0481 G01 X-0.9389 Y-2.8753 Z-0.0184
N0482 G01 X-1.2522 Y-2.8597 Z-0.0208
N0483 G01 X-1.5642 Y-2.8400 Z-0.0239
N0484 G01 X-1.8765 Y-2.8160 Z-0.0278
N0485 G01 X-2.1877 Y-2.7876 Z-0.0323
N0486 G01 X-2.4990 Y-2.7550 Z-0.0375
N0487 G01 X-2.8091 Y-2.7181 Z-0.0433
N0488 G01 X-3.1189 Y-2.6770 Z-0.0499
N0489 G01 X-3.4275 Y-2.6317 Z-0.0570
N0490 G01 X-3.7356 Y-2.5823 Z-0.0649
N0491 G01 X-4.0425 Y-2.5289 Z-0.0734
N0492 G01 X-4.3486 Y-2.4714 Z-0.0826
N0493 G01 X-4.6534 Y-2.4100 Z-0.0924
N0494 G01 X-4.9573 Y-2.3446 Z-0.1028
N0495 G01 X-5.2596 Y-2.2755 Z-0.1138
N0496 G01 X-5.5609 Y-2.2025 Z-0.1255
N0497 G01 X-5.8606 Y-2.1259 Z-0.1378
N0498 G01 X-6.1590 Y-2.0457 Z-0.1506
N0499 G01 X-6.4556 Y-1.9620 Z-0.1641
N0500 G01 X-6.7509 Y-1.8747 Z-0.1781
N0501 G01 X-7.0442 Y-1.7842 Z-0.1927
N0502 G01 X-7.3359 Y-1.6904 Z-0.2078
N0503 G01 X-7.6256 Y-1.5935 Z-0.2235
N0504 G01 X-7.9134 Y-1.4934 Z-0.2397
N0505 G01 X-8.1991 Y-1.3906 Z-0.2564
N0506 G01 X-8.4827 Y-1.2848 Z-0.2736
N0507 G01 X-8.7640 Y-1.1764 Z-0.2912
N0508 G01 X-9.0427 Y-1.0654 Z-0.3094
N0509 G01 X-9.3190 Y-0.9520 Z-0.3280
N0510 G01 X-9.5925 Y-0.8364 Z-0.3470
N0511 G01 X-9.8631 Y-0.7188 Z-0.3664
N0512 G01 X-10.1303 Y-0.5994 Z-0.3861
N0513 G01 X-10.3941 Y-0.4784 Z-0.4062
N0514 G01 X-10.6538 Y-0.3564 Z-0.4266
N0515 G01 X-10.9089 Y-0.2335 Z-0.4471
N0516 G01 X-11.1586 Y-0.1104 Z-0.4678
N0517 G01 X-11.4128 Y0.0177 Z-0.4895
N0518 G01 X-11.1102 Y0.2009 Z-0.4985
N0519 G01 X-11.1081 Y0.6492 Z-0.5505
N0520 G01 X-11.1085 Y1.1148 Z-0.6013
N0521 G01 X-11.1102 Y1.5486 Z-0.6290
N0522 G01 X-10.8200 Y1.5957 Z-0.6198
N0523 G01 X-10.5293 Y1.6416 Z-0.6103
N0524 G01 X-10.2364 Y1.6866 Z-0.6008
N0525 G01 X-9.9418 Y1.7305 Z-0.5911
N0526 G01 X-9.6457 Y1.7734 Z-0.5814
N0527 G01 X-9.3483 Y1.8152 Z-0.5717
N0528 G01 X-9.0497 Y1.8558 Z-0.5620
N0529 G01 X-8.7501 Y1.8953 Z-0.5524
N0530 G01 X-8.4496 Y1.9335 Z-0.5428
N0531 G01 X-8.1482 Y1.9705 Z-0.5333
N0532 G01 X-7.8460 Y2.0062 Z-0.5239
N0533 G01 X-7.5432 Y2.0407 Z-0.5147
N0534 G01 X-7.2396 Y2.0739 Z-0.5056
N0535 G01 X-6.9355 Y2.1058 Z-0.4967
N0536 G01 X-6.6307 Y2.1364 Z-0.4881
N0537 G01 X-6.3255 Y2.1656 Z-0.4797
N0538 G01 X-6.0197 Y2.1935 Z-0.4716
N0539 G01 X-5.7136 Y2.2201 Z-0.4638
N0540 G01 X-5.4069 Y2.2453 Z-0.4562
N0541 G01 X-5.0999 Y2.2692 Z-0.4490
N0542 G01 X-4.7925 Y2.2917 Z-0.4422
N0543 G01 X-4.4849 Y2.3128 Z-0.4357
N0544 G01 X-4.1768 Y2.3325 Z-0.4296
N0545 G01 X-3.8685 Y2.3509 Z-0.4238
N0546 G01 X-3.5600 Y2.3678 Z-0.4185
N0547 G01 X-3.2512 Y2.3834 Z-0.4135
N0548 G01 X-2.9422 Y2.3975 Z-0.4090
N0549 G01 X-2.6330 Y2.4103 Z-0.4049
N0550 G01 X-2.3236 Y2.4216 Z-0.4012
N0551 G01 X-2.0141 Y2.4316 Z-0.3980
N0552 G01 X-1.7044 Y2.4400 Z-0.3952
N0553 G01 X-1.3947 Y2.4472 Z-0.3929
N0554 G01 X-1.0848 Y2.4528 Z-0.3911
N0555 G01 X-0.7750 Y2.4573 Z-0.3896
N0556 G01 X-0.4651 Y2.4598 Z-0.3888
N0557 G01 X-0.1548 Y2.4613 Z-0.3883
N0558 G01 X0.1548 
N0559 G01 X0.4651 Y2.4598 Z-0.3888
N0560 G01 X0.7750 Y2.4573 Z-0.3896
N0561 G01 X1.0848 Y2.4528 Z-0.3911
N0562 G01 X1.3947 Y2.4472 Z-0.3929
N0563 G01 X1.7044 Y2.4400 Z-0.3952
N0564 G01 X2.0141 Y2.4316 Z-0.3980
N0565 G01 X2.3236 Y2.4216 Z-0.4012
N0566 G01 X2.6330 Y2.4103 Z-0.4049
N0567 G01 X2.9422 Y2.3975 Z-0.4090
N0568 G01 X3.2512 Y2.3834 Z-0.4135
N0569 G01 X3.5600 Y2.3678 Z-0.4185
N0570 G01 X3.8685 Y2.3509 Z-0.4238
N0571 G01 X4.1768 Y2.3325 Z-0.4296
N0572 G01 X4.4849 Y2.3128 Z-0.4357
N0573 G01 X4.7925 Y2.2917 Z-0.4422
N0574 G01 X5.0999 Y2.2692 Z-0.4490
N0575 G01 X5.4069 Y2.2453 Z-0.4562
N0576 G01 X5.7136 Y2.2201 Z-0.4638
N0577 G01 X6.0197 Y2.1935 Z-0.4716
N0578 G01 X6.3255 Y2.1656 Z-0.4797
N0579 G01 X6.6307 Y2.1364 Z-0.4881
N0580 G01 X6.9355 Y2.1058 Z-0.4967
N0581 G01 X7.2396 Y2.0739 Z-0.5056
N0582 G01 X7.5432 Y2.0407 Z-0.5147
N0583 G01 X7.8460 Y2.0062 Z-0.5239
N0584 G01 X8.1482 Y1.9705 Z-0.5333
N0585 G01 X8.4496 Y1.9335 Z-0.5428
N0586 G01 X8.7501 Y1.8953 Z-0.5524
N0587 G01 X9.0497 Y1.8558 Z-0.5620
N0588 G01 X9.3483 Y1.8152 Z-0.5717
N0589 G01 X9.6457 Y1.7734 Z-0.5814
N0590 G01 X9.9418 Y1.7305 Z-0.5911
N0591 G01 X10.2364 Y1.6866 Z-0.6008
N0592 G01 X10.5293 Y1.6416 Z-0.6103
N0593 G01 X10.8200 Y1.5957 Z-0.6198
N0594 G01 X11.1102 Y1.5486 Z-0.6290
N0595 G01 X11.1085 Y1.1148 Z-0.6013
N0596 G01 X11.1081 Y0.6492 Z-0.5505
N0597 G01 X11.1102 Y0.2009 Z-0.4985
N0598 G01 X10.8668 Y0.0799 Z-0.4775
N0599 G01 X10.6035 Y-0.0479 Z-0.4554
N0600 G01 X10.3367 Y-0.1742 Z-0.4335
N0601 G01 X10.0668 Y-0.2988 Z-0.4122
N0602 G01 X9.7946 Y-0.4211 Z-0.3915
N0603 G01 X9.5198 Y-0.5411 Z-0.3711
N0604 G01 X9.2431 Y-0.6586 Z-0.3513
N0605 G01 X8.9642 Y-0.7735 Z-0.3319
N0606 G01 X8.6835 Y-0.8857 Z-0.3131
N0607 G01 X8.4008 Y-0.9949 Z-0.2947
N0608 G01 X8.1164 Y-1.1013 Z-0.2770
N0609 G01 X7.8304 Y-1.2046 Z-0.2598
N0610 G01 X7.5427 Y-1.3048 Z-0.2431
N0611 G01 X7.2535 Y-1.4017 Z-0.2271
N0612 G01 X6.9627 Y-1.4954 Z-0.2116
N0613 G01 X6.6707 Y-1.5856 Z-0.1967
N0614 G01 X6.3770 Y-1.6724 Z-0.1824
N0615 G01 X6.0823 Y-1.7556 Z-0.1687
N0616 G01 X5.7861 Y-1.8353 Z-0.1556
N0617 G01 X5.4889 Y-1.9113 Z-0.1432
N0618 G01 X5.1904 Y-1.9836 Z-0.1314
N0619 G01 X4.8910 Y-2.0520 Z-0.1202
N0620 G01 X4.5902 Y-2.1167 Z-0.1097
N0621 G01 X4.2889 Y-2.1774 Z-0.0998
N0622 G01 X3.9862 Y-2.2342 Z-0.0905
N0623 G01 X3.6832 Y-2.2869 Z-0.0820
N0624 G01 X3.3788 Y-2.3357 Z-0.0741
N0625 G01 X3.0742 Y-2.3803 Z-0.0669
N0626 G01 X2.7685 Y-2.4208 Z-0.0603
N0627 G01 X2.4627 Y-2.4572 Z-0.0544
N0628 G01 X2.1557 Y-2.4893 Z-0.0492
N0629 G01 X1.8490 Y-2.5172 Z-0.0447
N0630 G01 X1.5410 Y-2.5409 Z-0.0409
N0631 G01 X1.2337 Y-2.5603 Z-0.0378
N0632 G01 X0.9249 Y-2.5756 Z-0.0353
N0633 G01 X0.6179 Y-2.5862 Z-0.0336
N0634 G01 X0.3082 Y-2.5921 Z-0.0326
N0635 G01 X0.0000 Y-2.5948 Z-0.0322
N0636 G01 X-0.3082 Y-2.5921 Z-0.0326
N0637 G01 X-0.6179 Y-2.5862 Z-0.0336
N0638 G01 X-0.9249 Y-2.5756 Z-0.0353
N0639 G01 X-1.2337 Y-2.5603 Z-0.0378
N0640 G01 X-1.5410 Y-2.5409 Z-0.0409
N0641 G01 X-1.8490 Y-2.5172 Z-0.0447
N0642 G01 X-2.1557 Y-2.4893 Z-0.0492
N0643 G01 X-2.4627 Y-2.4572 Z-0.0544
N0644 G01 X-2.7685 Y-2.4208 Z-0.0603
N0645 G01 X-3.0742 Y-2.3803 Z-0.0669
N0646 G01 X-3.3788 Y-2.3357 Z-0.0741
N0647 G01 X-3.6832 Y-2.2869 Z-0.0820
N0648 G01 X-3.9862 Y-2.2342 Z-0.0905
N0649 G01 X-4.2889 Y-2.1774 Z-0.0998
N0650 G01 X-4.5902 Y-2.1167 Z-0.1097
N0651 G01 X-4.8910 Y-2.0520 Z-0.1202
N0652 G01 X-5.1904 Y-1.9836 Z-0.1314
N0653 G01 X-5.4889 Y-1.9113 Z-0.1432
N0654 G01 X-5.7861 Y-1.8353 Z-0.1556
N0655 G01 X-6.0823 Y-1.7556 Z-0.1687
N0656 G01 X-6.3770 Y-1.6724 Z-0.1824
N0657 G01 X-6.6707 Y-1.5856 Z-0.1967
N0658 G01 X-6.9627 Y-1.4954 Z-0.2116
N0659 G01 X-7.2535 Y-1.4017 Z-0.2271
N0660 G01 X-7.5427 Y-1.3048 Z-0.2431
N0661 G01 X-7.8304 Y-1.2046 Z-0.2598
N0662 G01 X-8.1164 Y-1.1013 Z-0.2770
N0663 G01 X-8.4008 Y-0.9949 Z-0.2947
N0664 G01 X-8.6835 Y-0.8857 Z-0.3131
N0665 G01 X-8.9642 Y-0.7735 Z-0.3319
N0666 G01 X-9.2431 Y-0.6586 Z-0.3513
N0667 G01 X-9.5198 Y-0.5411 Z-0.3711
N0668 G01 X-9.7946 Y-0.4211 Z-0.3915
N0669 G01 X-10.0668 Y-0.2988 Z-0.4122
N0670 G01 X-10.3367 Y-0.1742 Z-0.4335
N0671 G01 X-10.6035 Y-0.0479 Z-0.4554
N0672 G01 X-10.8668 Y0.0799 Z-0.4775
N0673 G01 X-11.1102 Y0.2009 Z-0.4985
N0674 G01 X-10.8089 Y0.3859 Z-0.5105
N0675 G01 X-10.8078 Y0.8171 Z-0.5614
N0676 G01 X-10.8093 Y1.2935 Z-0.6047
N0677 G01 X-10.4963 Y1.3431 Z-0.5967
N0678 G01 X-10.1995 Y1.3887 Z-0.5889
N0679 G01 X-9.9016 Y1.4332 Z-0.5809
N0680 G01 X-9.6029 Y1.4765 Z-0.5729
N0681 G01 X-9.3034 Y1.5185 Z-0.5647
N0682 G01 X-9.0032 Y1.5594 Z-0.5566
N0683 G01 X-8.7025 Y1.5989 Z-0.5485
N0684 G01 X-8.4011 Y1.6372 Z-0.5405
N0685 G01 X-8.0993 Y1.6742 Z-0.5326
N0686 G01 X-7.7969 Y1.7099 Z-0.5248
N0687 G01 X-7.4942 Y1.7443 Z-0.5172
N0688 G01 X-7.1910 Y1.7774 Z-0.5097
N0689 G01 X-6.8875 Y1.8091 Z-0.5024
N0690 G01 X-6.5836 Y1.8395 Z-0.4953
N0691 G01 X-6.2794 Y1.8686 Z-0.4884
N0692 G01 X-5.9749 Y1.8963 Z-0.4818
N0693 G01 X-5.6701 Y1.9227 Z-0.4753
N0694 G01 X-5.3650 Y1.9477 Z-0.4692
N0695 G01 X-5.0597 Y1.9714 Z-0.4633
N0696 G01 X-4.7541 Y1.9936 Z-0.4577
N0697 G01 X-4.4484 Y2.0146 Z-0.4523
N0698 G01 X-4.1424 Y2.0341 Z-0.4473
N0699 G01 X-3.8363 Y2.0522 Z-0.4426
N0700 G01 X-3.5300 Y2.0690 Z-0.4382
N0701 G01 X-3.2236 Y2.0844 Z-0.4342
N0702 G01 X-2.9169 Y2.0983 Z-0.4305
N0703 G01 X-2.6103 Y2.1110 Z-0.4271
N0704 G01 X-2.3034 Y2.1221 Z-0.4241
N0705 G01 X-1.9965 Y2.1320 Z-0.4214
N0706 G01 X-1.6894 Y2.1403 Z-0.4192
N0707 G01 X-1.3824 Y2.1474 Z-0.4173
N0708 G01 X-1.0752 Y2.1529 Z-0.4158
N0709 G01 X-0.7682 Y2.1573 Z-0.4146
N0710 G01 X-0.4610 Y2.1598 Z-0.4139
N0711 G01 X-0.1535 Y2.1613 Z-0.4135
N0712 G01 X0.1535 
N0713 G01 X0.4610 Y2.1598 Z-0.4139
N0714 G01 X0.7682 Y2.1573 Z-0.4146
N0715 G01 X1.0752 Y2.1529 Z-0.4158
N0716 G01 X1.3824 Y2.1474 Z-0.4173
N0717 G01 X1.6894 Y2.1403 Z-0.4192
N0718 G01 X1.9965 Y2.1320 Z-0.4214
N0719 G01 X2.3034 Y2.1221 Z-0.4241
N0720 G01 X2.6103 Y2.1110 Z-0.4271
N0721 G01 X2.9169 Y2.0983 Z-0.4305
N0722 G01 X3.2236 Y2.0844 Z-0.4342
N0723 G01 X3.5300 Y2.0690 Z-0.4382
N0724 G01 X3.8363 Y2.0522 Z-0.4426
N0725 G01 X4.1424 Y2.0341 Z-0.4473
N0726 G01 X4.4484 Y2.0146 Z-0.4523
N0727 G01 X4.7541 Y1.9936 Z-0.4577
N0728 G01 X5.0597 Y1.9714 Z-0.4633
N0729 G01 X5.3650 Y1.9477 Z-0.4692
N0730 G01 X5.6701 Y1.9227 Z-0.4753
N0731 G01 X5.9749 Y1.8963 Z-0.4818
N0732 G01 X6.2794 Y1.8686 Z-0.4884
N0733 G01 X6.5836 Y1.8395 Z-0.4953
N0734 G01 X6.8875 Y1.8091 Z-0.5024
N0735 G01 X7.1910 Y1.7774 Z-0.5097
N0736 G01 X7.4942 Y1.7443 Z-0.5172
N0737 G01 X7.7969 Y1.7099 Z-0.5248
N0738 G01 X8.0993 Y1.6742 Z-0.5326
N0739 G01 X8.4011 Y1.6372 Z-0.5405
N0740 G01 X8.7025 Y1.5989 Z-0.5485
N0741 G01 X9.0032 Y1.5594 Z-0.5566
N0742 G01 X9.3034 Y1.5185 Z-0.5647
N0743 G01 X9.6029 Y1.4765 Z-0.5729
N0744 G01 X9.9016 Y1.4332 Z-0.5809
N0745 G01 X10.1995 Y1.3887 Z-0.5889
N0746 G01 X10.4963 Y1.3431 Z-0.5967
N0747 G01 X10.8093 Y1.2935 Z-0.6047
N0748 G01 X10.8078 Y0.8171 Z-0.5614
N0749 G01 X10.8089 Y0.3859 Z-0.5105
N0750 G01 X10.5645 Y0.2663 Z-0.4897
N0751 G01 X10.2949 Y0.1375 Z-0.4673
N0752 G01 X10.0224 Y0.0108 Z-0.4453
N0753 G01 X9.7480 Y-0.1135 Z-0.4237
N0754 G01 X9.4717 Y-0.2351 Z-0.4026
N0755 G01 X9.1937 Y-0.3540 Z-0.3820
N0756 G01 X8.9140 Y-0.4700 Z-0.3620
N0757 G01 X8.6327 Y-0.5832 Z-0.3425
N0758 G01 X8.3499 Y-0.6933 Z-0.3235
N0759 G01 X8.0655 Y-0.8004 Z-0.3052
N0760 G01 X7.7798 Y-0.9042 Z-0.2875
N0761 G01 X7.4925 Y-1.0049 Z-0.2705
N0762 G01 X7.2041 Y-1.1021 Z-0.2541
N0763 G01 X6.9142 Y-1.1961 Z-0.2383
N0764 G01 X6.6232 Y-1.2865 Z-0.2231
N0765 G01 X6.3308 Y-1.3735 Z-0.2085
N0766 G01 X6.0375 Y-1.4568 Z-0.1945
N0767 G01 X5.7427 Y-1.5365 Z-0.1812
N0768 G01 X5.4472 Y-1.6125 Z-0.1685
N0769 G01 X5.1504 Y-1.6848 Z-0.1565
N0770 G01 X4.8528 Y-1.7532 Z-0.1451
N0771 G01 X4.5541 Y-1.8178 Z-0.1343
N0772 G01 X4.2547 Y-1.8784 Z-0.1243
N0773 G01 X3.9542 Y-1.9351 Z-0.1149
N0774 G01 X3.6533 Y-1.9878 Z-0.1062
N0775 G01 X3.3513 Y-2.0364 Z-0.0981
N0776 G01 X3.0490 Y-2.0809 Z-0.0908
N0777 G01 X2.7456 Y-2.1213 Z-0.0841
N0778 G01 X2.4422 Y-2.1576 Z-0.0781
N0779 G01 X2.1377 Y-2.1896 Z-0.0728
N0780 G01 X1.8335 Y-2.2175 Z-0.0683
N0781 G01 X1.5281 Y-2.2411 Z-0.0644
N0782 G01 X1.2233 Y-2.2604 Z-0.0612
N0783 G01 X0.9170 Y-2.2756 Z-0.0587
N0784 G01 X0.6127 Y-2.2862 Z-0.0570
N0785 G01 X0.3056 Y-2.2921 Z-0.0560
N0786 G01 X0.0000 Y-2.2948 Z-0.0555
N0787 G01 X-0.3056 Y-2.2921 Z-0.0560
N0788 G01 X-0.6127 Y-2.2862 Z-0.0570
N0789 G01 X-0.9170 Y-2.2756 Z-0.0587
N0790 G01 X-1.2233 Y-2.2604 Z-0.0612
N0791 G01 X-1.5281 Y-2.2411 Z-0.0644
N0792 G01 X-1.8335 Y-2.2175 Z-0.0683
N0793 G01 X-2.1377 Y-2.1896 Z-0.0728
N0794 G01 X-2.4422 Y-2.1576 Z-0.0781
N0795 G01 X-2.7456 Y-2.1213 Z-0.0841
N0796 G01 X-3.0490 Y-2.0809 Z-0.0908
N0797 G01 X-3.3513 Y-2.0364 Z-0.0981
N0798 G01 X-3.6533 Y-1.9878 Z-0.1062
N0799 G01 X-3.9542 Y-1.9351 Z-0.1149
N0800 G01 X-4.2547 Y-1.8784 Z-0.1243
N0801 G01 X-4.5541 Y-1.8178 Z-0.1343
N0802 G01 X-4.8528 Y-1.7532 Z-0.1451
N0803 G01 X-5.1504 Y-1.6848 Z-0.1565
N0804 G01 X-5.4472 Y-1.6125 Z-0.1685
N0805 G01 X-5.7427 Y-1.5365 Z-0.1812
N0806 G01 X-6.0375 Y-1.4568 Z-0.1945
N0807 G01 X-6.3308 Y-1.3735 Z-0.2085
N0808 G01 X-6.6232 Y-1.2865 Z-0.2231
N0809 G01 X-6.9142 Y-1.1961 Z-0.2383
N0810 G01 X-7.2041 Y-1.1021 Z-0.2541
N0811 G01 X-7.4925 Y-1.0049 Z-0.2705
N0812 G01 X-7.7798 Y-0.9042 Z-0.2875
N0813 G01 X-8.0655 Y-0.8004 Z-0.3052
N0814 G01 X-8.3499 Y-0.6933 Z-0.3235
N0815 G01 X-8.6327 Y-0.5832 Z-0.3425
N0816 G01 X-8.9140 Y-0.4700 Z-0.3620
N0817 G01 X-9.1937 Y-0.3540 Z-0.3820
N0818 G01 X-9.4717 Y-0.2351 Z-0.4026
N0819 G01 X-9.7480 Y-0.1135 Z-0.4237
N0820 G01 X-10.0224 Y0.0108 Z-0.4453
N0821 G01 X-10.2949 Y0.1375 Z-0.4673
N0822 G01 X-10.5645 Y0.2663 Z-0.4897
N0823 G01 X-10.8089 Y0.3859 Z-0.5105
N0824 G01 X-10.5081 Y0.5725 Z-0.5244
N0825 G01 X-10.5082 Y1.0375 Z-0.5746
N0826 G01 X-10.1798 Y1.0883 Z-0.5685
N0827 G01 X-9.8808 Y1.1330 Z-0.5624
N0828 G01 X-9.5807 Y1.1766 Z-0.5561
N0829 G01 X-9.2803 Y1.2189 Z-0.5495
N0830 G01 X-8.9793 Y1.2599 Z-0.5428
N0831 G01 X-8.6780 Y1.2996 Z-0.5361
N0832 G01 X-8.3763 Y1.3380 Z-0.5293
N0833 G01 X-8.0743 Y1.3751 Z-0.5226
N0834 G01 X-7.7719 Y1.4108 Z-0.5159
N0835 G01 X-7.4693 Y1.4452 Z-0.5094
N0836 G01 X-7.1663 Y1.4783 Z-0.5029
N0837 G01 X-6.8632 Y1.5101 Z-0.4966
N0838 G01 X-6.5597 Y1.5404 Z-0.4905
N0839 G01 X-6.2561 Y1.5695 Z-0.4846
N0840 G01 X-5.9522 Y1.5972 Z-0.4788
N0841 G01 X-5.6482 Y1.6235 Z-0.4733
N0842 G01 X-5.3438 Y1.6484 Z-0.4680
N0843 G01 X-5.0394 Y1.6720 Z-0.4629
N0844 G01 X-4.7348 Y1.6942 Z-0.4581
N0845 G01 X-4.4301 Y1.7151 Z-0.4535
N0846 G01 X-4.1251 Y1.7346 Z-0.4492
N0847 G01 X-3.8201 Y1.7527 Z-0.4451
N0848 G01 X-3.5149 Y1.7693 Z-0.4414
N0849 G01 X-3.2097 Y1.7847 Z-0.4379
N0850 G01 X-2.9042 Y1.7986 Z-0.4348
N0851 G01 X-2.5988 Y1.8112 Z-0.4319
N0852 G01 X-2.2932 Y1.8223 Z-0.4293
N0853 G01 X-1.9877 Y1.8321 Z-0.4271
N0854 G01 X-1.6819 Y1.8404 Z-0.4251
N0855 G01 X-1.3763 Y1.8475 Z-0.4235
N0856 G01 X-1.0703 Y1.8530 Z-0.4222
N0857 G01 X-0.7647 Y1.8574 Z-0.4212
N0858 G01 X-0.4589 Y1.8598 Z-0.4206
N0859 G01 X-0.1528 Y1.8613 Z-0.4202
N0860 G01 X0.1528 
N0861 G01 X0.4589 Y1.8598 Z-0.4206
N0862 G01 X0.7647 Y1.8574 Z-0.4212
N0863 G01 X1.0703 Y1.8530 Z-0.4222
N0864 G01 X1.3763 Y1.8475 Z-0.4235
N0865 G01 X1.6819 Y1.8404 Z-0.4251
N0866 G01 X1.9877 Y1.8321 Z-0.4271
N0867 G01 X2.2932 Y1.8223 Z-0.4293
N0868 G01 X2.5988 Y1.8112 Z-0.4319
N0869 G01 X2.9042 Y1.7986 Z-0.4348
N0870 G01 X3.2097 Y1.7847 Z-0.4379
N0871 G01 X3.5149 Y1.7693 Z-0.4414
N0872 G01 X3.8201 Y1.7527 Z-0.4451
N0873 G01 X4.1251 Y1.7346 Z-0.4492
N0874 G01 X4.4301 Y1.7151 Z-0.4535
N0875 G01 X4.7348 Y1.6942 Z-0.4581
N0876 G01 X5.0394 Y1.6720 Z-0.4629
N0877 G01 X5.3438 Y1.6484 Z-0.4680
N0878 G01 X5.6482 Y1.6235 Z-0.4733
N0879 G01 X5.9522 Y1.5972 Z-0.4788
N0880 G01 X6.2561 Y1.5695 Z-0.4846
N0881 G01 X6.5597 Y1.5404 Z-0.4905
N0882 G01 X6.8632 Y1.5101 Z-0.4966
N0883 G01 X7.1663 Y1.4783 Z-0.5029
N0884 G01 X7.4693 Y1.4452 Z-0.5094
N0885 G01 X7.7719 Y1.4108 Z-0.5159
N0886 G01 X8.0743 Y1.3751 Z-0.5226
N0887 G01 X8.3763 Y1.3380 Z-0.5293
N0888 G01 X8.6780 Y1.2996 Z-0.5361
N0889 G01 X8.9793 Y1.2599 Z-0.5428
N0890 G01 X9.2803 Y1.2189 Z-0.5495
N0891 G01 X9.5807 Y1.1766 Z-0.5561
N0892 G01 X9.8808 Y1.1330 Z-0.5624
N0893 G01 X10.1798 Y1.0883 Z-0.5685
N0894 G01 X10.5082 Y1.0375 Z-0.5746
N0895 G01 X10.5081 Y0.5725 Z-0.5244
N0896 G01 X10.2615 Y0.4537 Z-0.5035
N0897 G01 X9.9888 Y0.3257 Z-0.4809
N0898 G01 X9.7137 Y0.1999 Z-0.4587
N0899 G01 X9.4370 Y0.0771 Z-0.4373
N0900 G01 X9.1588 Y-0.0430 Z-0.4164
N0901 G01 X8.8791 Y-0.1601 Z-0.3961
N0902 G01 X8.5979 Y-0.2742 Z-0.3764
N0903 G01 X8.3154 Y-0.3851 Z-0.3572
N0904 G01 X8.0314 Y-0.4930 Z-0.3386
N0905 G01 X7.7463 Y-0.5975 Z-0.3206
N0906 G01 X7.4597 Y-0.6988 Z-0.3031
N0907 G01 X7.1720 Y-0.7967 Z-0.2862
N0908 G01 X6.8829 Y-0.8911 Z-0.2700
N0909 G01 X6.5929 Y-0.9821 Z-0.2544
N0910 G01 X6.3015 Y-1.0695 Z-0.2394
N0911 G01 X6.0092 Y-1.1533 Z-0.2250
N0912 G01 X5.7156 Y-1.2333 Z-0.2113
N0913 G01 X5.4212 Y-1.3097 Z-0.1983
N0914 G01 X5.1256 Y-1.3823 Z-0.1859
N0915 G01 X4.8293 Y-1.4511 Z-0.1744
N0916 G01 X4.5318 Y-1.5159 Z-0.1634
N0917 G01 X4.2338 Y-1.5768 Z-0.1532
N0918 G01 X3.9347 Y-1.6337 Z-0.1437
N0919 G01 X3.6351 Y-1.6866 Z-0.1349
N0920 G01 X3.3345 Y-1.7354 Z-0.1267
N0921 G01 X3.0337 Y-1.7801 Z-0.1192
N0922 G01 X2.7318 Y-1.8207 Z-0.1124
N0923 G01 X2.4299 Y-1.8571 Z-0.1063
N0924 G01 X2.1269 Y-1.8892 Z-0.1010
N0925 G01 X1.8242 Y-1.9172 Z-0.0963
N0926 G01 X1.5203 Y-1.9409 Z-0.0923
N0927 G01 X1.2171 Y-1.9603 Z-0.0891
N0928 G01 X0.9123 Y-1.9756 Z-0.0865
N0929 G01 X0.6096 Y-1.9862 Z-0.0848
N0930 G01 X0.3040 Y-1.9920 Z-0.0838
N0931 G01 X0.0000 Y-1.9948 Z-0.0833
N0932 G01 X-0.3040 Y-1.9920 Z-0.0838
N0933 G01 X-0.6096 Y-1.9862 Z-0.0848
N0934 G01 X-0.9123 Y-1.9756 Z-0.0865
N0935 G01 X-1.2171 Y-1.9603 Z-0.0891
N0936 G01 X-1.5203 Y-1.9409 Z-0.0923
N0937 G01 X-1.8242 Y-1.9172 Z-0.0963
N0938 G01 X-2.1269 Y-1.8892 Z-0.1010
N0939 G01 X-2.4299 Y-1.8571 Z-0.1063
N0940 G01 X-2.7318 Y-1.8207 Z-0.1124
N0941 G01 X-3.0337 Y-1.7801 Z-0.1192
N0942 G01 X-3.3345 Y-1.7354 Z-0.1267
N0943 G01 X-3.6351 Y-1.6866 Z-0.1349
N0944 G01 X-3.9347 Y-1.6337 Z-0.1437
N0945 G01 X-4.2338 Y-1.5768 Z-0.1532
N0946 G01 X-4.5318 Y-1.5159 Z-0.1634
N0947 G01 X-4.8293 Y-1.4511 Z-0.1744
N0948 G01 X-5.1256 Y-1.3823 Z-0.1859
N0949 G01 X-5.4212 Y-1.3097 Z-0.1983
N0950 G01 X-5.7156 Y-1.2333 Z-0.2113
N0951 G01 X-6.0092 Y-1.1533 Z-0.2250
N0952 G01 X-6.3015 Y-1.0695 Z-0.2394
N0953 G01 X-6.5929 Y-0.9821 Z-0.2544
N0954 G01 X-6.8829 Y-0.8911 Z-0.2700
N0955 G01 X-7.1720 Y-0.7967 Z-0.2862
N0956 G01 X-7.4597 Y-0.6988 Z-0.3031
N0957 G01 X-7.7463 Y-0.5975 Z-0.3206
N0958 G01 X-8.0314 Y-0.4930 Z-0.3386
N0959 G01 X-8.3154 Y-0.3851 Z-0.3572
N0960 G01 X-8.5979 Y-0.2742 Z-0.3764
N0961 G01 X-8.8791 Y-0.1601 Z-0.3961
N0962 G01 X-9.1588 Y-0.0430 Z-0.4164
N0963 G01 X-9.4370 Y0.0771 Z-0.4373
N0964 G01 X-9.7137 Y0.1999 Z-0.4587
N0965 G01 X-9.9888 Y0.3257 Z-0.4809
N0966 G01 X-10.2615 Y0.4537 Z-0.5035
N0967 G01 X-10.5081 Y0.5725 Z-0.5244
N0968 G01 X-10.2393 Y0.7757 Z-0.5403
N0969 G01 X-9.9618 Y0.8177 Z-0.5368
N0970 G01 X-9.6634 Y0.8616 Z-0.5326
N0971 G01 X-9.3643 Y0.9043 Z-0.5281
N0972 G01 X-9.0649 Y0.9456 Z-0.5233
N0973 G01 X-8.7651 Y0.9857 Z-0.5182
N0974 G01 X-8.4651 Y1.0244 Z-0.5129
N0975 G01 X-8.1649 Y1.0619 Z-0.5075
N0976 G01 X-7.8644 Y1.0979 Z-0.5020
N0977 G01 X-7.5636 Y1.1327 Z-0.4966
N0978 G01 X-7.2627 Y1.1662 Z-0.4911
N0979 G01 X-6.9615 Y1.1983 Z-0.4857
N0980 G01 X-6.6602 Y1.2290 Z-0.4804
N0981 G01 X-6.3587 Y1.2585 Z-0.4753
N0982 G01 X-6.0570 Y1.2865 Z-0.4702
N0983 G01 X-5.7551 Y1.3133 Z-0.4654
N0984 G01 X-5.4531 Y1.3386 Z-0.4607
N0985 G01 X-5.1509 Y1.3627 Z-0.4562
N0986 G01 X-4.8487 Y1.3853 Z-0.4518
N0987 G01 X-4.5462 Y1.4066 Z-0.4477
N0988 G01 X-4.2437 Y1.4265 Z-0.4439
N0989 G01 X-3.9410 Y1.4451 Z-0.4402
N0990 G01 X-3.6383 Y1.4623 Z-0.4368
N0991 G01 X-3.3353 Y1.4782 Z-0.4337
N0992 G01 X-3.0325 Y1.4926 Z-0.4308
N0993 G01 X-2.7294 Y1.5057 Z-0.4281
N0994 G01 X-2.4264 Y1.5174 Z-0.4258
N0995 G01 X-2.1231 Y1.5278 Z-0.4236
N0996 G01 X-1.8200 Y1.5367 Z-0.4218
N0997 G01 X-1.5166 Y1.5444 Z-0.4202
N0998 G01 X-1.2135 Y1.5505 Z-0.4190
N0999 G01 X-0.9099 Y1.5555 Z-0.4180
N1000 G01 X-0.6071 Y1.5588 Z-0.4173
N1001 G01 X-0.3032 Y1.5607 Z-0.4169
N1002 G01 X0.0000 Y1.5616 Z-0.4167
N1003 G01 X0.3032 Y1.5607 Z-0.4169
N1004 G01 X0.6071 Y1.5588 Z-0.4173
N1005 G01 X0.9099 Y1.5555 Z-0.4180
N1006 G01 X1.2135 Y1.5505 Z-0.4190
N1007 G01 X1.5166 Y1.5444 Z-0.4202
N1008 G01 X1.8200 Y1.5367 Z-0.4218
N1009 G01 X2.1231 Y1.5278 Z-0.4236
N1010 G01 X2.4264 Y1.5174 Z-0.4258
N1011 G01 X2.7294 Y1.5057 Z-0.4281
N1012 G01 X3.0325 Y1.4926 Z-0.4308
N1013 G01 X3.3353 Y1.4782 Z-0.4337
N1014 G01 X3.6383 Y1.4623 Z-0.4368
N1015 G01 X3.9410 Y1.4451 Z-0.4402
N1016 G01 X4.2437 Y1.4265 Z-0.4439
N1017 G01 X4.5462 Y1.4066 Z-0.4477
N1018 G01 X4.8487 Y1.3853 Z-0.4518
N1019 G01 X5.1509 Y1.3627 Z-0.4562
N1020 G01 X5.4531 Y1.3386 Z-0.4607
N1021 G01 X5.7551 Y1.3133 Z-0.4654
N1022 G01 X6.0570 Y1.2865 Z-0.4702
N1023 G01 X6.3587 Y1.2585 Z-0.4753
N1024 G01 X6.6602 Y1.2290 Z-0.4804
N1025 G01 X6.9615 Y1.1983 Z-0.4857
N1026 G01 X7.2627 Y1.1662 Z-0.4911
N1027 G01 X7.5636 Y1.1327 Z-0.4966
N1028 G01 X7.8644 Y1.0979 Z-0.5020
N1029 G01 X8.1649 Y1.0619 Z-0.5075
N1030 G01 X8.4651 Y1.0244 Z-0.5129
N1031 G01 X8.7651 Y0.9857 Z-0.5182
N1032 G01 X9.0649 Y0.9456 Z-0.5233
N1033 G01 X9.3643 Y0.9043 Z-0.5281
N1034 G01 X9.6634 Y0.8616 Z-0.5326
N1035 G01 X9.9618 Y0.8177 Z-0.5368
N1036 G01 X10.2393 Y0.7757 Z-0.5403
N1037 G01 X9.9789 Y0.6520 Z-0.5193
N1038 G01 X9.7034 Y0.5247 Z-0.4973
N1039 G01 X9.4266 Y0.4003 Z-0.4756
N1040 G01 X9.1481 Y0.2787 Z-0.4543
N1041 G01 X8.8684 Y0.1603 Z-0.4335
N1042 G01 X8.5872 Y0.0449 Z-0.4132
N1043 G01 X8.3049 Y-0.0674 Z-0.3935
N1044 G01 X8.0210 Y-0.1764 Z-0.3746
N1045 G01 X7.7360 Y-0.2822 Z-0.3562
N1046 G01 X7.4497 Y-0.3845 Z-0.3386
N1047 G01 X7.1622 Y-0.4835 Z-0.3215
N1048 G01 X6.8735 Y-0.5790 Z-0.3051
N1049 G01 X6.5837 Y-0.6710 Z-0.2892
N1050 G01 X6.2927 Y-0.7593 Z-0.2741
N1051 G01 X6.0006 Y-0.8440 Z-0.2595
N1052 G01 X5.7075 Y-0.9249 Z-0.2456
N1053 G01 X5.4134 Y-1.0022 Z-0.2324
N1054 G01 X5.1183 Y-1.0755 Z-0.2198
N1055 G01 X4.8223 Y-1.1451 Z-0.2079
N1056 G01 X4.5254 Y-1.2105 Z-0.1966
N1057 G01 X4.2277 Y-1.2722 Z-0.1861
N1058 G01 X3.9291 Y-1.3296 Z-0.1763
N1059 G01 X3.6299 Y-1.3832 Z-0.1671
N1060 G01 X3.3298 Y-1.4325 Z-0.1587
N1061 G01 X3.0293 Y-1.4778 Z-0.1510
N1062 G01 X2.7279 Y-1.5187 Z-0.1440
N1063 G01 X2.4264 Y-1.5556 Z-0.1377
N1064 G01 X2.1239 Y-1.5880 Z-0.1322
N1065 G01 X1.8216 Y-1.6163 Z-0.1273
N1066 G01 X1.5181 Y-1.6402 Z-0.1232
N1067 G01 X1.2154 Y-1.6599 Z-0.1199
N1068 G01 X0.9110 Y-1.6753 Z-0.1173
N1069 G01 X0.6088 Y-1.6861 Z-0.1155
N1070 G01 X0.3036 Y-1.6920 Z-0.1144
N1071 G01 X0.0000 Y-1.6948 Z-0.1140
N1072 G01 X-0.3036 Y-1.6920 Z-0.1144
N1073 G01 X-0.6088 Y-1.6861 Z-0.1155
N1074 G01 X-0.9110 Y-1.6753 Z-0.1173
N1075 G01 X-1.2154 Y-1.6599 Z-0.1199
N1076 G01 X-1.5181 Y-1.6402 Z-0.1232
N1077 G01 X-1.8216 Y-1.6163 Z-0.1273
N1078 G01 X-2.1239 Y-1.5880 Z-0.1322
N1079 G01 X-2.4264 Y-1.5556 Z-0.1377
N1080 G01 X-2.7279 Y-1.5187 Z-0.1440
N1081 G01 X-3.0293 Y-1.4778 Z-0.1510
N1082 G01 X-3.3298 Y-1.4325 Z-0.1587
N1083 G01 X-3.6299 Y-1.3832 Z-0.1671
N1084 G01 X-3.9291 Y-1.3296 Z-0.1763
N1085 G01 X-4.2277 Y-1.2722 Z-0.1861
N1086 G01 X-4.5254 Y-1.2105 Z-0.1966
N1087 G01 X-4.8223 Y-1.1451 Z-0.2079
N1088 G01 X-5.1183 Y-1.0755 Z-0.2198
N1089 G01 X-5.4134 Y-1.0022 Z-0.2324
N1090 G01 X-5.7075 Y-0.9249 Z-0.2456
N1091 G01 X-6.0006 Y-0.8440 Z-0.2595
N1092 G01 X-6.2927 Y-0.7593 Z-0.2741
N1093 G01 X-6.5837 Y-0.6710 Z-0.2892
N1094 G01 X-6.8735 Y-0.5790 Z-0.3051
N1095 G01 X-7.1622 Y-0.4835 Z-0.3215
N1096 G01 X-7.4497 Y-0.3845 Z-0.3386
N1097 G01 X-7.7360 Y-0.2822 Z-0.3562
N1098 G01 X-8.0210 Y-0.1764 Z-0.3746
N1099 G01 X-8.3049 Y-0.0674 Z-0.3935
N1100 G01 X-8.5872 Y0.0449 Z-0.4132
N1101 G01 X-8.8684 Y0.1603 Z-0.4335
N1102 G01 X-9.1481 Y0.2787 Z-0.4543
N1103 G01 X-9.4266 Y0.4003 Z-0.4756
N1104 G01 X-9.7034 Y0.5247 Z-0.4973
N1105 G01 X-9.9789 Y0.6520 Z-0.5193
N1106 G01 X-10.2393 Y0.7757 Z-0.5403
N1107 G01 X-9.1929 Y0.6252 Z-0.4955
N1108 G01 X-8.8790 Y0.6680 Z-0.4921
N1109 G01 X-8.5749 Y0.7079 Z-0.4884
N1110 G01 X-8.2705 Y0.7465 Z-0.4845
N1111 G01 X-7.9659 Y0.7838 Z-0.4805
N1112 G01 X-7.6611 Y0.8196 Z-0.4763
N1113 G01 X-7.3562 Y0.8541 Z-0.4720
N1114 G01 X-7.0510 Y0.8872 Z-0.4676
N1115 G01 X-6.7457 Y0.9189 Z-0.4633
N1116 G01 X-6.4401 Y0.9493 Z-0.4589
N1117 G01 X-6.1345 Y0.9782 Z-0.4546
N1118 G01 X-5.8287 Y1.0057 Z-0.4504
N1119 G01 X-5.5228 Y1.0319 Z-0.4463
N1120 G01 X-5.2166 Y1.0566 Z-0.4424
N1121 G01 X-4.9105 Y1.0800 Z-0.4386
N1122 G01 X-4.6041 Y1.1019 Z-0.4349
N1123 G01 X-4.2977 Y1.1225 Z-0.4315
N1124 G01 X-3.9911 Y1.1416 Z-0.4282
N1125 G01 X-3.6845 Y1.1593 Z-0.4251
N1126 G01 X-3.3777 Y1.1757 Z-0.4223
N1127 G01 X-3.0710 Y1.1905 Z-0.4196
N1128 G01 X-2.7640 Y1.2040 Z-0.4172
N1129 G01 X-2.4572 Y1.2161 Z-0.4151
N1130 G01 X-2.1500 Y1.2268 Z-0.4131
N1131 G01 X-1.8431 Y1.2360 Z-0.4115
N1132 G01 X-1.5358 Y1.2438 Z-0.4100
N1133 G01 X-1.2289 Y1.2502 Z-0.4089
N1134 G01 X-0.9214 Y1.2553 Z-0.4079
N1135 G01 X-0.6148 Y1.2587 Z-0.4073
N1136 G01 X-0.3071 Y1.2607 Z-0.4069
N1137 G01 X0.0000 Y1.2616 Z-0.4068
N1138 G01 X0.3071 Y1.2607 Z-0.4069
N1139 G01 X0.6148 Y1.2587 Z-0.4073
N1140 G01 X0.9214 Y1.2553 Z-0.4079
N1141 G01 X1.2289 Y1.2502 Z-0.4089
N1142 G01 X1.5358 Y1.2438 Z-0.4100
N1143 G01 X1.8431 Y1.2360 Z-0.4115
N1144 G01 X2.1500 Y1.2268 Z-0.4131
N1145 G01 X2.4572 Y1.2161 Z-0.4151
N1146 G01 X2.7640 Y1.2040 Z-0.4172
N1147 G01 X3.0710 Y1.1905 Z-0.4196
N1148 G01 X3.3777 Y1.1757 Z-0.4223
N1149 G01 X3.6845 Y1.1593 Z-0.4251
N1150 G01 X3.9911 Y1.1416 Z-0.4282
N1151 G01 X4.2977 Y1.1225 Z-0.4315
N1152 G01 X4.6041 Y1.1019 Z-0.4349
N1153 G01 X4.9105 Y1.0800 Z-0.4386
N1154 G01 X5.2166 Y1.0566 Z-0.4424
N1155 G01 X5.5228 Y1.0319 Z-0.4463
N1156 G01 X5.8287 Y1.0057 Z-0.4504
N1157 G01 X6.1345 Y0.9782 Z-0.4546
N1158 G01 X6.4401 Y0.9493 Z-0.4589
N1159 G01 X6.7457 Y0.9189 Z-0.4633
N1160 G01 X7.0510 Y0.8872 Z-0.4676
N1161 G01 X7.3562 Y0.8541 Z-0.4720
N1162 G01 X7.6611 Y0.8196 Z-0.4763
N1163 G01 X7.9659 Y0.7838 Z-0.4805
N1164 G01 X8.2705 Y0.7465 Z-0.4845
N1165 G01 X8.5749 Y0.7079 Z-0.4884
N1166 G01 X8.8790 Y0.6680 Z-0.4921
N1167 G01 X9.1929 Y0.6252 Z-0.4955
N1168 G01 X8.9025 Y0.5000 Z-0.4744
N1169 G01 X8.6205 Y0.3823 Z-0.4542
N1170 G01 X8.3370 Y0.2677 Z-0.4344
N1171 G01 X8.0523 Y0.1565 Z-0.4151
N1172 G01 X7.7662 Y0.0485 Z-0.3962
N1173 G01 X7.4790 Y-0.0559 Z-0.3780
N1174 G01 X7.1905 Y-0.1570 Z-0.3602
N1175 G01 X6.9008 Y-0.2544 Z-0.3432
N1176 G01 X6.6099 Y-0.3484 Z-0.3268
N1177 G01 X6.3180 Y-0.4385 Z-0.3112
N1178 G01 X6.0248 Y-0.5251 Z-0.2963
N1179 G01 X5.7307 Y-0.6078 Z-0.2821
N1180 G01 X5.4354 Y-0.6867 Z-0.2686
N1181 G01 X5.1393 Y-0.7616 Z-0.2557
N1182 G01 X4.8421 Y-0.8327 Z-0.2435
N1183 G01 X4.5442 Y-0.8996 Z-0.2321
N1184 G01 X4.2452 Y-0.9626 Z-0.2213
N1185 G01 X3.9456 Y-1.0213 Z-0.2112
N1186 G01 X3.6450 Y-1.0761 Z-0.2019
N1187 G01 X3.3439 Y-1.1264 Z-0.1932
N1188 G01 X3.0420 Y-1.1728 Z-0.1853
N1189 G01 X2.7396 Y-1.2146 Z-0.1782
N1190 G01 X2.4366 Y-1.2524 Z-0.1718
N1191 G01 X2.1330 Y-1.2855 Z-0.1661
N1192 G01 X1.8293 Y-1.3146 Z-0.1611
N1193 G01 X1.5247 Y-1.3389 Z-0.1570
N1194 G01 X1.2206 Y-1.3591 Z-0.1535
N1195 G01 X0.9149 Y-1.3748 Z-0.1508
N1196 G01 X0.6113 Y-1.3860 Z-0.1490
N1197 G01 X0.3050 Y-1.3919 Z-0.1479
N1198 G01 X0.0000 Y-1.3948 Z-0.1475
N1199 G01 X-0.3050 Y-1.3919 Z-0.1479
N1200 G01 X-0.6113 Y-1.3860 Z-0.1490
N1201 G01 X-0.9149 Y-1.3748 Z-0.1508
N1202 G01 X-1.2206 Y-1.3591 Z-0.1535
N1203 G01 X-1.5247 Y-1.3389 Z-0.1570
N1204 G01 X-1.8293 Y-1.3146 Z-0.1611
N1205 G01 X-2.1330 Y-1.2855 Z-0.1661
N1206 G01 X-2.4366 Y-1.2524 Z-0.1718
N1207 G01 X-2.7396 Y-1.2146 Z-0.1782
N1208 G01 X-3.0420 Y-1.1728 Z-0.1853
N1209 G01 X-3.3439 Y-1.1264 Z-0.1932
N1210 G01 X-3.6450 Y-1.0761 Z-0.2019
N1211 G01 X-3.9456 Y-1.0213 Z-0.2112
N1212 G01 X-4.2452 Y-0.9626 Z-0.2213
N1213 G01 X-4.5442 Y-0.8996 Z-0.2321
N1214 G01 X-4.8421 Y-0.8327 Z-0.2435
N1215 G01 X-5.1393 Y-0.7616 Z-0.2557
N1216 G01 X-5.4354 Y-0.6867 Z-0.2686
N1217 G01 X-5.7307 Y-0.6078 Z-0.2821
N1218 G01 X-6.0248 Y-0.5251 Z-0.2963
N1219 G01 X-6.3180 Y-0.4385 Z-0.3112
N1220 G01 X-6.6099 Y-0.3484 Z-0.3268
N1221 G01 X-6.9008 Y-0.2544 Z-0.3432
N1222 G01 X-7.1905 Y-0.1570 Z-0.3602
N1223 G01 X-7.4790 Y-0.0559 Z-0.3780
N1224 G01 X-7.7662 Y0.0485 Z-0.3962
N1225 G01 X-8.0523 Y0.1565 Z-0.4151
N1226 G01 X-8.3370 Y0.2677 Z-0.4344
N1227 G01 X-8.6205 Y0.3823 Z-0.4542
N1228 G01 X-8.9025 Y0.5000 Z-0.4744
N1229 G01 X-9.1929 Y0.6252 Z-0.4955
N1230 G01 X-8.0383 Y0.4728 Z-0.4512
N1231 G01 X-7.7612 Y0.5059 Z-0.4486
N1232 G01 X-7.4589 Y0.5408 Z-0.4456
N1233 G01 X-7.1558 Y0.5742 Z-0.4425
N1234 G01 X-6.8525 Y0.6064 Z-0.4393
N1235 G01 X-6.5490 Y0.6371 Z-0.4361
N1236 G01 X-6.2454 Y0.6665 Z-0.4328
N1237 G01 X-5.9416 Y0.6945 Z-0.4295
N1238 G01 X-5.6377 Y0.7212 Z-0.4263
N1239 G01 X-5.3337 Y0.7464 Z-0.4230
N1240 G01 X-5.0296 Y0.7702 Z-0.4199
N1241 G01 X-4.7253 Y0.7926 Z-0.4169
N1242 G01 X-4.4210 Y0.8137 Z-0.4140
N1243 G01 X-4.1165 Y0.8334 Z-0.4112
N1244 G01 X-3.8119 Y0.8517 Z-0.4085
N1245 G01 X-3.5073 Y0.8685 Z-0.4061
N1246 G01 X-3.2026 Y0.8840 Z-0.4037
N1247 G01 X-2.8978 Y0.8980 Z-0.4016
N1248 G01 X-2.5929 Y0.9107 Z-0.3997
N1249 G01 X-2.2880 Y0.9219 Z-0.3979
N1250 G01 X-1.9831 Y0.9319 Z-0.3964
N1251 G01 X-1.6780 Y0.9402 Z-0.3951
N1252 G01 X-1.3730 Y0.9474 Z-0.3939
N1253 G01 X-1.0678 Y0.9529 Z-0.3931
N1254 G01 X-0.7629 Y0.9573 Z-0.3924
N1255 G01 X-0.4579 Y0.9598 Z-0.3920
N1256 G01 X-0.1524 Y0.9613 Z-0.3917
N1257 G01 X0.1524 
N1258 G01 X0.4579 Y0.9598 Z-0.3920
N1259 G01 X0.7629 Y0.9573 Z-0.3924
N1260 G01 X1.0678 Y0.9529 Z-0.3931
N1261 G01 X1.3730 Y0.9474 Z-0.3939
N1262 G01 X1.6780 Y0.9402 Z-0.3951
N1263 G01 X1.9831 Y0.9319 Z-0.3964
N1264 G01 X2.2880 Y0.9219 Z-0.3979
N1265 G01 X2.5929 Y0.9107 Z-0.3997
N1266 G01 X2.8978 Y0.8980 Z-0.4016
N1267 G01 X3.2026 Y0.8840 Z-0.4037
N1268 G01 X3.5073 Y0.8685 Z-0.4061
N1269 G01 X3.8119 Y0.8517 Z-0.4085
N1270 G01 X4.1165 Y0.8334 Z-0.4112
N1271 G01 X4.4210 Y0.8137 Z-0.4140
N1272 G01 X4.7253 Y0.7926 Z-0.4169
N1273 G01 X5.0296 Y0.7702 Z-0.4199
N1274 G01 X5.3337 Y0.7464 Z-0.4230
N1275 G01 X5.6377 Y0.7212 Z-0.4263
N1276 G01 X5.9416 Y0.6945 Z-0.4295
N1277 G01 X6.2454 Y0.6665 Z-0.4328
N1278 G01 X6.5490 Y0.6371 Z-0.4361
N1279 G01 X6.8525 Y0.6064 Z-0.4393
N1280 G01 X7.1558 Y0.5742 Z-0.4425
N1281 G01 X7.4589 Y0.5408 Z-0.4456
N1282 G01 X7.7612 Y0.5059 Z-0.4486
N1283 G01 X8.0383 Y0.4728 Z-0.4512
N1284 G01 X7.7756 Y0.3723 Z-0.4343
N1285 G01 X7.4888 Y0.2664 Z-0.4163
N1286 G01 X7.2001 Y0.1638 Z-0.3988
N1287 G01 X6.9103 Y0.0648 Z-0.3817
N1288 G01 X6.6191 Y-0.0306 Z-0.3652
N1289 G01 X6.3269 Y-0.1223 Z-0.3493
N1290 G01 X6.0335 Y-0.2102 Z-0.3340
N1291 G01 X5.7391 Y-0.2942 Z-0.3194
N1292 G01 X5.4435 Y-0.3744 Z-0.3054
N1293 G01 X5.1471 Y-0.4506 Z-0.2921
N1294 G01 X4.8495 Y-0.5228 Z-0.2795
N1295 G01 X4.5513 Y-0.5909 Z-0.2677
N1296 G01 X4.2518 Y-0.6550 Z-0.2567
N1297 G01 X3.9519 Y-0.7147 Z-0.2464
N1298 G01 X3.6509 Y-0.7704 Z-0.2369
N1299 G01 X3.3494 Y-0.8217 Z-0.2281
N1300 G01 X3.0470 Y-0.8688 Z-0.2201
N1301 G01 X2.7442 Y-0.9114 Z-0.2128
N1302 G01 X2.4407 Y-0.9498 Z-0.2062
N1303 G01 X2.1367 Y-0.9835 Z-0.2005
N1304 G01 X1.8324 Y-1.0131 Z-0.1954
N1305 G01 X1.5274 Y-1.0379 Z-0.1912
N1306 G01 X1.2227 Y-1.0585 Z-0.1877
N1307 G01 X0.9165 Y-1.0744 Z-0.1850
N1308 G01 X0.6124 Y-1.0858 Z-0.1830
N1309 G01 X0.3055 Y-1.0919 Z-0.1820
N1310 G01 X0.0000 Y-1.0948 Z-0.1815
N1311 G01 X-0.3055 Y-1.0919 Z-0.1820
N1312 G01 X-0.6124 Y-1.0858 Z-0.1830
N1313 G01 X-0.9165 Y-1.0744 Z-0.1850
N1314 G01 X-1.2227 Y-1.0585 Z-0.1877
N1315 G01 X-1.5274 Y-1.0379 Z-0.1912
N1316 G01 X-1.8324 Y-1.0131 Z-0.1954
N1317 G01 X-2.1367 Y-0.9835 Z-0.2005
N1318 G01 X-2.4407 Y-0.9498 Z-0.2062
N1319 G01 X-2.7442 Y-0.9114 Z-0.2128
N1320 G01 X-3.0470 Y-0.8688 Z-0.2201
N1321 G01 X-3.3494 Y-0.8217 Z-0.2281
N1322 G01 X-3.6509 Y-0.7704 Z-0.2369
N1323 G01 X-3.9519 Y-0.7147 Z-0.2464
N1324 G01 X-4.2518 Y-0.6550 Z-0.2567
N1325 G01 X-4.5513 Y-0.5909 Z-0.2677
N1326 G01 X-4.8495 Y-0.5228 Z-0.2795
N1327 G01 X-5.1471 Y-0.4506 Z-0.2921
N1328 G01 X-5.4435 Y-0.3744 Z-0.3054
N1329 G01 X-5.7391 Y-0.2942 Z-0.3194
N1330 G01 X-6.0335 Y-0.2102 Z-0.3340
N1331 G01 X-6.3269 Y-0.1223 Z-0.3493
N1332 G01 X-6.6191 Y-0.0306 Z-0.3652
N1333 G01 X-6.9103 Y0.0648 Z-0.3817
N1334 G01 X-7.2001 Y0.1638 Z-0.3988
N1335 G01 X-7.4888 Y0.2664 Z-0.4163
N1336 G01 X-7.7756 Y0.3723 Z-0.4343
N1337 G01 X-8.0383 Y0.4728 Z-0.4512
N1338 G01 X-6.7214 Y0.3183 Z-0.4072
N1339 G01 X-6.3903 Y0.3513 Z-0.4047
N1340 G01 X-6.0874 Y0.3800 Z-0.4024
N1341 G01 X-5.7838 Y0.4074 Z-0.4000
N1342 G01 X-5.4802 Y0.4334 Z-0.3976
N1343 G01 X-5.1764 Y0.4580 Z-0.3952
N1344 G01 X-4.8725 Y0.4812 Z-0.3929
N1345 G01 X-4.5684 Y0.5030 Z-0.3906
N1346 G01 X-4.2644 Y0.5234 Z-0.3884
N1347 G01 X-3.9601 Y0.5424 Z-0.3862
N1348 G01 X-3.6559 Y0.5600 Z-0.3842
N1349 G01 X-3.3514 Y0.5762 Z-0.3823
N1350 G01 X-3.0471 Y0.5910 Z-0.3805
N1351 G01 X-2.7425 Y0.6044 Z-0.3788
N1352 G01 X-2.4380 Y0.6164 Z-0.3773
N1353 G01 X-2.1332 Y0.6270 Z-0.3760
N1354 G01 X-1.8287 Y0.6362 Z-0.3748
N1355 G01 X-1.5238 Y0.6439 Z-0.3738
N1356 G01 X-1.2193 Y0.6503 Z-0.3730
N1357 G01 X-0.9142 Y0.6553 Z-0.3723
N1358 G01 X-0.6100 Y0.6587 Z-0.3718
N1359 G01 X-0.3047 Y0.6607 Z-0.3716
N1360 G01 X0.0000 Y0.6616 Z-0.3715
N1361 G01 X0.3047 Y0.6607 Z-0.3716
N1362 G01 X0.6100 Y0.6587 Z-0.3718
N1363 G01 X0.9142 Y0.6553 Z-0.3723
N1364 G01 X1.2193 Y0.6503 Z-0.3730
N1365 G01 X1.5238 Y0.6439 Z-0.3738
N1366 G01 X1.8287 Y0.6362 Z-0.3748
N1367 G01 X2.1332 Y0.6270 Z-0.3760
N1368 G01 X2.4380 Y0.6164 Z-0.3773
N1369 G01 X2.7425 Y0.6044 Z-0.3788
N1370 G01 X3.0471 Y0.5910 Z-0.3805
N1371 G01 X3.3514 Y0.5762 Z-0.3823
N1372 G01 X3.6559 Y0.5600 Z-0.3842
N1373 G01 X3.9601 Y0.5424 Z-0.3862
N1374 G01 X4.2644 Y0.5234 Z-0.3884
N1375 G01 X4.5684 Y0.5030 Z-0.3906
N1376 G01 X4.8725 Y0.4812 Z-0.3929
N1377 G01 X5.1764 Y0.4580 Z-0.3952
N1378 G01 X5.4802 Y0.4334 Z-0.3976
N1379 G01 X5.7838 Y0.4074 Z-0.4000
N1380 G01 X6.0874 Y0.3800 Z-0.4024
N1381 G01 X6.3903 Y0.3513 Z-0.4047
N1382 G01 X6.7214 Y0.3183 Z-0.4072
N1383 G01 X6.4120 Y0.2183 Z-0.3905
N1384 G01 X6.1223 Y0.1291 Z-0.3755
N1385 G01 X5.8311 Y0.0435 Z-0.3609
N1386 G01 X5.5390 Y-0.0381 Z-0.3470
N1387 G01 X5.2457 Y-0.1160 Z-0.3336
N1388 G01 X4.9516 Y-0.1898 Z-0.3209
N1389 G01 X4.6564 Y-0.2597 Z-0.3088
N1390 G01 X4.3605 Y-0.3254 Z-0.2975
N1391 G01 X4.0636 Y-0.3872 Z-0.2868
N1392 G01 X3.7659 Y-0.4446 Z-0.2769
N1393 G01 X3.4676 Y-0.4979 Z-0.2677
N1394 G01 X3.1683 Y-0.5468 Z-0.2592
N1395 G01 X2.8687 Y-0.5915 Z-0.2514
N1396 G01 X2.5682 Y-0.6318 Z-0.2444
N1397 G01 X2.2676 Y-0.6678 Z-0.2382
N1398 G01 X1.9659 Y-0.6993 Z-0.2327
N1399 G01 X1.6645 Y-0.7263 Z-0.2280
N1400 G01 X1.3620 Y-0.7491 Z-0.2241
N1401 G01 X1.0599 Y-0.7669 Z-0.2210
N1402 G01 X0.7570 Y-0.7811 Z-0.2186
N1403 G01 X0.4551 Y-0.7892 Z-0.2172
N1404 G01 X0.1509 Y-0.7940 Z-0.2164
N1405 G01 X-0.1509 
N1406 G01 X-0.4551 Y-0.7892 Z-0.2172
N1407 G01 X-0.7570 Y-0.7811 Z-0.2186
N1408 G01 X-1.0599 Y-0.7669 Z-0.2210
N1409 G01 X-1.3620 Y-0.7491 Z-0.2241
N1410 G01 X-1.6645 Y-0.7263 Z-0.2280
N1411 G01 X-1.9659 Y-0.6993 Z-0.2327
N1412 G01 X-2.2676 Y-0.6678 Z-0.2382
N1413 G01 X-2.5682 Y-0.6318 Z-0.2444
N1414 G01 X-2.8687 Y-0.5915 Z-0.2514
N1415 G01 X-3.1683 Y-0.5468 Z-0.2592
N1416 G01 X-3.4676 Y-0.4979 Z-0.2677
N1417 G01 X-3.7659 Y-0.4446 Z-0.2769
N1418 G01 X-4.0636 Y-0.3872 Z-0.2868
N1419 G01 X-4.3605 Y-0.3254 Z-0.2975
N1420 G01 X-4.6564 Y-0.2597 Z-0.3088
N1421 G01 X-4.9516 Y-0.1898 Z-0.3209
N1422 G01 X-5.2457 Y-0.1160 Z-0.3336
N1423 G01 X-5.5390 Y-0.0381 Z-0.3470
N1424 G01 X-5.8311 Y0.0435 Z-0.3609
N1425 G01 X-6.1223 Y0.1291 Z-0.3755
N1426 G01 X-6.4120 Y0.2183 Z-0.3905
N1427 G01 X-6.7214 Y0.3183 Z-0.4072
N1428 G01 X-5.1197 Y0.1614 Z-0.3637
N1429 G01 X-4.8306 Y0.1834 Z-0.3621
N1430 G01 X-4.5199 Y0.2056 Z-0.3604
N1431 G01 X-4.2087 Y0.2263 Z-0.3587
N1432 G01 X-3.8973 Y0.2456 Z-0.3571
N1433 G01 X-3.5859 Y0.2634 Z-0.3556
N1434 G01 X-3.2743 Y0.2797 Z-0.3541
N1435 G01 X-2.9627 Y0.2945 Z-0.3527
N1436 G01 X-2.6510 Y0.3079 Z-0.3515
N1437 G01 X-2.3393 Y0.3198 Z-0.3503
N1438 G01 X-2.0275 Y0.3302 Z-0.3493
N1439 G01 X-1.7157 Y0.3391 Z-0.3484
N1440 G01 X-1.4037 Y0.3466 Z-0.3477
N1441 G01 X-1.0918 Y0.3524 Z-0.3471
N1442 G01 X-0.7799 Y0.3571 Z-0.3466
N1443 G01 X-0.4682 Y0.3597 Z-0.3463
N1444 G01 X-0.1558 Y0.3613 Z-0.3462
N1445 G01 X0.1558 
N1446 G01 X0.4682 Y0.3597 Z-0.3463
N1447 G01 X0.7799 Y0.3571 Z-0.3466
N1448 G01 X1.0918 Y0.3524 Z-0.3471
N1449 G01 X1.4037 Y0.3466 Z-0.3477
N1450 G01 X1.7157 Y0.3391 Z-0.3484
N1451 G01 X2.0275 Y0.3302 Z-0.3493
N1452 G01 X2.3393 Y0.3198 Z-0.3503
N1453 G01 X2.6510 Y0.3079 Z-0.3515
N1454 G01 X2.9627 Y0.2945 Z-0.3527
N1455 G01 X3.2743 Y0.2797 Z-0.3541
N1456 G01 X3.5859 Y0.2634 Z-0.3556
N1457 G01 X3.8973 Y0.2456 Z-0.3571
N1458 G01 X4.2087 Y0.2263 Z-0.3587
N1459 G01 X4.5199 Y0.2056 Z-0.3604
N1460 G01 X4.8306 Y0.1834 Z-0.3621
N1461 G01 X5.1197 Y0.1614 Z-0.3637
N1462 G01 X4.8449 Y0.0930 Z-0.3523
N1463 G01 X4.5476 Y0.0231 Z-0.3406
N1464 G01 X4.2487 Y-0.0425 Z-0.3296
N1465 G01 X3.9491 Y-0.1041 Z-0.3191
N1466 G01 X3.6484 Y-0.1612 Z-0.3095
N1467 G01 X3.3474 Y-0.2139 Z-0.3005
N1468 G01 X3.0452 Y-0.2623 Z-0.2922
N1469 G01 X2.7428 Y-0.3061 Z-0.2847
N1470 G01 X2.4393 Y-0.3456 Z-0.2780
N1471 G01 X2.1358 Y-0.3803 Z-0.2720
N1472 G01 X1.8314 Y-0.4108 Z-0.2668
N1473 G01 X1.5268 Y-0.4362 Z-0.2624
N1474 G01 X1.2220 Y-0.4575 Z-0.2588
N1475 G01 X0.9162 Y-0.4737 Z-0.2560
N1476 G01 X0.6121 Y-0.4856 Z-0.2540
N1477 G01 X0.3055 Y-0.4918 Z-0.2529
N1478 G01 X0.0000 Y-0.4948 Z-0.2524
N1479 G01 X-0.3055 Y-0.4918 Z-0.2529
N1480 G01 X-0.6121 Y-0.4856 Z-0.2540
N1481 G01 X-0.9162 Y-0.4737 Z-0.2560
N1482 G01 X-1.2220 Y-0.4575 Z-0.2588
N1483 G01 X-1.5268 Y-0.4362 Z-0.2624
N1484 G01 X-1.8314 Y-0.4108 Z-0.2668
N1485 G01 X-2.1358 Y-0.3803 Z-0.2720
N1486 G01 X-2.4393 Y-0.3456 Z-0.2780
N1487 G01 X-2.7428 Y-0.3061 Z-0.2847
N1488 G01 X-3.0452 Y-0.2623 Z-0.2922
N1489 G01 X-3.3474 Y-0.2139 Z-0.3005
N1490 G01 X-3.6484 Y-0.1612 Z-0.3095
N1491 G01 X-3.9491 Y-0.1041 Z-0.3191
N1492 G01 X-4.2487 Y-0.0425 Z-0.3296
N1493 G01 X-4.5476 Y0.0231 Z-0.3406
N1494 G01 X-4.8449 Y0.0930 Z-0.3523
N1495 G01 X-5.1197 Y0.1614 Z-0.3637
N1496 G01 X-2.7810 Y0.0022 Z-0.3205
N1497 G01 X-2.4910 Y0.0140 Z-0.3197
N1498 G01 X-2.1800 Y0.0251 Z-0.3189
N1499 G01 X-1.8688 Y0.0348 Z-0.3182
N1500 G01 X-1.5573 Y0.0430 Z-0.3176
N1501 G01 X-1.2460 Y0.0497 Z-0.3171
N1502 G01 X-0.9343 Y0.0549 Z-0.3167
N1503 G01 X-0.6233 Y0.0586 Z-0.3164
N1504 G01 X-0.3114 Y0.0606 Z-0.3162
N1505 G01 X0.0000 Y0.0616 
N1506 G01 X0.3114 Y0.0606 
N1507 G01 X0.6233 Y0.0586 Z-0.3164
N1508 G01 X0.9343 Y0.0549 Z-0.3167
N1509 G01 X1.2460 Y0.0497 Z-0.3171
N1510 G01 X1.5573 Y0.0430 Z-0.3176
N1511 G01 X1.8688 Y0.0348 Z-0.3182
N1512 G01 X2.1800 Y0.0251 Z-0.3189
N1513 G01 X2.4910 Y0.0140 Z-0.3197
N1514 G01 X2.7810 Y0.0022 Z-0.3205
N1515 G01 X2.4988 Y-0.0358 Z-0.3142
N1516 G01 X2.1888 Y-0.0728 Z-0.3081
N1517 G01 X1.8769 Y-0.1051 Z-0.3027
N1518 G01 X1.5650 Y-0.1323 Z-0.2982
N1519 G01 X1.2524 Y-0.1550 Z-0.2944
N1520 G01 X0.9392 Y-0.1723 Z-0.2915
N1521 G01 X0.6272 Y-0.1851 Z-0.2894
N1522 G01 X0.3132 Y-0.1917 Z-0.2882
N1523 G01 X0.0000 Y-0.1948 Z-0.2877
N1524 G01 X-0.3132 Y-0.1917 Z-0.2882
N1525 G01 X-0.6272 Y-0.1851 Z-0.2894
N1526 G01 X-0.9392 Y-0.1723 Z-0.2915
N1527 G01 X-1.2524 Y-0.1550 Z-0.2944
N1528 G01 X-1.5650 Y-0.1323 Z-0.2982
N1529 G01 X-1.8769 Y-0.1051 Z-0.3027
N1530 G01 X-2.1888 Y-0.0728 Z-0.3081
N1531 G01 X-2.4988 Y-0.0358 Z-0.3142
N1532 G01 X-2.7810 Y0.0022 Z-0.3205
N1533 M30
